<?xml version="1.0" encoding="UTF-8"?>
<map version="1.10" tiledversion="1.11.2" orientation="orthogonal" renderorder="right-down" compressionlevel="0" width="100" height="75" tilewidth="16" tileheight="16" infinite="0" nextlayerid="17" nextobjectid="97">
 <properties>
  <property name="AllowGrassSurviveInWinter" value="T"/>
  <property name="BackwoodsEntry" value="63 0"/>
  <property name="BrookSounds" value="9 8 4 47 11 4"/>
  <property name="BusStopEntry" value="99 22"/>
  <property name="FarmCaveEntry" value="88 55"/>
  <property name="FarmHouseEntry" value="81 19"/>
  <property name="FarmHouseFlooring" value="41"/>
  <property name="FarmHouseFurniture" value="1792 8 4 0 312 8 6 2 1680 1 4 0 2802 7 4 0 704 4 4 0 1120 1 6 0 192 1 8 2 1443 8 10 0 1383 1 10 0 1382 3 4 0 1369 1 6 0 1814 2 1 0 1814 4 1 0 1814 6 1 0 1616 3 1 0 1616 5 1 0 2632 7 1 0"/>
  <property name="FarmHouseStarterGift" value="(O)178 15"/>
  <property name="FarmHouseStarterSeedsPosition" value="4 7"/>
  <property name="FarmHouseWallpaper" value="41"/>
  <property name="ForestEntry" value="53 74"/>
  <property name="GrandpaShrineLocation" value="14 9"/>
  <property name="GreenhouseLocation" value="37 19"/>
  <property name="MailboxLocation" value="85 20"/>
  <property name="Outdoors" value="T"/>
  <property name="PetBowlLocation" value="91 14"/>
  <property name="ShippingBinLocation" value="88 18"/>
  <property name="SpouseAreaLocation" value="88 5"/>
  <property name="Warp" value="100 21 BusStop 11 23 100 22 BusStop 11 23 100 23 BusStop 11 23 52 75 Forest 68 0 53 75 Forest 68 0 63 -1 Backwoods 14 39 64 -1 Backwoods 14 39 88 54 FarmCave 8 11"/>
  <property name="WarpTotemEntry" value="71 6"/>
 </properties>
 <tileset firstgid="1" source="../tilesets/Paths.tsx"/>
 <tileset firstgid="65" source="../tilesets/spring_island_tilesheet_1.tsx"/>
 <tileset firstgid="1345" source="../tilesets/spring_outdoorsTileSheet2.tsx"/>
 <tileset firstgid="2465" source="../tilesets/spring_outdoorTileSheet_extra.tsx"/>
 <tileset firstgid="2529" source="../tilesets/spring_Waterfalls.tsx"/>
 <tileset firstgid="3429" source="../tilesets/spring_outdoorsTileSheet.tsx"/>
 <layer id="1" name="Back" width="100" height="75">
  <data encoding="csv">
3604,3604,3604,3780,3781,3654,2228,4700,2211,3657,3604,3779,3780,3604,3604,3604,3604,3604,3581,3604,3604,3604,3604,3579,3754,3755,3756,3604,3604,3604,3779,3780,3604,3580,3780,3780,3780,3780,3781,3604,3754,3755,3704,3704,2228,4671,4674,3704,3779,3780,3780,3781,3604,3604,3604,3604,3604,3604,3781,3604,3604,3604,3655,3993,4017,3966,3779,3579,3685,3685,3685,3604,3683,3779,3780,3604,3604,3604,3604,3604,3604,3779,3780,3781,3685,3604,3685,3685,3685,3579,3779,3780,3733,3780,3734,3780,3780,3780,3804,3805,
3604,3604,3604,3780,3781,3679,3681,4678,2227,3606,3632,3779,3780,3604,3604,3604,3604,3604,3780,3780,3780,3780,3780,3780,3779,3780,3781,3754,3755,3756,3779,3780,3604,3604,3805,3705,3706,3707,3806,3604,3779,3780,3704,3704,4675,4696,4699,3704,3804,3805,3805,3806,3780,3780,3780,3780,3780,3780,3781,3754,3755,3756,3655,3655,4017,3966,3779,3780,3604,3685,3604,3685,3685,3779,3780,3780,3780,3780,3780,3781,3580,3804,3805,3806,3604,3604,3604,3604,3604,3604,3804,3805,3805,3705,3706,3707,3832,3780,3604,3604,
3780,3780,3780,3780,3710,3579,3654,2212,4671,4674,3657,3779,3780,3604,3604,3780,3780,3780,3780,3705,3706,3707,3832,3780,3804,3805,3806,3779,3780,3781,3779,3780,3780,3780,3781,3604,3604,3754,3755,3756,3804,3805,3806,3704,3579,4700,4678,3704,3604,3779,3604,3604,3780,3782,3805,3705,3706,3707,3806,3779,3780,3781,3655,4018,4017,3966,3779,3780,3780,3604,3604,3685,3685,3804,3705,3706,3707,3805,3805,3806,3704,3604,3604,3604,3780,3780,3780,3780,3780,3780,3604,3604,3604,3604,3604,3604,3779,3780,3780,3780,
3780,3780,3780,3780,3735,3604,3654,2228,4696,4699,3657,3779,3780,3780,3780,3782,3705,3706,3707,3754,3755,3756,3779,3780,3604,3604,3604,3804,3805,3806,3804,3705,3706,3707,3806,3604,3604,3779,3780,3781,3604,3604,3604,3781,3604,4700,4700,3604,3604,3779,3780,3780,3780,3781,3754,3755,3755,3756,3581,3804,3805,3806,3655,3917,4017,3966,3779,3780,3780,3604,3604,3604,3604,3604,3604,3604,3580,3604,3604,3829,3604,3604,3604,3604,3805,3705,3706,3707,3832,3780,3780,3780,3780,3780,3780,3780,3804,3805,3705,3706,
3784,3784,3785,3780,3760,3581,3679,3680,4700,4678,3682,3804,3705,3706,3707,3806,3580,3830,3604,3779,3780,3781,3779,3780,3780,3780,3780,3780,3780,3780,3780,3604,3604,3604,3604,3604,3604,3804,3805,3806,3604,3604,3780,3781,4709,4709,4709,4709,3604,3804,3705,3706,3707,3806,3779,3780,3780,3781,3604,3579,3604,3580,3679,3681,4017,3966,3804,3832,3780,3779,3780,3780,3780,3780,3780,3780,3779,3780,3780,3780,3780,3780,3780,3780,3781,3685,3685,3685,3804,3805,3705,3706,3706,3707,3832,3780,3579,3604,3604,3604,
3809,3809,3810,3782,3806,3604,3604,3604,4700,4700,3604,3604,3604,3685,3604,3604,3604,3579,3604,3804,3805,3806,3804,3705,3706,3706,3706,3706,3706,3706,3706,3706,3780,3780,3780,3780,3604,3604,3604,3604,3604,3780,3780,3781,4732,4709,4709,4707,3606,3604,3754,3755,3756,3604,3804,3805,3805,3806,3604,3604,3604,3604,3604,3654,4017,3966,3581,3779,3780,3804,3805,3805,3805,3805,3832,3780,3782,3705,3706,3707,3805,3805,3805,3805,3806,3580,3704,3604,3604,3604,3604,3604,3604,3604,3779,3780,3604,3604,3604,3604,
3834,3834,3835,3781,3830,3604,3604,3604,4700,4700,3604,3604,3604,3604,3604,3604,3604,3604,3604,3581,3604,3604,3604,3604,3604,3604,3604,3604,3604,3604,3804,3805,3805,3805,3832,3780,3780,3780,3780,3780,3780,3780,3780,3781,4733,4734,4734,4671,4674,3604,3779,3780,3781,3580,3604,3830,3604,3604,3604,3780,3758,3781,3604,3654,3967,3966,3655,3779,3780,3685,3604,5393,3604,3685,3804,3805,3806,3604,3604,3604,3604,3604,3604,3604,3604,3604,3579,3604,3604,3604,3604,3604,3604,3604,3779,3780,3780,3780,3780,3604,
3705,3706,3707,3806,3604,3604,3604,3604,4700,4700,3604,2474,3604,3604,3604,3604,3604,3604,3604,3604,3809,3809,3809,3809,3809,3809,3809,3809,3809,3809,3809,3604,3604,3604,3779,3780,3782,3805,3805,3805,3805,3805,3805,3806,3604,3604,4678,4696,4699,3604,3804,3805,3806,3604,3604,3604,3604,3604,3604,3758,3782,3806,3629,3631,4017,3966,3966,3779,3780,3604,3767,3767,1417,3830,3604,3580,3704,3780,3780,3780,3780,3780,3780,3780,3780,3604,3604,5393,5394,5393,5394,5395,5393,3604,3804,3705,3705,3707,3832,3780,
3604,3580,3604,3604,3604,3685,3654,4709,4709,4709,4709,2482,3604,3604,3604,3604,3604,3604,3604,3604,3834,3834,3834,3834,3834,3834,3834,3834,3834,3836,3809,3809,3809,3809,3804,3805,3806,3604,3604,3754,3755,3756,3604,3604,3604,3604,4700,4700,3604,3604,3604,3604,3604,3780,3758,3758,3780,3780,3780,3780,3781,3579,2086,3660,4074,3992,3966,3779,3780,3780,3768,3768,1417,3604,3604,3604,3604,3780,3734,3782,3705,3706,3707,3805,3805,3604,3604,5393,5393,5395,5393,5394,5393,3604,3604,3704,3604,3580,3804,3805,
3604,3604,3604,3604,3604,3685,3654,4732,4709,4709,4707,2490,3690,4267,4267,4267,3809,3809,3809,3809,3810,3734,3780,3729,3780,3780,3782,3805,3832,3833,3834,3834,3836,3809,3604,3604,3604,3604,3580,3779,3780,3781,3604,3604,3604,3604,4700,4700,3604,3604,3779,3758,3780,3780,3782,3805,3705,3706,3707,3805,3806,3704,2102,4043,3635,4017,3966,3804,3805,3832,3708,3708,3708,3780,3780,3780,3782,3805,3805,3806,3685,3581,3579,3604,3604,3604,3604,3704,3830,3604,3604,3754,3757,3780,3780,3580,3604,3754,3755,3685,
3604,3604,3604,3780,3780,3629,3631,4733,4734,4734,4735,2474,3715,4267,4267,4267,3834,3834,3834,3834,3835,3780,3758,3780,3734,3780,3781,3580,3779,3780,3733,3780,3833,3834,3834,3834,3834,3780,3604,3804,3805,3806,3604,3604,3654,4709,4709,4709,4709,3657,3804,3705,3706,3707,3806,3604,3829,3604,3754,3756,370,3580,2118,3942,3655,4017,3966,3604,3604,3804,3805,3705,3706,3707,3805,3805,3806,3604,3604,3604,3604,3604,3604,3780,3780,3780,3782,3704,3604,3604,3579,3804,3805,3832,3780,3685,3829,3779,3780,3685,
3604,3604,3780,3780,3781,3654,4672,2178,4753,4751,4700,2482,3740,3708,3708,3708,3780,3780,3780,3734,3780,3780,3780,3782,3832,3780,3807,3755,3757,3782,3705,3706,3707,3805,3805,3705,3706,3707,3604,3604,3604,3604,3604,3604,3654,4732,4709,4709,4707,3606,3608,3634,3632,3579,3629,3630,3630,3632,3804,3806,3683,3629,3631,3655,3892,4017,3966,3966,3966,3580,3604,3579,3604,3604,3604,3604,3604,3755,3755,3755,3755,3755,3755,3782,3705,3707,3806,370,3629,3630,3632,3754,3756,3690,3780,3685,3754,3755,3604,3685,
3780,3780,3780,3782,3806,3654,4697,4695,4752,4700,4043,2490,3804,3805,3832,3729,3734,3782,3805,3805,3832,3729,3780,3807,3757,3780,3782,3805,3805,3806,3581,3629,3630,3608,3609,3609,3609,3609,3634,3630,3632,3604,3604,3629,3631,4733,4734,4734,4678,3892,3655,3610,3606,3630,3631,3655,3636,3606,3608,3609,3634,3631,3655,4018,3655,4074,3941,3992,3966,3657,3604,3754,3755,3755,3755,3755,3755,3782,3805,3705,3706,3707,3805,3806,3604,3581,3604,3604,3654,3607,3682,3804,3806,3740,3780,3604,3779,3780,3604,3604,
3706,3707,3805,3806,3604,3654,4700,4751,4700,2179,4674,3606,3630,3632,3779,3733,3782,3806,3685,3829,3804,3805,3705,3706,3707,3805,3806,3604,3629,3608,3634,3631,4672,4673,4673,4673,4673,4673,4674,2306,3606,3609,3634,3631,4672,2178,4677,4751,4700,3655,3605,3656,3605,3942,3656,3655,4018,3656,3993,3607,3681,3607,3680,3681,3655,3660,3989,4017,3966,3657,3604,3804,3805,3705,3706,3707,3805,3806,3754,3756,3684,3604,3754,3755,3756,3604,3704,3604,3679,3682,3629,3608,3609,3779,3780,3754,3757,3780,3604,3604,
3755,3756,3581,3754,3756,3679,3681,4700,4753,2195,4699,4018,3611,3657,3804,3805,3806,3579,3754,3756,370,3684,3629,3632,3754,3755,3756,3830,2086,2241,4672,4673,2193,4698,4698,4698,4698,4698,2197,2198,4674,3655,3655,4672,2193,4695,4752,4700,3655,3605,4014,3656,3655,3655,3656,3656,3655,3917,3655,3606,3631,3657,3604,3679,3680,3680,3681,4074,3994,3657,370,3604,3604,3754,3755,3756,3604,3604,3804,3806,3604,3604,3779,3729,3781,370,3604,3604,3704,3604,3654,3636,3656,3657,3580,3779,3733,3808,3809,3809,
3780,3781,3830,3804,3806,3604,3679,3681,4700,4752,4671,4674,3917,3606,3630,3632,3704,370,3804,3806,3580,3704,3679,3682,3779,3729,3781,370,2102,2165,2167,4698,4695,4678,4753,4700,4700,4751,2213,2214,4699,4673,4673,2193,4695,4703,4753,4700,3917,3656,3655,3655,3656,3656,3989,3605,3605,3655,3605,3656,3655,3606,3632,3629,3632,370,3679,3658,3633,3682,3629,3632,3604,3779,3734,3807,3756,370,3754,3730,3732,3756,3804,3832,3807,3756,3604,3604,370,3604,3654,3655,3989,3657,3604,3804,3832,3833,3834,3834,
3780,3807,3756,3754,3755,3756,3830,3654,4700,4703,4696,4699,3989,3942,3610,3606,3630,3608,3609,3634,3608,3634,3630,3632,3804,3805,3806,3685,2118,2181,2194,4752,4703,4700,3607,3680,3681,4700,4703,4678,4696,4698,4698,4695,4700,4751,4700,3655,4018,3656,3656,3942,3656,3605,3655,3605,4043,3656,3635,3655,3660,3655,3657,3679,3682,3629,3630,3632,3704,3629,3631,3657,3604,3804,3805,3832,3807,3756,3779,3733,3729,3710,3829,3779,3780,3710,3604,3629,3632,3580,3679,3680,3680,3682,3604,3604,3779,3758,3758,3734,
3780,3780,3781,3779,3780,3781,3604,3654,3993,4700,4753,2179,4674,3635,3892,4672,4673,4673,4673,4673,4673,4674,2388,3606,3632,3581,3629,3630,3631,4700,4751,4700,4700,3607,3682,3604,3679,3680,3681,4700,4753,4752,4678,4700,4700,3610,3655,3607,3680,3681,3656,3993,3656,3636,3656,3655,3655,3656,3917,3656,3605,3656,2474,370,3604,3654,3917,3606,3632,3679,3680,3682,370,3604,3704,3690,3782,3806,3804,3805,3832,3760,3704,3779,3758,3760,3704,3679,3682,3604,3604,3604,3754,3755,3755,3780,3804,3705,3706,3707,
3784,3785,3781,3804,3805,3806,3580,3654,3610,2212,4701,2195,2196,4673,4673,2193,4698,4698,4698,4698,4698,2197,2198,2199,3606,3630,3631,4672,4673,2178,4753,4700,3607,3682,3604,370,3604,3604,3679,3658,3659,3659,3633,3680,3681,3655,3917,3657,3580,3654,3989,3655,3660,3655,3605,3892,3656,4018,3656,4039,3605,3942,2482,3704,3604,3679,3681,3611,3657,3604,3604,3830,3604,3604,3604,3715,3807,3755,3756,3579,3804,3806,370,3804,3805,3806,3579,3629,3630,3630,3632,370,3779,3758,3758,3780,3780,3780,3780,3780,
3809,3810,3781,3604,3684,3604,3629,3631,4672,2209,4703,4700,4696,4698,4698,4695,4751,4700,4703,4678,4753,2213,2214,2196,4673,4673,4673,2193,4698,4695,4703,2211,2474,3579,3704,3604,3704,370,3604,3604,3604,3604,3629,3632,3654,3611,3656,3606,3630,3631,3656,3655,3655,4018,3655,3656,3655,3655,3989,3655,3655,3635,2490,3604,3580,3604,3679,3680,3682,3604,3604,3604,3629,3632,3580,3740,3780,3733,3781,370,3604,3604,3604,3604,3604,3704,3604,3654,3610,3978,3657,3604,3804,3805,3805,3805,3832,3780,3780,3780,
3834,3835,3781,3579,3604,3629,4672,4673,2193,2225,4751,4700,4752,4703,4700,4753,4700,3607,3680,3681,4700,4700,4751,4696,4698,4698,4698,2225,4700,4678,4752,2227,2490,370,3604,3604,3580,3604,3754,3756,370,3604,3679,3682,3679,3681,3655,3656,3655,3655,3989,3655,3656,3655,3656,4039,3656,3655,3656,3655,3605,3607,3682,3579,3604,370,3704,3604,3604,3604,3579,3604,3679,3682,3604,3804,3805,3805,3806,3604,3604,3604,3604,370,3604,3685,3704,3654,3655,4050,3606,3632,3685,3685,3685,3685,3804,3805,3805,3805,
3734,3782,3806,3604,3629,3631,2165,2167,4695,4700,4753,4700,4700,4700,3607,3658,3633,3682,3604,3679,3680,3681,4700,4700,4678,4700,4703,4700,4751,4700,3607,3680,3682,3754,3756,3704,3604,3604,3804,3806,3604,3581,3604,370,3604,3654,3636,3656,4018,3655,3892,3655,3656,3655,3942,3605,3655,3989,3605,3917,3655,2474,3629,3632,3829,3754,3755,3755,3756,3604,370,3629,3608,3609,3634,3630,3630,3608,3609,3609,3634,3630,3630,3630,3608,3609,3634,3631,3655,4051,3611,3606,3630,3608,3634,3630,3630,3608,3609,3634,
3805,3806,3685,3580,3654,4672,2193,2194,4703,4678,4700,4700,3607,3680,3682,3604,3604,3604,370,3604,3579,3679,3681,3607,3658,3633,3680,3658,3659,3633,3682,3604,3704,3804,3806,3604,3704,370,3629,3630,3632,370,3604,3604,3604,3679,3658,3659,3633,3680,3681,3989,3605,3635,3655,3993,3656,3605,4018,3655,3892,2490,3679,3682,3754,3757,3780,3782,3806,3604,3629,3631,3655,4018,3655,3605,3655,3942,3605,3655,3605,3989,3605,3655,3605,3605,3892,3605,3655,4053,4026,4002,4026,4002,4026,4002,4026,4002,4026,4002,
3685,3604,3685,3629,3631,4697,2194,4703,4752,4700,3607,3680,3682,370,3604,3581,3754,3730,3732,3756,3604,3830,3679,3682,370,3604,3604,3604,3704,3754,3730,3731,3732,3756,3604,3604,3604,3604,3679,3680,3682,3629,3630,3632,3604,3579,3704,3604,3604,3604,3679,3680,3680,3658,3633,3680,3658,3659,3633,3680,3680,3682,3754,3755,3757,3734,3780,3781,3604,3581,2086,3655,3917,3655,3605,3989,3655,3605,4043,3605,3655,3605,3655,3605,3993,3605,3655,3605,3655,4018,3655,3655,3655,3610,3655,3611,3610,3680,3680,3680,
3604,3604,3685,3654,4672,2178,4752,4700,4700,4700,3657,3604,3579,3604,3754,3756,3779,3733,3734,3807,3730,3732,3756,3604,3604,3604,3604,3604,3754,3757,3729,3782,3832,3807,3756,370,3604,3629,3608,3609,3634,3631,3942,3657,3604,3604,3604,3579,370,3704,3604,3604,3629,3630,3632,3704,3604,3581,3604,3754,3755,3755,3757,3780,3780,3780,3782,3806,370,3604,2118,3942,3656,3655,4014,3582,3655,3605,3917,3605,4018,3605,3917,3655,3655,3582,3605,3605,3942,3605,3655,3655,3655,3680,3680,3680,3682,3604,3604,3604,
3604,3604,3604,3654,4697,4695,4700,4751,4700,3607,3682,3629,3632,3830,3804,3806,3804,3805,3832,3733,3780,3729,3781,370,3579,3704,3604,3581,3779,3780,3780,3807,3757,3734,3710,3704,3604,3654,3605,3605,3611,3636,3607,3682,3604,3604,3604,3604,3604,3604,3604,3604,3679,3680,3682,3754,3730,3731,3732,3757,3780,3780,3780,3729,3780,3780,3781,3754,3756,3629,3631,3582,3635,3655,3655,3655,3660,3655,3605,3655,3942,3605,3655,3605,3656,3605,4039,3605,3655,3989,3636,3605,3607,3604,3604,3604,3604,3604,3604,3604,
3754,3755,3756,3654,4700,4703,4700,4700,4678,3657,371,3679,3682,3629,3630,3632,3704,3604,3804,3705,3706,3707,3806,3604,3604,3604,370,3604,3804,3832,3780,3734,3758,3780,3735,3629,3632,3679,3681,3635,3655,3917,3657,370,3629,3632,3604,370,3704,3580,3604,3754,3756,3604,3829,3779,3780,3780,3733,3780,3780,3780,3782,3832,3780,3780,3781,3804,3806,3654,3610,3655,3993,3656,3942,3605,3655,3605,3989,3605,3605,3655,3660,3655,3892,3655,3605,4018,3655,3605,3582,3655,3657,3604,3604,3579,3754,3755,3604,3604,
3779,3780,3781,3654,4700,4752,4703,4677,2211,3606,3608,3609,3634,3631,3610,3606,3630,3632,3579,370,3604,3580,3604,3629,3630,3632,3604,3704,3604,3804,3805,3832,3780,3733,3760,3679,3682,3604,3679,3680,3658,3633,3682,3629,3631,3657,3604,3604,3604,3604,3704,3804,3806,3754,3755,3757,3780,3733,3780,3780,3734,3780,3807,3757,3780,3782,3806,3604,3604,3679,3681,3655,3582,3582,3655,3989,3656,4018,3655,3635,3655,4014,3656,3655,3605,3605,3605,3605,3989,3655,3655,3917,3657,3754,3756,3604,3779,3780,3754,3755,
3804,3805,3806,3654,4703,4700,4753,4752,2210,4674,3607,3680,3681,3942,3655,3655,4039,3606,3630,3630,3632,3604,3604,3679,3680,3682,3604,3754,3756,370,3604,3804,3805,3805,3806,3704,3604,370,3579,3704,3604,3604,3604,3679,3680,3682,3604,3683,3604,3754,3755,3756,3604,3690,3780,3729,3780,3780,3782,3805,3832,3780,3733,3780,3780,3710,370,3629,3630,3632,3654,3989,3655,3655,3636,3605,3605,3655,3605,3656,3582,3582,3942,3655,3605,3993,3655,3942,3655,3582,4043,3605,3657,3804,3806,3754,3755,3580,3779,3780,
3604,3829,3581,3654,2212,4751,4700,4700,4696,4699,3657,3580,3654,4018,3582,3636,3655,3656,3655,3942,3606,3608,3609,3634,3632,370,3604,3804,3806,3604,3704,3604,3604,3604,3754,3730,3732,3756,3754,3756,3604,3604,3704,3604,3604,3604,370,3604,3604,3779,3733,3781,3684,3740,3780,3780,3734,3782,3806,3580,3779,3758,3780,3780,3733,3735,3604,3654,3611,3657,2086,3655,3605,3942,3605,3582,4043,3655,3917,3582,4018,3655,3605,3656,3655,3605,3655,3605,3656,3892,3655,3655,3657,3604,3604,3779,3780,3604,3804,3805,
3604,3754,3756,3654,2228,4700,4700,4703,4751,4700,3606,3630,3631,3605,3605,3655,4018,3892,3655,3656,3655,3656,3655,3611,3606,3630,3632,3604,3604,3579,370,3604,3604,3704,3779,3729,3780,3781,3804,3806,370,3604,3581,3604,3579,3604,3704,3604,3604,3804,3805,3806,3604,3804,3832,3780,3780,3781,3579,3754,3757,3780,3780,3780,3780,3760,3580,3679,3680,3682,2102,3605,3582,3655,3656,3655,3605,3656,3660,3605,3655,3993,3605,3605,3989,3655,3660,3655,3605,3582,3605,4018,3657,3604,3604,3779,3780,3604,3604,3604,
3604,3804,3806,3679,3681,4700,4752,4700,4660,4703,3993,3917,3989,3605,3635,3655,3656,3605,3582,3636,3605,3989,3656,3655,3656,3655,3606,3630,3632,3704,3629,3632,3604,3604,3804,3832,3733,3807,3755,3756,3704,3604,3604,370,3604,3604,3629,3608,3634,3630,3632,370,3754,3756,3804,3805,3832,3807,3755,3757,3733,3729,3780,3780,3780,3807,3756,3830,3604,3604,2118,4018,3655,3605,4039,3582,3605,3942,3605,3656,3605,3605,3655,3942,3582,3655,3656,4018,3655,3605,3635,3655,3657,3604,3604,3779,3780,3780,3780,3604,
3604,3604,3579,3604,3654,4700,4700,4657,4685,2211,3655,3656,3656,4014,3655,3656,3993,3655,3656,3605,3917,3656,3655,3660,3655,3605,4039,3917,3606,3632,3679,3682,3580,3604,3830,3804,3705,3706,3707,3806,3604,3604,3629,3632,3604,3629,3631,3607,3680,3681,3606,3632,3804,3806,3579,3830,3779,3733,3780,3780,3780,3780,3780,3734,3780,3780,3807,3756,370,3629,3631,3655,3660,3655,3605,3892,3655,3605,3917,3655,3942,3605,3636,3582,3605,3605,3655,3605,4014,3655,3605,3605,3657,3604,3604,3804,3805,3832,3780,3684,
3755,3756,3830,3604,3654,4753,4708,4656,4710,2227,3655,3892,3582,3655,3605,3656,3655,3655,3942,3656,3655,3635,3655,3655,3605,4018,3656,3655,3656,3606,3630,3632,3604,3629,3630,3630,3632,370,3604,3579,3604,3629,3631,3606,3630,3631,3610,3657,3579,3654,3655,3606,3608,3609,3634,3632,3804,3832,3780,3782,3832,3780,3780,3780,3780,3780,3734,3710,3604,3679,3681,3917,3655,3989,3605,3655,3655,3989,3655,4018,3605,3655,3605,4039,3605,3917,3605,3993,3655,3605,3605,3942,3657,3581,3604,3604,3829,3690,3780,3780,
3780,3781,3604,3604,3654,4700,4700,4732,4710,4671,4674,3655,3655,3636,3655,3917,3656,3605,3655,3656,3655,3656,3655,3656,3655,3656,3655,3605,3989,3605,3655,3606,3630,3631,3655,3942,3606,3608,3609,3634,3630,3631,3611,3655,3655,3942,3655,3606,3630,3631,3656,3917,3655,3655,3610,3606,3632,3804,3832,3807,3757,3780,3780,3780,3780,3780,3780,3760,3604,3604,3679,3680,3680,3681,3655,3611,3636,3607,3680,3658,3659,3633,3658,3659,3659,3633,3680,3681,3610,3607,3658,3633,3682,3754,3755,3755,3756,3740,3780,3780,
3805,3806,3604,3604,3654,2212,4700,4676,4753,4696,4699,3656,3656,3605,3605,3656,3655,3656,3655,4014,3605,3605,3989,3655,3656,3655,3892,3655,3656,3655,3636,3655,3605,3605,3605,3656,4018,3655,3892,3655,4039,3655,3605,3655,3582,3656,3635,3655,3656,3655,3656,3655,3605,4018,3655,3655,2474,370,3804,3832,3780,3780,3733,3780,3780,3729,3782,3806,3581,3754,3756,3704,370,3679,3658,3659,3633,3682,3604,3604,3629,3630,3632,3604,370,3629,3632,3679,3680,3682,3604,370,3685,3779,3758,3758,3781,3804,3805,3805,
3580,3604,3604,3604,3654,2228,4751,4700,4659,4702,4678,4014,3655,3660,3656,4018,3655,4039,3656,3605,3917,3655,3656,3942,3636,3655,3656,3655,3607,3681,3656,3656,3993,3655,3660,3655,3655,3605,3655,3605,3656,3636,3655,3605,3989,3655,3656,3655,3655,3660,3656,3656,3989,3656,3655,3942,2490,3580,3604,3779,3734,3780,3782,3805,3832,3780,3781,3629,3632,3804,3806,3754,3755,3756,3604,3580,3704,3604,3704,3604,3679,3680,3682,3604,3704,3679,3682,3604,3580,3604,370,3604,3604,3804,3805,3805,3806,3604,3604,3604,
3604,3604,3604,3604,3654,4700,4700,4708,4684,4685,2211,3989,3656,3655,3656,3605,3656,3605,3605,3660,3655,3605,3582,3655,3656,3655,3656,3656,3606,3631,3656,3655,3605,3656,3656,3656,3989,3656,3605,3655,4018,3656,3656,4014,3655,3605,3656,3892,3605,3655,4039,3655,3605,3656,3656,3655,3606,3632,3604,3804,3805,3832,3781,3580,3779,3780,3781,3679,3682,3604,370,3779,3734,3781,3579,3604,3629,3630,3632,370,3604,3604,3704,3579,3604,3604,3604,370,3604,3704,3754,3756,3604,3604,3604,3604,3604,3604,3604,3604,
3756,3604,3604,3604,3679,3681,4753,4683,4681,4710,2210,4674,4018,3656,3655,3989,3656,3656,3605,3605,3605,3655,3655,3656,4018,3582,3917,3655,3655,3605,3655,3605,3655,4014,3655,3655,3582,3655,3635,3655,3655,3942,3656,3656,3656,3655,3656,4018,3655,3656,3605,3605,3655,3636,3655,3582,3655,2474,3829,3629,3632,3779,3807,3755,3757,3780,3807,3755,3756,3829,3604,3804,3805,3806,3704,3604,3654,3610,3606,3632,3604,3581,3604,370,3604,3830,3754,3755,3755,3756,3804,3806,3685,3604,3604,3754,3755,3756,3604,3754,
3806,3754,3755,3756,3579,3654,4700,4708,4706,4685,2226,4699,3655,3635,3655,3656,3655,3636,3605,3656,3656,3656,3989,3605,3655,3656,3655,3656,3942,3655,3605,3892,3655,3656,3605,3655,3656,3655,3656,3989,3605,3655,3656,3656,3660,3656,3655,3656,3582,3989,3655,3635,3656,3655,4014,3917,4018,2482,370,3654,3657,3804,3832,3780,3734,3780,3780,3733,3807,3755,3756,3704,3604,3684,3704,3604,3679,3681,3607,3682,3604,3754,3756,3604,3754,3755,3757,3780,3729,3710,3604,3684,3604,3604,3604,3779,3780,3781,3580,3804,
3604,3779,3780,3781,3685,3654,4700,4678,4732,4710,4700,4703,3993,3655,3605,4014,3655,3605,3655,3917,3655,3656,3656,3656,3656,3655,3656,3655,3656,3655,3656,3655,3989,3605,3582,3660,3892,4039,3656,3655,3656,3892,3655,3656,3656,3605,3917,3656,3655,3656,3942,3656,3656,3655,3605,3656,3655,2490,3704,3679,3682,370,3779,3780,3780,3780,3780,3780,3734,3780,3807,3730,3732,3756,3604,370,3604,3679,3682,3604,3704,3804,3806,3754,3757,3782,3805,3832,3733,3760,3829,3604,3685,3604,3830,3804,3805,3806,3604,3604,
3604,3804,3805,3806,3604,3654,2212,4700,4703,4752,4700,4700,3917,3655,3655,3656,3656,3656,3605,3656,3655,3892,3605,3655,3582,3635,3655,3605,3582,3636,3582,3656,3655,2385,4673,4673,4673,4673,4673,3942,3655,3655,3656,3655,4018,3656,3656,3655,3656,3636,3656,3656,3655,3892,3655,3655,3605,3606,3632,3604,3604,3830,3779,3729,3780,3780,3758,3782,3832,3780,3780,3780,3780,3807,3755,3756,3580,3604,3704,3604,3604,370,3604,3779,3780,3781,3580,3779,3782,3806,3604,370,3604,3579,3604,3604,3604,3604,3604,3604,
3604,3830,3581,3604,3629,3631,2228,4751,4700,4700,4753,4700,3655,3605,3942,3655,3655,3656,3655,3993,3656,3655,3656,4014,3605,3605,3605,3656,3655,3605,3655,3993,4672,2166,2167,4698,4698,4698,2196,4673,4673,3655,3917,3655,3655,3656,3655,3656,3655,3656,3656,3655,3993,3582,3655,3605,3607,3681,2474,3581,3604,3604,3804,3832,3780,3780,3780,3807,3757,3780,3729,3780,3733,3780,3782,3806,3604,3604,3579,3754,3755,3756,3754,3757,3733,3807,3755,3757,3781,3581,3604,3604,3604,3604,3604,3579,3604,3604,3754,3755,
3755,3756,3604,3604,3654,4672,2178,4658,4657,4685,4703,2211,4039,3655,3656,3605,3635,3655,3989,3655,3656,3605,3656,3655,3942,3655,3656,3655,3989,3656,3655,4672,2193,2182,2183,4753,4752,4751,4696,4698,2196,4674,2388,3655,3656,3636,3655,3656,3656,3917,3655,3605,3655,3582,3656,3656,3606,3631,2490,3604,3629,3632,3604,3804,3832,3733,3780,3780,3780,3733,3782,3805,3832,3780,3710,3830,3604,3604,3754,3757,3729,3781,3690,3780,3780,3780,3780,3782,3806,3604,3604,3604,3604,3604,3604,3580,3604,3604,3779,3780,
3782,3781,3685,3685,3654,4697,4695,4708,4684,4710,4751,2227,3655,3605,3655,3655,3611,3607,3680,3658,3659,3633,3681,3655,3656,3656,3660,3605,3656,3605,3917,4697,4695,4678,4751,4659,4659,4659,4701,4752,2195,2197,2198,4673,3942,3656,3989,3655,3582,3656,3655,3605,3660,3582,3942,3655,3656,3989,3606,3632,3679,3682,3604,370,3804,3705,3707,3832,3780,3780,3781,3579,3779,3734,3760,3604,3754,3756,3779,3782,3805,3806,3740,3733,3780,3734,3780,3781,3830,3604,370,3604,3754,3755,3756,3604,3604,3604,3804,3805,
3806,3806,3629,3630,3631,2212,4700,4657,4656,4685,4703,4678,3892,3655,3655,3607,3680,3682,370,3754,3755,3756,3679,3681,3656,3655,3605,3656,3655,3655,4672,2178,4702,4752,4657,4684,4684,4684,4682,4659,4678,2213,2214,4699,4674,2306,3655,3656,3656,4014,3656,3655,3605,4018,3655,4039,3655,3605,3655,3657,370,3704,3604,3604,3629,3630,3632,3804,3805,3832,3807,3755,3757,3782,3806,3704,3804,3806,3804,3806,3580,3604,3804,3805,3705,3706,3707,3806,3604,3604,3604,3604,3779,3780,3781,3604,3604,3604,3604,3604,
3630,3634,3631,4672,4673,2209,4708,4709,4707,4678,4700,3655,3993,4018,3607,3682,3579,3829,3754,3757,3734,3710,3580,3654,3655,3636,3655,3656,3605,3942,4697,4695,4751,4683,4709,4681,4656,4706,4709,4684,4682,4678,4752,4696,2197,2199,3656,3655,3635,3655,3582,3656,3655,3656,3656,3656,3636,3655,3605,3606,3630,3630,3632,3580,3679,3680,3682,3754,3756,3804,3705,3706,3707,3806,3604,3604,3604,370,3604,3604,3604,3579,3604,3629,3632,3604,3604,370,3604,3604,3604,3604,3804,3805,3806,3604,3754,3755,3755,3756,
4672,4673,2166,2167,4698,2225,4657,4681,4710,4752,2211,3989,3655,3655,3657,370,3754,3756,3779,3733,3729,3760,370,3654,3656,3655,4018,3917,3655,4014,2212,4678,4752,4708,4656,4709,4709,4656,4709,4681,4656,4685,4751,4703,2195,2215,3660,3655,3656,3942,3605,3989,3655,3655,3656,3656,3605,3656,3655,3656,3655,3610,3606,3630,3632,3604,370,3804,3806,3604,3704,3829,3604,3604,3581,3629,3632,3704,3604,3629,3630,3630,3632,3679,3682,3604,3580,3604,3604,3604,3604,3604,3754,3755,3579,3754,3757,3780,3758,3710,
4697,4698,2182,2183,4751,4657,4709,4709,4685,4753,2227,3655,3655,3655,3606,3632,3804,3806,3804,3705,3707,3806,3629,3631,3655,3989,3656,3605,3655,3656,2228,4703,4753,4733,4732,4656,4706,4709,4656,4709,4709,4710,4676,4752,4678,4700,4039,3892,3655,3656,3655,3656,3655,3635,3656,3605,3989,3656,3655,3892,3655,3656,3989,3655,3606,3630,3632,3579,3629,3608,3634,3632,3604,370,3629,3631,3606,3608,3634,3631,3655,3656,3606,3632,3704,370,3604,3604,3604,3604,3604,3604,3690,3780,3604,3779,3733,3758,3758,3760,
4695,4677,4659,4659,4657,4709,4706,4707,4701,4700,3993,3656,3655,3660,3655,3606,3630,3632,3581,370,3683,3704,3654,3610,3655,3656,3656,3605,3656,3656,3993,4700,4700,4677,4751,4734,4734,4732,4706,4709,4707,4751,4753,4703,4751,4700,3655,3656,3655,3993,3655,3582,3582,3655,3582,3655,3655,3660,3582,3582,3655,3656,3656,3655,3656,3655,3606,3630,3631,4018,3655,3606,3630,3630,3631,4039,3655,3989,3656,3656,3917,3656,3655,3606,3630,3632,3604,3604,3754,3755,3756,3581,3715,3780,3604,3804,3705,3706,3707,3806,
4659,4657,4684,4684,4709,4709,4707,4752,4700,3655,3917,3655,3636,3656,3656,3655,3655,3606,3608,3609,3634,3630,3631,3655,3655,3656,3655,3655,3942,3605,3655,3660,3892,4700,4700,4678,4752,4753,4734,4734,4678,4700,4700,4700,3993,3655,4018,3582,3656,3656,3656,3636,3656,3656,3917,3605,3655,3942,3656,3993,3656,3655,3656,3660,3655,3989,3656,3655,3656,3656,3655,3656,3942,3655,3656,3655,3656,3605,4018,3655,3655,3582,3656,3656,3610,3606,3630,3604,3779,3780,3781,3604,3740,3780,3604,3604,3604,3604,3604,3581,
4684,4709,4706,4709,4709,4656,4710,4700,4700,3655,3655,3605,3655,3582,3655,3989,3656,3655,3656,3655,3605,3942,3655,3656,4014,3655,3655,3655,3656,3605,3655,3656,3655,3655,3917,3942,4039,4700,4678,4703,4752,4700,3942,3655,3917,3655,3605,3655,3942,3655,4018,3582,3656,3655,3655,3605,3656,3655,3582,3655,3635,3655,3656,3656,3656,3655,3656,3942,3655,3655,3636,3656,3655,3605,3892,3656,3660,3656,3655,3607,3680,3681,3605,3942,3655,3611,4043,3580,3804,3805,3806,3579,3779,3780,3780,3780,3780,3780,3604,3604,
4656,4709,4709,4707,4734,4734,4678,4700,3607,3680,3681,3942,3993,3655,3635,3655,3655,3917,3655,3605,3655,3656,3656,4039,3656,3655,3892,3605,3655,3605,4039,3582,4018,3582,3655,3582,3582,3655,3660,4039,3892,3582,3656,4039,3605,3655,3656,3660,3655,3655,3656,3989,3655,3942,3656,4014,3656,3917,3656,3656,3582,3655,3655,4039,3655,3582,3655,3605,3656,4014,3582,3656,3582,3993,3656,3655,3582,3655,3656,3657,3580,3654,3655,3989,3656,4044,3966,3604,3604,3604,3604,3604,3804,3705,3706,3707,3832,3780,3780,3780,
4734,4734,4734,4678,4700,3607,3680,3680,3682,3604,3679,3681,3610,3655,3656,3656,3655,3656,3656,3655,3656,3989,3582,3636,3605,3655,3605,3656,3582,3635,3655,3582,3655,3582,3656,3636,3655,3582,3655,3582,3655,4018,3582,3655,3582,3989,3656,3656,3656,3655,3656,3582,3582,3582,4039,3655,3656,3582,3582,3655,3989,3582,4018,3582,3655,3635,3655,3917,3655,3656,3656,3655,3605,3656,3655,3655,3942,3656,3655,3606,3630,3631,4014,3655,3605,3967,3966,3646,3646,3646,3604,3604,3604,3604,3580,3604,3804,3805,3705,3706,
4753,4700,3607,3680,3680,3682,3830,3604,3604,3604,3580,3679,3681,4014,3656,3656,4018,3605,3655,3660,3655,3582,3655,3993,3656,3656,3655,3660,3582,3656,3656,3655,3942,3656,3655,3582,3655,4018,3655,3660,3656,3655,3655,3635,3655,3655,3656,4014,3655,3892,3655,3656,3635,3582,3655,3989,3605,3655,3655,3942,3656,3582,3655,3655,3656,3655,3656,3655,3605,3655,3655,3660,3656,3656,3989,4018,3655,3655,3656,3656,3993,3656,3656,3607,3681,4017,3966,3646,3646,3646,3966,3604,3604,3604,3604,3754,3756,3604,3754,3755,
3680,3680,3682,3604,3604,3604,3604,3754,3755,3756,3604,370,3654,3655,3989,3656,3655,3605,3656,3655,3656,3605,3656,3655,3656,4039,3656,3656,3655,3582,3989,3655,3655,3605,3989,3582,3656,3655,3582,3656,3605,3655,3989,3656,3942,3655,3636,3655,3656,3656,3656,3655,3993,3582,3655,3656,3660,3582,3656,3656,3655,3655,3656,3656,4014,4018,3655,3942,2386,4672,4673,4673,4673,4673,4674,3660,3656,3660,3605,3655,3655,3917,3656,3606,3631,4017,3966,3889,3889,3889,3966,3966,3966,3966,3966,3804,3806,3604,3779,3780,
3581,3754,3755,3756,3604,3604,3604,3779,3780,3781,3579,3629,3631,3655,3605,3655,3636,3655,3605,3656,3942,3655,3892,3655,3655,3656,3635,3655,4018,3655,3582,3605,3656,3993,3655,3655,3892,3582,3582,3655,3917,3655,3605,3655,3656,3582,3656,3605,3605,3989,3656,3655,3656,3582,3656,3655,3605,3989,3605,3656,3655,3660,3656,3917,3582,3655,3656,4672,2166,2167,4698,4698,4698,4698,2196,4674,3655,3656,3582,3636,3656,3892,3655,3607,3681,4074,3991,3941,3991,3941,3941,3991,3995,3995,3966,3604,3604,3604,3804,3805,
3604,3779,3780,3781,3604,3604,3604,3804,3805,3806,370,3654,3655,4039,3892,3655,3656,3655,3656,3655,3656,3656,3605,4018,3656,3605,3942,3582,3656,3656,3660,3655,3582,3605,3655,3605,3656,3655,3942,3655,3607,3680,3681,3656,3656,3892,3656,3655,3942,3605,3655,3917,3655,3656,3942,4018,3655,3656,3656,3636,3655,3656,3655,3656,3655,3989,4672,2193,2182,2183,4752,4659,4659,4753,4696,4699,3655,3656,4039,3656,3582,3656,4018,3657,3679,3658,3633,3681,3660,3610,3607,3658,3659,3633,3604,3604,3604,3604,3604,3579,
3604,3804,3805,3806,3754,3755,3756,3604,3579,3685,3629,3631,3655,3656,3655,3656,3660,3993,3892,3655,3655,3989,3656,3655,3636,3656,3656,3655,3656,3656,3656,3582,3917,3582,3655,3582,3993,3656,3655,3607,3682,370,3654,3655,3582,3655,3582,3655,3656,3656,3656,3656,3989,3655,3656,3655,3656,3655,3656,3605,3655,3582,3942,3656,3656,3655,4697,4695,4678,4751,4683,4684,4684,4682,4751,4703,3892,3656,3655,3605,3989,3655,3607,3682,3604,3629,3632,3679,3680,3680,3682,3830,3604,3604,3604,3604,3604,3604,3604,3604,
3604,3604,3604,3604,3779,3780,3781,3754,3756,3629,3631,3655,3660,3656,3655,3655,4672,4673,4673,4674,3917,3655,3605,3655,3605,3655,4018,4014,3989,3605,4039,3582,3655,3655,3635,3656,3655,3655,3917,3657,3579,3629,3631,3989,3655,3656,4039,3582,3655,3660,3656,3655,3656,3607,3680,3681,4039,3656,3892,3655,3656,3655,3656,3582,3655,4014,4700,4703,4752,4700,4701,4732,4656,4707,4753,4700,3942,3655,3660,3605,3582,3655,2474,3604,3580,3679,3682,3754,3755,3755,3756,3604,3604,3604,3604,3604,3604,3604,3581,3604,
3604,3604,3604,3754,3755,3756,3806,3804,3806,3654,3655,3656,3582,3656,3917,4672,4697,4698,4698,4699,4673,4674,3660,3656,3655,3917,3656,3655,3656,3605,3656,3656,3605,3656,3582,3655,3582,4018,3607,3682,3629,3631,3655,3656,3655,3660,3656,3655,3656,3656,3655,3655,3892,3657,3580,3654,3655,3655,3656,3656,4014,3655,3655,3993,3656,3942,3993,3917,4700,4700,4678,4677,4734,4752,4700,3660,3655,3656,3655,3656,3635,3655,2490,370,3754,3756,3579,3779,3780,3780,3754,3756,3604,3604,3754,3755,3755,3756,3604,3604,
3604,3604,3604,3779,3780,3807,3755,3756,3604,3654,3917,3655,3989,3656,4014,4697,4695,4752,4677,4696,4698,4699,3655,3989,3605,3655,3656,3655,3636,3582,3605,3655,4014,3655,3605,3942,3655,3605,3657,3581,3654,3611,3656,3582,3605,3989,3655,3656,3607,3658,3659,3633,3681,3606,3630,3631,3655,3942,3582,3656,3655,3635,3582,3655,3655,3636,3656,3656,3655,3892,4700,4703,4678,4700,4700,3655,3636,3655,4018,4014,3655,3607,3682,3604,3804,3806,3754,3757,3780,3579,3804,3806,3604,3604,3779,3780,3780,3781,3604,3604,
3754,3755,3755,3757,3780,3780,3780,3781,3604,3679,3681,3655,3636,3655,3942,4703,4753,4702,4678,4751,4703,3892,3655,3656,3656,3607,3680,3681,3655,3582,3655,3892,3655,3656,3656,3582,3655,3989,3606,3630,3631,3582,3655,3636,3605,3582,3607,3680,3682,3629,3630,3632,3679,3658,3633,3681,3582,3655,3655,3989,3605,3655,3656,3942,3655,3656,3656,4018,3656,3656,3605,3660,3942,4039,3656,3656,3989,3605,3917,3655,3611,3657,3604,3830,3754,3755,3757,3783,3784,3604,3580,3604,3604,3604,3804,3805,3805,3806,3604,3604,
3690,3783,3784,3784,3785,3782,3805,3806,3604,3685,3679,3681,3605,3655,3655,3656,3993,4703,4675,4753,4703,3655,3942,3993,3655,3657,3579,3654,3655,4018,3582,3656,3655,3655,3660,3582,4018,3656,3655,3582,3892,3655,3605,3655,3917,3655,2474,3704,370,3654,3611,3657,3579,3629,3632,3679,3681,3607,3681,3655,3605,3655,3656,3655,3656,3655,3582,3656,3655,3655,3656,3989,3656,3656,3656,3656,3655,3582,3582,3655,3607,3682,3581,3754,3757,3780,3733,3808,3809,3604,3704,3754,3755,3756,3830,3604,3604,3604,3604,3579,
3715,3808,3809,3809,3810,3710,3604,3604,3781,3685,3830,3654,4018,3605,3605,3989,3656,3605,3660,3917,3605,3655,3656,3605,3656,3606,3630,3631,3655,3655,3942,3655,3582,3656,3655,3655,3582,3655,3655,4039,3656,3655,3942,3656,3655,3610,2490,3604,3580,3679,3680,3682,370,3679,3682,3604,3654,3606,3631,4018,3917,3656,3989,3582,3605,3655,3656,3656,3989,3656,3635,3655,3582,3655,3942,3655,3993,3636,3655,3989,3606,3632,370,3779,3780,3729,3780,3780,3604,3604,3604,3779,3780,3781,3604,3704,3604,3604,3604,3604,
3740,3833,3834,3834,3835,3760,3809,3809,3781,3685,370,3679,3681,3655,3917,3605,3655,3892,3655,3656,3582,3655,3635,3655,3656,4014,3656,4018,3917,3607,3680,3680,3681,4018,3989,3655,3636,3656,3917,3582,3993,3655,3635,3655,3655,3607,3682,370,3704,3829,3604,3629,3608,3634,3632,370,3679,3680,3681,3655,3655,3582,3656,3605,3660,3582,3655,3655,3636,3892,3655,3655,4014,3605,3655,3660,3582,3582,3607,3680,3681,2474,3579,3779,3780,3758,3783,3784,3604,3604,3604,3804,3805,3806,3581,3604,3604,3604,3604,3604,
3804,3705,3706,3707,3805,3806,3834,3835,3781,3685,3604,3581,3654,3942,3655,3655,3636,3655,4039,3656,3660,3656,3656,3656,3989,3656,3656,3607,3680,3682,3580,3704,3679,3658,3633,3681,3655,4014,3656,3655,3892,3655,3582,3655,3892,3657,3581,3629,3632,3629,3630,3631,3655,4039,3657,3683,3754,3756,3679,3681,3655,4018,3942,3655,3582,3655,3989,3582,3655,3656,4039,3582,3655,3635,3656,3917,3582,4018,3657,3580,3654,2490,3754,3757,3734,3780,3808,3809,3604,3604,3604,3604,3604,3604,3604,3604,3754,3755,3756,3604,
3604,3830,3604,3604,3604,3604,3780,3729,3781,3685,3604,3604,3679,3658,3633,3681,3655,3655,3655,3655,3655,3607,3680,3680,3680,3655,3655,3657,370,3685,3604,3685,3604,3685,3579,3679,3681,3660,3655,3607,3680,3680,3680,3680,3680,3682,3604,3679,3682,3654,3655,3655,3892,3989,3606,3632,3804,3806,3604,3679,3681,3892,3655,3655,3655,3989,3655,3660,3655,3655,3989,3655,3993,3655,3655,3655,3655,3655,3606,3630,3631,3682,3779,3780,3780,3780,3780,3683,3704,3604,3604,3604,3604,3754,3756,3604,3779,3780,3781,3604,
3604,3604,3809,3809,3809,3809,3810,3733,3781,3685,3604,3604,3604,3685,3685,3679,3680,3680,3680,3680,3680,3680,3685,3685,3685,3679,3680,3682,3685,3685,3685,3685,3685,3685,3685,3685,3679,3685,3685,3682,3704,3779,3758,3758,3781,3685,3685,3685,3685,3679,3680,3681,3636,3655,3607,3682,3685,3685,3685,3685,3685,3685,3685,3685,3685,3685,3685,3685,3685,3685,3685,3604,3604,3685,3685,3685,3685,3685,3685,3685,3685,3685,3779,3780,3780,3780,3780,3604,3580,3604,3604,3604,3704,3804,3806,3604,3804,3805,3806,3604,
3809,3809,3809,3786,3834,3834,3835,3780,3807,3730,3731,3731,3731,3732,3756,3581,3604,3604,3604,3754,3756,3604,3604,3604,3604,3604,3604,3754,3755,3756,3604,3604,3604,3604,3580,3604,3579,3604,3754,3756,3604,3804,3805,3805,3806,3754,3730,3731,3732,3755,3756,3654,3655,3607,3682,3604,3604,3604,3604,3754,3756,3604,3704,3604,3604,3604,3604,3604,3604,3604,3579,3604,3604,3604,3604,3604,3580,3754,3755,3756,3604,3604,3779,3780,3780,3604,3604,3604,3604,3754,3755,3756,3579,3604,3604,3604,3604,3604,3604,3780,
3834,3834,3834,3835,3780,3780,3780,3780,3733,3780,3780,3780,3780,3729,3710,3754,3755,3755,3756,3804,3806,3604,3604,3604,3604,3604,3581,3804,3805,3806,3604,3604,3604,3604,3604,3604,3604,3604,3804,3806,3604,3604,3604,3604,3604,3779,3734,3780,3604,3780,3781,3654,4043,3657,3685,3604,3604,3604,3604,3804,3806,3604,3604,3604,3604,3604,3604,3604,3604,3604,3604,3604,3754,3756,3604,3604,3604,3804,3805,3806,3604,3604,3779,3780,3780,3604,3604,3604,3604,3779,3780,3781,3604,3604,3604,3581,3754,3755,3755,3755,
3780,3780,3729,3734,3780,3780,3780,3780,3780,3734,3780,3780,3734,3780,3735,3779,3780,3780,3781,3829,3604,3579,3604,3754,3755,3756,3604,3604,3604,3604,3604,3754,3756,3604,3604,3604,3604,3604,3604,3604,3581,3604,3579,3604,3604,3804,3832,3780,3780,3780,3781,3654,3656,3606,3632,3604,3604,3604,3604,3604,3604,3704,3604,3754,3755,3756,3830,3604,3604,3604,3604,3604,3804,3806,3604,3604,3604,3604,3604,3604,3604,3604,3779,3780,3780,3604,3604,3604,3604,3804,3805,3806,3604,3604,3754,3755,3757,3733,3729,3780,
3758,3780,3780,3733,3780,3780,3780,3780,3729,3780,3783,3784,3785,3734,3760,3804,3805,3805,3806,3604,3604,3580,3604,3779,3780,3781,3754,3756,3604,3604,3604,3804,3806,3604,3604,3604,3604,3604,3604,3604,3604,3604,3604,3754,3755,3756,3690,3780,3780,3780,3710,3654,3660,3917,3657,3754,3755,3756,3604,3604,3604,3604,3604,3779,3780,3781,3604,3604,3604,3604,3604,3604,3581,3604,3604,3604,3604,3604,3604,3830,3704,3604,3604,3754,3730,3731,3732,3730,3731,3732,3755,3755,3581,3754,3757,3780,3780,3780,3783,3784,
3758,3758,3733,3734,3783,3784,3784,3785,3780,3733,3808,3809,3810,3780,3781,3604,3604,3604,3604,3604,3604,3604,3604,3804,3805,3806,3804,3806,3604,3604,3604,3580,3604,3604,3604,3604,3604,3604,3830,3604,3604,3604,3604,3779,3780,3781,3715,3733,3780,3780,3735,3654,3989,3655,3657,3779,3780,3781,3579,3604,3604,3604,3604,3804,3805,3806,3604,3604,3604,3604,3604,3604,3604,3604,3604,3604,3604,3604,3604,3580,3754,3755,3756,3690,3783,3784,3784,3785,3780,3780,3734,3780,3604,3779,3780,3780,3780,3734,3808,3809,
3758,3758,3734,3780,3808,3809,3809,3810,3734,3780,3833,3834,3835,3780,3781,3604,3604,3604,3754,3756,3604,3604,3604,3604,3604,3604,3604,3604,3604,3604,3604,3604,3604,3604,3604,3754,3755,3756,3604,3579,3604,3604,3604,3804,3805,3806,3740,3780,3780,3780,3760,3654,3942,3993,3657,3804,3805,3806,3829,3604,3604,3604,3604,3604,3604,3604,3604,3604,3604,3604,3580,3704,3604,3604,3754,3756,3604,3579,3604,3604,3779,3758,3781,3715,3808,3809,3809,3810,3780,3780,3780,3780,3604,3779,3783,3784,3785,3780,3833,3834
</data>
 </layer>
 <layer id="2" name="Back2" width="100" height="75">
  <properties>
   <property name="Draw" value="Back"/>
  </properties>
  <data encoding="csv">
0,0,0,0,0,0,0,0,0,0,0,0,0,0,0,0,0,0,0,0,0,0,0,0,0,0,0,0,0,0,0,0,0,0,1746,0,0,0,0,0,0,0,0,0,0,0,0,0,0,0,0,0,0,0,0,0,0,0,0,0,0,0,0,0,0,0,0,0,0,0,0,0,0,0,0,0,0,0,0,0,0,0,0,0,0,0,0,0,0,0,0,0,0,0,0,0,0,0,0,0,
0,0,0,0,0,0,0,0,0,0,0,0,0,0,0,0,0,0,0,0,0,0,0,0,0,0,0,0,0,0,0,0,0,0,0,0,0,0,0,0,0,0,0,0,0,0,0,0,0,0,0,0,1746,0,0,0,0,0,0,0,0,0,0,0,0,0,0,0,0,0,0,0,0,0,0,0,0,0,0,0,0,0,0,0,0,0,0,0,0,0,0,0,0,0,0,0,0,0,0,0,
0,0,0,0,0,0,0,0,0,0,0,0,0,0,0,0,0,0,0,0,0,0,0,0,0,0,0,0,0,0,0,0,0,0,0,0,0,0,0,0,0,0,0,0,0,0,0,0,0,0,0,0,0,0,0,0,0,0,0,0,0,0,0,0,0,0,0,0,0,0,0,0,0,0,0,0,0,0,0,0,0,0,0,0,1746,0,0,0,0,0,0,0,0,0,0,0,0,0,0,0,
0,0,0,0,0,0,0,0,0,0,0,0,0,0,0,0,0,0,0,0,0,0,0,0,0,0,0,0,0,0,0,0,0,0,0,0,0,0,0,0,0,0,0,0,0,0,0,0,0,0,0,0,0,0,0,0,0,0,0,0,0,0,0,0,0,0,0,0,0,0,0,0,0,0,0,0,0,0,0,0,0,0,0,0,0,0,0,0,0,0,0,0,0,0,0,0,0,0,0,0,
0,0,0,0,0,0,0,0,0,0,0,0,0,0,0,0,0,0,0,0,0,0,0,0,0,0,0,0,0,0,0,0,0,0,0,0,0,0,0,0,0,0,0,1746,0,0,0,0,0,0,0,0,0,0,0,0,0,0,0,0,0,0,0,0,0,0,0,0,0,0,0,0,0,0,0,0,0,0,0,0,0,0,0,0,0,0,0,0,0,0,0,0,0,0,0,0,0,0,0,0,
0,0,0,0,0,0,0,0,0,0,0,0,0,0,0,0,0,0,0,0,0,0,0,0,0,0,0,0,0,0,0,0,0,0,0,0,0,0,0,0,0,0,0,0,0,0,0,0,0,0,0,0,0,0,0,0,0,0,0,0,0,0,0,0,0,0,0,0,0,0,0,0,0,0,0,0,0,0,0,0,0,0,0,0,0,0,0,0,0,0,0,0,0,0,0,0,0,0,0,0,
0,0,0,0,0,0,0,0,0,0,0,0,0,0,0,0,0,0,0,0,0,0,0,0,0,0,0,0,0,0,0,0,0,0,0,0,0,0,0,0,0,0,0,0,0,0,0,0,0,0,0,0,0,0,0,0,0,0,0,1746,0,0,0,0,0,0,1730,0,0,0,0,0,0,0,0,0,0,0,0,0,0,0,0,0,0,0,0,1746,0,0,0,0,0,0,0,0,0,0,0,0,
0,0,0,0,0,3947,0,0,0,0,0,0,0,0,0,0,0,0,0,0,1746,0,0,0,0,0,0,0,0,0,0,0,0,0,0,0,0,0,0,0,0,0,0,0,0,0,0,0,0,0,0,0,0,0,0,0,0,0,0,0,0,0,0,0,0,0,1746,0,0,0,0,0,0,0,0,0,0,1746,0,0,0,0,0,0,0,0,0,0,0,0,0,0,0,0,0,0,0,0,0,0,
0,0,0,0,0,3972,0,0,0,0,0,0,0,0,0,0,0,0,0,0,0,0,0,0,0,0,0,0,0,0,0,0,0,1747,0,0,0,0,0,0,0,0,0,0,0,0,0,0,0,0,0,0,0,0,0,0,0,0,0,0,0,0,0,0,0,0,0,0,0,0,0,0,0,0,0,0,0,0,0,0,0,0,0,0,0,0,0,0,0,0,0,0,0,0,0,0,0,0,0,0,
0,0,0,0,0,0,0,0,0,0,0,0,0,0,0,0,0,0,0,0,0,0,0,0,0,0,0,0,0,0,0,0,0,0,0,0,0,0,0,0,0,0,0,0,0,0,0,0,0,0,0,0,0,0,0,0,0,0,0,0,0,0,0,0,0,0,0,0,0,0,0,0,0,0,0,0,0,0,0,0,0,0,0,0,0,0,0,0,0,0,0,0,0,0,0,0,0,0,0,0,
0,0,0,0,0,0,0,0,0,0,0,0,0,0,0,0,0,0,0,0,0,0,0,0,0,0,0,0,0,0,0,0,0,0,0,0,0,1747,0,0,0,0,1746,0,0,0,0,0,0,0,0,0,0,0,0,0,0,0,0,0,0,0,0,0,0,0,0,0,0,0,0,0,0,0,0,0,0,0,0,0,0,0,0,0,0,0,0,0,0,0,0,0,0,0,0,0,0,0,0,0,
0,0,0,0,0,0,0,0,0,0,0,0,0,0,0,0,0,0,0,0,0,0,0,0,0,0,0,0,0,0,0,0,0,0,0,0,0,0,0,0,0,0,0,0,0,0,0,0,0,0,0,0,0,0,0,0,0,0,0,0,0,0,0,0,0,0,0,0,1747,0,0,0,0,0,0,0,0,0,0,0,0,0,0,0,0,0,0,0,0,0,0,0,0,0,0,0,0,0,0,0,
0,0,0,0,0,0,0,0,0,0,0,0,0,0,0,0,0,0,0,0,0,0,0,0,0,0,0,0,0,0,0,0,0,0,0,0,0,0,0,0,0,0,0,0,0,0,0,0,0,0,0,0,0,0,0,0,0,0,0,0,0,0,0,0,0,0,0,0,0,0,0,0,0,0,0,0,0,0,0,0,0,0,0,0,0,0,0,0,0,0,0,0,0,0,0,0,0,0,0,0,
0,0,0,0,0,0,0,0,0,0,0,0,0,0,0,0,0,0,0,0,0,0,0,0,0,0,0,0,0,0,0,0,0,0,0,0,0,0,0,0,0,0,0,0,0,0,0,0,0,0,0,0,0,0,0,0,0,0,0,0,0,0,0,0,0,0,0,0,0,0,0,0,0,0,0,0,0,0,0,0,0,0,0,0,0,0,0,0,0,0,0,0,0,1747,0,0,0,0,0,0,
0,0,0,0,0,0,0,0,0,0,0,0,0,0,0,0,0,0,0,0,0,0,0,0,0,0,0,0,0,0,0,0,0,0,0,0,0,0,0,0,0,0,0,0,0,0,0,0,0,0,0,0,0,0,0,0,0,0,0,0,0,0,0,0,0,0,0,0,0,0,0,0,0,0,0,0,0,0,0,0,0,0,0,0,0,0,0,0,0,0,0,0,0,0,0,0,0,0,0,0,
0,0,0,0,0,0,0,0,0,0,0,0,0,0,0,0,0,0,0,0,0,0,0,0,0,0,0,0,0,0,0,0,0,0,0,0,0,0,0,0,0,0,0,0,0,0,0,0,0,0,0,0,0,0,0,0,0,0,0,0,0,0,0,0,0,0,0,0,0,0,0,0,0,0,0,0,0,0,0,0,0,0,0,0,0,0,0,0,0,0,0,0,0,0,0,0,0,0,0,0,
0,0,0,0,0,0,0,0,0,0,0,0,0,0,0,0,0,0,0,0,0,0,0,0,0,0,0,0,0,0,0,0,0,0,0,0,0,0,0,0,0,0,0,0,0,0,0,0,0,0,0,0,0,0,0,0,0,0,0,0,0,0,0,0,0,0,0,0,0,0,0,0,0,0,0,0,0,0,0,0,0,0,0,0,0,0,0,0,0,0,0,0,0,0,0,0,0,0,0,0,
0,0,0,0,0,0,0,0,0,0,0,0,0,0,0,0,0,0,0,0,0,0,0,0,0,0,0,0,0,0,0,0,0,0,0,0,0,0,0,0,0,0,0,0,0,0,0,0,0,0,0,0,0,0,0,0,0,0,0,0,0,0,0,0,0,0,0,0,0,0,0,0,0,0,0,0,0,0,0,0,0,0,0,0,0,0,0,0,0,0,0,0,0,0,0,1747,0,0,0,0,
0,0,0,0,0,0,0,0,0,0,0,0,0,0,0,0,0,0,0,0,0,0,0,0,0,0,0,0,0,0,0,0,0,0,0,0,0,0,0,0,0,0,0,0,0,0,0,0,0,0,0,0,0,0,0,0,0,0,0,0,0,0,0,0,0,0,0,0,0,0,0,0,0,0,0,0,0,0,0,0,0,0,0,0,0,0,0,0,0,0,0,0,0,0,0,0,0,0,0,0,
0,0,0,0,0,0,0,0,0,0,0,0,0,0,0,0,0,0,0,0,0,0,0,0,0,0,0,0,0,0,0,0,0,0,0,0,0,0,0,0,0,0,0,0,0,0,0,0,0,0,0,0,0,0,0,0,0,0,0,0,0,0,0,0,0,0,0,0,0,0,0,0,0,0,0,0,0,0,0,0,0,0,0,0,0,0,0,0,0,0,0,0,0,0,0,0,0,0,0,0,
0,0,0,0,0,0,0,0,0,0,0,0,0,0,0,0,0,0,0,0,0,0,0,0,0,0,0,0,0,0,0,0,0,0,0,0,0,0,0,0,0,0,0,0,0,0,0,0,0,0,0,0,0,0,0,0,0,0,0,0,0,0,0,0,0,0,0,0,0,0,0,0,0,0,0,0,0,0,0,0,0,0,0,0,0,0,0,0,0,0,0,0,0,0,0,0,0,0,0,0,
0,0,0,0,0,0,0,0,0,0,0,0,0,0,0,0,0,0,0,0,0,0,0,0,0,0,0,0,0,0,0,0,0,0,0,0,0,0,0,0,0,0,0,0,0,0,0,0,0,0,0,0,0,0,0,0,0,0,0,0,0,0,0,0,0,0,0,0,0,0,0,0,0,0,0,0,0,0,0,0,0,0,0,0,0,0,0,0,0,0,0,0,0,0,0,0,0,0,0,0,
0,0,0,0,0,0,0,0,0,0,0,0,0,0,0,0,0,0,0,0,0,0,0,0,0,0,0,0,0,0,0,0,0,0,0,0,0,0,0,0,0,0,0,0,0,0,0,0,0,0,0,0,0,0,0,0,0,0,0,0,0,0,0,0,0,0,0,0,0,0,0,0,0,0,0,0,0,0,0,0,0,0,0,0,0,0,0,0,0,0,0,0,0,0,0,0,0,0,0,0,
0,0,0,0,0,0,0,0,0,0,0,0,0,0,0,0,0,0,0,0,0,0,0,0,0,0,0,0,0,0,0,0,0,0,0,0,0,0,0,0,0,0,0,0,0,0,0,0,0,0,0,0,0,0,0,0,0,0,0,0,0,0,0,0,0,0,0,0,0,0,0,0,0,0,0,0,0,0,0,0,0,0,0,0,0,0,0,0,0,0,0,0,0,0,0,0,0,0,0,0,
0,0,0,0,0,0,0,0,0,0,0,0,0,0,0,0,0,0,0,0,0,0,0,0,0,0,0,0,0,0,0,0,0,0,0,0,0,0,0,0,0,0,0,0,0,0,0,0,0,0,0,0,0,0,0,0,0,0,0,0,0,0,0,0,0,0,0,0,0,0,0,0,0,0,0,0,0,0,0,0,0,0,0,0,0,0,0,0,0,0,0,0,0,0,0,0,0,0,0,0,
0,0,0,0,0,0,0,0,0,0,0,0,0,0,0,0,0,0,0,0,0,0,0,0,0,0,0,0,0,0,0,0,0,0,0,0,0,0,0,0,0,0,0,0,0,0,0,0,0,0,0,0,0,0,0,0,0,0,0,0,0,0,0,0,0,0,0,0,0,0,0,0,0,0,0,0,0,0,0,0,0,0,0,0,0,0,0,0,0,0,0,0,0,0,0,0,0,0,0,0,
0,0,0,0,0,0,0,0,0,0,0,0,0,0,0,0,0,0,0,0,0,0,0,0,0,0,0,0,0,0,0,0,0,0,0,0,0,0,0,0,0,0,0,0,0,0,0,0,0,0,0,0,0,0,0,0,0,0,0,0,0,0,0,0,0,0,0,0,0,0,0,0,0,0,0,0,0,0,0,0,0,0,0,0,0,0,0,0,0,0,0,0,0,0,0,0,0,0,0,0,
0,0,0,0,0,0,0,0,0,0,0,0,0,0,0,0,0,0,0,0,0,0,0,0,0,0,0,0,0,0,0,0,0,0,0,0,0,0,0,0,0,0,0,0,0,0,0,0,0,0,0,0,0,0,0,0,0,0,0,0,0,0,0,0,0,0,0,0,0,0,0,0,0,0,0,0,0,0,0,0,0,0,0,0,0,0,0,0,0,0,0,0,0,0,0,0,0,0,0,0,
0,0,0,0,0,0,0,0,0,0,0,0,0,0,0,0,0,0,0,0,0,0,0,0,0,0,0,0,0,0,0,0,0,0,0,0,0,0,0,0,0,0,0,0,0,0,0,0,0,0,0,0,0,0,0,0,0,0,0,0,0,0,0,0,0,0,0,0,0,0,0,0,0,0,0,0,0,0,0,0,0,0,0,0,0,0,0,0,0,0,0,0,0,0,0,0,0,0,0,0,
0,0,0,0,0,0,0,0,0,0,0,0,0,0,0,0,0,0,0,0,0,0,0,0,0,0,0,0,0,0,0,0,0,0,0,0,0,0,0,0,0,0,0,0,0,0,0,0,0,0,0,0,0,0,0,0,0,0,0,0,0,0,0,0,0,0,0,0,0,0,0,0,0,0,0,0,0,0,0,0,0,0,0,0,0,0,0,0,0,0,0,0,0,0,0,0,0,0,0,0,
0,0,0,0,0,0,0,0,0,0,0,0,0,0,0,0,0,0,0,0,0,0,0,0,0,0,0,0,0,0,0,0,0,0,0,0,0,0,0,0,0,0,0,0,0,0,0,0,0,0,0,0,0,0,0,0,0,0,0,0,0,0,0,0,0,0,0,0,0,0,0,0,0,0,0,0,0,0,0,0,0,0,0,0,0,0,0,0,0,0,0,0,0,0,0,0,0,0,0,0,
0,0,0,0,0,0,0,0,0,0,0,0,0,0,0,0,0,0,0,0,0,0,0,0,0,0,0,0,0,0,0,0,0,0,0,0,0,0,0,0,0,0,0,0,0,0,0,0,0,0,0,0,0,0,0,0,0,0,0,0,0,0,0,0,0,0,0,0,0,0,0,0,0,0,0,0,0,0,0,0,0,0,0,0,0,0,0,0,0,0,0,0,0,0,0,0,0,0,0,0,
0,0,0,0,0,0,0,0,0,0,0,0,0,0,0,0,0,0,0,0,0,0,0,0,0,0,0,0,0,0,0,0,0,0,0,0,0,0,0,0,0,0,0,0,0,0,0,0,0,0,0,0,0,0,0,0,0,0,0,0,0,0,0,0,0,0,0,0,0,0,0,0,0,0,0,0,0,0,0,0,0,0,0,0,0,0,0,0,0,0,0,0,0,0,0,0,0,0,0,0,
0,0,0,0,0,0,0,0,0,0,0,0,0,0,0,0,0,0,0,0,0,0,0,0,0,0,0,0,0,0,0,0,0,0,0,0,0,0,0,0,0,0,0,0,0,0,0,0,0,0,0,0,0,0,0,0,0,0,0,0,0,0,0,0,0,0,0,0,0,0,0,0,0,0,0,0,0,0,0,0,0,0,0,0,0,0,0,0,0,0,0,0,0,0,0,0,0,0,0,0,
0,0,0,0,0,0,0,0,0,0,0,0,0,0,0,0,0,0,0,0,0,0,0,0,0,0,0,0,0,0,0,0,0,0,0,0,0,0,0,0,0,0,0,0,0,0,0,0,0,0,0,0,0,0,0,0,0,0,0,0,0,0,0,0,0,0,0,0,0,0,0,0,0,0,0,0,0,0,0,0,0,0,0,0,0,0,0,0,0,0,0,0,0,0,0,0,0,0,0,0,
0,0,0,0,0,0,0,0,0,0,0,0,0,0,0,0,0,0,0,0,0,0,0,0,0,0,0,0,0,0,0,0,0,0,0,0,0,0,0,0,0,0,0,0,0,0,0,0,0,0,0,0,0,0,0,0,0,0,0,0,0,0,0,0,0,0,0,0,0,0,0,0,0,0,0,0,0,0,0,0,0,0,0,0,0,0,0,0,0,0,0,0,0,0,0,0,0,0,0,0,
0,0,0,0,0,0,0,0,0,0,0,0,0,0,0,0,0,0,0,0,0,0,0,0,0,0,0,0,0,0,0,0,0,0,0,0,0,0,0,0,0,0,0,0,0,0,0,0,0,0,0,0,0,0,0,0,0,0,0,0,0,0,0,0,0,0,0,0,0,0,0,0,0,0,0,0,0,0,0,0,0,0,0,0,0,0,0,0,0,0,0,0,0,0,0,0,0,0,0,0,
0,0,0,0,0,0,0,0,0,0,0,0,0,0,0,0,0,0,0,0,0,0,0,0,0,0,0,0,0,0,0,0,0,0,0,0,0,0,0,0,0,0,0,0,0,0,0,0,0,0,0,0,0,0,0,0,0,0,0,0,0,0,0,0,0,0,0,0,0,0,0,0,0,0,0,0,0,0,0,0,0,0,0,0,0,0,0,0,0,0,0,0,0,0,0,0,0,0,0,0,
0,0,0,0,0,0,0,0,0,0,0,0,0,0,0,0,0,0,0,0,0,0,0,0,0,0,0,0,0,0,0,0,0,0,0,0,0,0,0,0,0,0,0,0,0,0,0,0,0,0,0,0,0,0,0,0,0,0,0,0,0,0,0,0,0,0,0,0,0,0,0,0,0,0,0,0,0,0,0,0,0,0,0,0,0,0,0,0,0,0,0,0,0,0,0,0,0,0,0,0,
0,0,0,0,0,0,0,0,0,0,0,0,0,0,0,0,0,0,0,0,0,0,0,0,0,0,0,0,0,0,0,0,0,0,0,0,0,0,0,0,0,0,0,0,0,0,0,0,0,0,0,0,0,0,0,0,0,0,0,0,0,0,0,0,0,0,0,0,0,0,0,0,0,0,0,0,0,0,0,0,0,0,0,0,0,0,0,0,0,0,0,0,0,0,0,0,0,0,0,0,
0,0,0,0,0,0,0,0,0,0,0,0,0,0,0,0,0,0,0,0,0,0,0,0,0,0,0,0,0,0,0,0,0,0,0,0,0,0,0,0,0,0,0,0,0,0,0,0,0,0,0,0,0,0,0,0,0,0,0,0,0,0,0,0,0,0,0,0,0,0,0,0,0,0,0,0,0,0,0,0,0,0,0,0,0,0,0,0,0,0,0,0,0,0,0,0,0,0,0,0,
0,0,0,0,0,0,0,0,0,0,0,0,0,0,0,0,0,0,0,0,0,0,0,0,0,0,0,0,0,0,0,0,0,0,0,0,0,0,0,0,0,0,0,0,0,0,0,0,0,0,0,0,0,0,0,0,0,0,0,0,0,0,0,0,0,0,0,0,0,0,0,0,0,0,0,0,0,0,0,0,0,0,0,0,0,0,0,0,0,0,0,0,0,0,0,0,0,0,0,0,
0,0,0,0,0,0,0,0,0,0,0,0,0,0,0,0,0,0,0,0,0,0,0,0,0,0,0,0,0,0,0,0,0,0,0,0,0,0,0,0,0,0,0,0,0,0,0,0,0,0,0,0,0,0,0,0,0,0,0,0,0,0,0,0,0,0,0,0,0,0,0,0,0,0,0,0,0,0,0,0,0,0,0,0,0,0,0,0,0,0,0,0,0,0,0,0,0,0,0,0,
0,0,0,0,0,0,0,0,0,0,0,0,0,0,0,0,0,0,0,0,0,0,0,0,0,0,0,0,0,0,0,0,0,0,0,0,0,0,0,0,0,0,0,0,0,0,0,0,0,0,0,0,0,0,0,0,0,0,0,0,0,0,0,0,0,0,0,0,0,0,0,0,0,0,0,0,0,0,0,0,0,0,0,0,0,0,0,0,0,0,0,0,0,0,0,0,0,0,0,0,
0,0,0,0,0,0,0,0,0,0,0,0,0,0,0,0,0,0,0,0,0,0,0,0,0,0,0,0,0,0,0,0,0,0,0,0,0,0,0,0,0,0,0,0,0,0,0,0,0,0,0,0,0,0,0,0,0,0,0,0,0,0,0,0,0,0,0,0,0,0,0,0,0,0,0,0,0,0,0,0,0,0,0,0,0,0,0,0,0,0,0,0,0,0,0,0,0,0,0,0,
0,0,0,0,0,0,0,0,0,0,0,0,0,0,0,0,0,0,0,0,0,0,0,0,0,0,0,0,0,0,0,0,0,0,0,0,0,0,0,0,0,0,0,0,0,0,0,0,0,0,0,0,0,0,0,0,0,0,0,0,0,0,0,0,0,0,0,0,0,0,0,0,0,0,0,0,0,0,0,0,0,0,0,0,0,0,0,0,0,0,0,0,0,0,0,0,0,0,0,0,
0,0,0,0,0,0,0,0,0,0,0,0,0,0,0,0,0,0,0,0,0,0,0,0,0,0,0,0,0,0,0,0,0,0,0,0,0,0,0,0,0,0,0,0,0,0,0,0,0,0,0,0,0,0,0,0,0,0,0,0,0,0,0,0,0,0,0,0,0,0,0,0,0,0,0,0,0,0,0,0,0,0,0,0,0,0,0,0,0,0,0,0,0,0,0,0,0,0,0,0,
0,0,0,0,0,0,0,0,0,0,0,0,0,0,0,0,0,0,0,0,0,0,0,0,0,0,0,0,0,0,0,0,0,0,0,0,0,0,0,0,0,0,0,0,0,0,0,0,0,0,0,0,0,0,0,0,0,0,0,0,0,0,0,0,0,0,0,0,0,0,0,0,0,0,0,0,0,0,0,0,0,0,0,0,0,0,0,0,0,0,0,0,0,0,0,0,0,0,0,0,
0,0,0,0,0,0,0,0,0,0,0,0,0,0,0,0,0,0,0,0,0,0,0,0,0,0,0,0,0,0,0,0,0,0,0,0,0,0,0,0,0,0,0,0,0,0,0,0,0,0,0,0,0,0,0,0,0,0,0,0,0,0,0,0,0,0,0,0,0,0,0,0,0,0,0,0,0,0,0,0,0,0,0,0,0,0,0,0,0,0,0,0,0,0,0,0,0,0,0,0,
0,0,0,0,0,0,0,0,0,0,0,0,0,0,0,0,0,0,0,0,0,0,0,0,0,0,0,0,0,0,0,0,0,0,0,0,0,0,0,0,0,0,0,0,0,0,0,0,0,0,0,0,0,0,0,0,0,0,0,0,0,0,0,0,0,0,0,0,0,0,0,0,0,0,0,0,0,0,0,0,0,0,0,0,0,0,0,0,0,0,0,0,0,0,0,0,0,0,0,0,
0,0,0,0,0,0,0,0,0,0,0,0,0,0,0,0,0,0,0,0,0,0,0,0,0,0,0,0,0,0,0,0,0,0,0,0,0,0,0,0,0,0,0,0,0,0,0,0,0,0,0,0,0,0,0,0,0,0,0,0,0,0,0,0,0,0,0,0,0,0,0,0,0,0,0,0,0,0,0,0,0,0,0,0,0,0,0,0,0,0,0,0,0,0,0,0,0,0,0,0,
0,0,0,0,0,0,0,0,0,0,0,0,0,0,0,0,0,0,0,0,0,0,0,0,0,0,0,0,0,0,0,0,0,0,0,0,0,0,0,0,0,0,0,0,0,0,0,0,0,0,0,0,0,0,0,0,0,0,0,0,0,0,0,0,0,0,0,0,0,0,0,0,0,0,0,0,0,0,0,0,0,0,0,0,0,0,0,0,0,0,0,0,0,0,0,0,0,0,0,0,
0,0,0,0,0,0,0,0,0,0,0,0,0,0,0,0,0,0,0,0,0,0,0,0,0,0,0,0,0,0,0,0,0,0,0,0,0,0,0,0,0,0,0,0,0,0,0,0,0,0,0,0,0,0,0,0,0,0,0,0,0,0,0,0,0,0,0,0,0,0,0,0,0,0,0,0,0,0,0,0,0,0,0,0,0,0,0,0,0,0,0,0,0,0,0,0,0,0,0,0,
0,0,0,0,0,0,0,0,0,0,0,0,0,0,0,0,0,0,0,0,0,0,0,0,0,0,0,0,0,0,0,0,0,0,0,0,0,0,0,0,0,0,0,0,0,0,0,0,0,0,0,0,0,0,0,0,0,0,0,0,0,0,0,0,0,0,0,0,0,0,0,0,0,0,0,0,0,0,0,0,0,0,0,0,0,0,0,0,0,0,0,0,0,0,0,0,0,0,0,0,
0,0,0,0,0,0,0,0,0,0,0,0,0,0,0,0,0,0,0,0,0,0,0,0,0,0,0,0,0,0,0,0,0,0,0,0,0,0,0,0,0,0,0,0,0,0,0,0,0,0,0,0,0,0,0,0,0,0,0,0,0,0,0,0,0,0,0,0,0,0,0,0,0,0,0,0,0,0,0,0,0,0,0,0,0,0,0,0,0,0,0,0,0,0,0,0,0,0,0,0,
0,0,0,0,0,0,0,0,0,0,0,0,0,0,0,0,0,0,0,0,0,0,0,0,0,0,0,0,0,0,0,0,0,0,0,0,0,0,0,0,0,0,0,0,0,0,0,0,0,0,0,0,0,0,0,0,0,0,0,0,0,0,0,0,0,0,0,0,0,0,0,0,0,0,0,0,0,0,0,0,0,0,0,0,0,0,0,0,0,0,0,0,0,0,1747,0,0,0,0,0,
0,0,0,0,0,0,0,0,0,0,0,0,0,0,0,0,0,0,0,0,0,0,0,0,0,0,0,0,0,0,0,0,0,0,0,0,0,0,0,0,0,0,0,0,0,0,0,0,0,0,0,0,0,0,0,0,0,0,0,0,0,0,0,0,0,0,0,0,0,0,0,0,0,0,0,0,0,0,0,0,0,0,0,0,0,0,0,0,0,0,0,0,0,0,0,0,0,0,0,0,
0,0,0,0,0,0,0,0,0,0,0,0,0,0,0,0,0,0,0,0,0,0,0,0,0,0,0,0,0,0,0,0,0,0,0,0,0,0,0,0,0,0,0,0,0,0,0,0,0,0,0,0,0,0,0,0,0,0,0,0,0,0,0,0,0,0,0,0,0,0,0,0,0,0,0,0,0,0,0,0,0,0,0,0,0,0,0,0,0,0,0,0,0,0,0,0,0,0,0,0,
0,0,0,0,0,0,0,0,0,0,0,0,0,0,0,0,0,0,0,0,0,0,0,0,0,0,0,0,0,0,0,0,0,0,0,0,0,0,0,0,0,0,0,0,0,0,0,0,0,0,0,0,0,0,0,0,0,0,0,0,0,0,0,0,0,0,0,0,0,0,0,0,0,0,0,0,0,0,0,0,0,0,0,0,0,0,0,0,0,0,0,0,0,0,0,0,0,0,0,0,
0,0,0,0,0,0,0,0,0,0,0,0,0,0,0,0,0,0,0,0,0,0,0,0,0,0,0,0,0,0,0,0,0,0,0,0,0,0,0,0,0,0,0,0,0,0,0,0,0,0,0,0,0,0,0,0,0,0,0,0,0,0,0,0,0,0,0,0,0,0,0,0,0,0,0,0,0,0,0,0,0,0,0,0,0,0,0,0,0,0,0,0,0,0,0,0,0,0,0,0,
0,0,0,0,0,0,0,0,0,0,0,0,0,0,0,0,0,0,0,0,0,0,0,0,0,0,0,0,0,0,0,0,0,0,0,0,0,0,0,0,0,0,0,0,0,0,0,0,0,0,0,0,0,0,0,0,0,0,0,0,0,0,0,0,0,0,0,0,0,0,0,0,0,0,0,0,0,0,0,0,0,0,0,0,0,0,0,0,0,0,0,0,0,0,0,0,0,0,0,0,
0,0,0,0,0,0,0,0,0,0,0,0,0,0,0,0,0,0,0,0,0,0,0,0,0,0,0,0,0,0,0,0,0,0,0,0,0,0,0,0,0,0,0,0,0,0,0,0,0,0,0,0,0,0,0,0,0,0,0,0,0,0,0,0,0,0,0,0,0,0,0,0,0,0,0,0,0,0,0,0,0,0,0,0,0,0,0,0,0,0,0,0,0,0,0,0,0,0,0,0,
0,0,0,0,0,0,0,0,0,0,0,0,0,0,0,0,0,0,0,0,0,0,0,0,0,0,0,0,0,0,0,0,0,0,0,0,0,0,0,0,0,0,0,0,0,0,0,0,0,0,0,0,0,0,0,0,0,0,0,0,0,0,0,0,0,0,0,0,0,0,0,0,0,0,0,0,0,0,0,0,0,0,0,0,0,0,0,0,0,0,0,0,0,0,0,0,0,0,0,0,
0,0,0,0,0,0,0,0,0,0,0,0,0,0,0,0,0,0,0,0,0,0,0,0,0,0,0,0,0,0,0,0,0,0,0,0,0,0,0,0,0,0,0,0,0,0,0,0,0,0,0,0,0,0,0,0,0,0,0,0,0,0,0,0,0,0,0,0,0,0,0,0,0,0,0,0,0,0,0,0,0,0,0,0,0,0,0,0,0,0,0,0,0,0,0,0,0,0,0,0,
0,0,0,0,0,0,0,0,0,0,0,0,0,0,0,0,0,0,0,0,0,0,0,0,0,0,0,0,0,0,0,0,0,0,0,0,0,0,0,0,0,0,0,0,0,0,0,0,0,0,0,0,0,0,0,0,0,0,0,0,0,0,0,0,0,0,0,0,0,0,0,0,0,0,0,0,0,0,0,0,0,0,0,0,0,0,0,0,0,0,0,0,0,0,0,0,0,0,0,0,
0,0,0,0,0,0,0,0,0,0,0,0,0,0,0,0,0,0,0,0,0,0,0,0,0,0,0,0,0,0,0,0,0,0,0,0,0,0,0,0,0,0,0,0,0,0,0,0,0,0,0,0,0,0,0,0,0,0,0,0,0,0,0,0,0,0,0,0,0,0,0,0,0,0,0,0,0,0,0,0,0,0,0,0,0,0,0,0,0,0,0,0,0,0,0,0,0,0,0,0,
0,0,0,0,0,0,0,0,0,0,0,0,0,0,0,0,0,0,0,0,0,0,0,0,0,0,0,0,0,0,0,0,0,0,0,0,0,0,0,0,0,0,0,0,0,0,0,0,0,0,0,0,0,0,0,0,0,0,0,0,0,0,0,0,0,0,0,0,0,0,0,0,0,0,0,0,0,0,0,0,0,0,0,0,0,0,0,0,0,0,0,0,0,0,0,0,0,0,0,0,
0,0,0,0,0,0,0,0,0,0,0,0,0,0,0,0,0,0,0,0,0,0,0,0,0,0,0,0,0,0,0,0,0,0,0,0,0,0,0,0,0,0,0,0,0,0,0,0,0,0,0,0,0,0,0,0,0,0,0,0,0,0,0,0,0,0,0,0,0,0,0,0,0,0,0,0,0,0,0,0,0,0,0,0,0,0,0,0,0,0,0,0,0,0,0,0,0,0,0,0,
0,0,0,0,0,0,0,0,0,0,0,0,0,0,0,0,0,0,0,0,0,0,0,0,0,0,0,0,0,0,0,0,0,0,0,0,0,0,0,0,0,0,0,0,0,0,0,0,0,0,0,0,0,0,0,0,0,0,0,0,0,0,0,0,0,0,0,0,0,0,0,0,0,0,0,0,0,0,0,0,0,0,0,0,0,0,0,0,0,0,0,0,0,0,0,0,0,0,0,0,
0,0,0,0,0,0,0,0,0,0,0,0,0,0,0,0,0,0,0,0,0,0,0,0,0,0,0,0,0,0,0,0,0,0,0,0,0,0,0,0,0,0,0,0,0,0,0,0,0,0,0,0,0,0,0,0,0,0,0,0,0,0,0,0,0,0,0,0,0,0,0,0,0,0,0,0,0,0,0,0,0,0,0,0,0,0,0,0,0,0,0,0,0,0,0,0,0,0,0,0,
0,0,0,0,0,0,0,0,0,0,0,0,0,0,0,0,0,0,0,0,0,0,0,0,0,0,0,0,0,0,0,0,0,0,0,0,0,0,0,0,0,0,0,0,0,0,0,0,0,0,0,0,0,0,0,0,0,0,0,0,0,0,0,0,0,0,0,0,0,0,0,0,0,0,0,0,0,0,0,0,0,0,0,0,0,0,0,0,0,0,0,0,0,0,0,0,0,0,0,0,
0,0,0,0,0,0,0,0,0,0,0,0,0,0,0,0,0,0,0,0,0,0,0,0,0,0,0,0,0,0,0,0,0,0,0,0,0,0,0,0,0,0,0,0,0,0,0,0,0,0,0,0,0,0,0,0,0,0,0,0,0,0,0,0,0,0,0,0,0,0,0,0,0,0,0,0,0,0,0,0,0,0,0,0,0,0,0,0,0,0,0,0,0,0,0,0,0,0,0,0,
0,0,0,0,0,0,0,0,0,0,0,0,0,0,0,0,0,0,0,0,0,0,0,0,0,0,0,0,0,0,0,0,0,0,0,0,0,0,0,0,0,0,0,0,0,0,0,0,0,0,0,0,0,0,0,0,0,0,0,0,0,0,0,0,0,0,0,0,0,0,0,0,0,0,0,0,0,0,0,0,0,0,0,0,0,0,0,0,0,0,0,0,0,0,0,0,0,0,0,0,
0,0,0,0,0,0,0,0,0,0,0,0,0,0,0,0,0,0,0,0,0,0,0,0,0,0,0,0,0,0,0,0,0,0,0,0,0,0,0,0,0,0,0,0,0,0,0,0,0,0,0,0,0,0,0,0,0,0,0,0,0,0,0,0,0,0,0,0,0,0,0,0,0,0,0,0,0,0,0,0,0,0,0,0,0,0,0,0,0,0,0,0,0,0,0,0,0,0,0,0,
0,0,0,0,0,0,0,0,0,0,0,0,0,0,0,0,0,0,0,0,0,0,0,0,0,0,0,0,0,0,0,0,0,0,0,0,0,0,0,0,0,0,0,0,0,0,0,0,0,0,0,0,0,0,0,0,0,0,0,0,0,0,0,0,0,0,0,0,0,0,0,0,0,0,0,0,0,0,0,0,0,0,0,0,0,0,0,0,0,0,0,0,0,0,0,0,0,0,0,0
</data>
 </layer>
 <layer id="3" name="Buildings" width="100" height="75">
  <data encoding="csv">
3579,3580,1725,1726,1732,2118,3687,3554,2323,3657,1745,1733,1734,3572,3573,3542,3543,3683,3581,1725,1726,1731,1717,1718,3754,3755,3756,3604,1745,1746,1748,1713,3704,3580,1716,1736,1746,1747,1748,3604,3754,3755,3756,3580,1913,1961,1883,3542,3543,3586,3587,3760,1719,1720,1730,1731,1730,1731,1732,3604,3604,3815,3823,0,0,3845,1713,3686,3685,3685,3868,3844,3561,3562,1729,3875,1731,1730,1731,1732,3604,3812,3813,3813,3863,3814,3685,3685,3586,3587,3779,3780,3733,3780,3734,3780,3780,1713,3542,3543,
1730,1731,1741,1742,1748,3679,3681,2229,3664,3492,3493,3494,1713,3597,3598,1725,1726,1730,1731,1741,1742,1747,1733,1734,3779,3780,3781,3754,3755,3542,3543,1729,1730,1731,1732,3705,3706,3707,3806,370,3779,3780,3781,3704,1929,3554,1915,3581,3804,3705,3707,3806,1716,1736,1746,1747,1746,1747,1748,3754,3755,3840,3848,0,0,3820,1729,1717,1718,3868,3844,3685,3586,3587,1745,1746,1747,1746,1747,1748,3580,3804,3805,3806,1719,1720,3875,1731,1721,1722,3804,3812,3863,3814,3706,3707,3832,1729,3875,1721,
1746,1747,1757,3780,3710,3579,3654,2275,3713,3614,2085,3779,1729,3875,1731,1741,1742,1746,1747,1757,3706,3707,3832,1713,3804,3805,3806,3779,3780,3781,3779,1745,1746,1747,1748,3604,3830,3754,3755,3756,3804,3805,3806,370,3579,1947,1915,3661,1725,1726,1730,1731,1732,3782,3805,3705,3706,3707,3806,3779,3780,3865,3823,0,0,3845,1745,1733,1734,1713,3812,3813,3814,3804,3705,3686,3707,3572,3573,3806,3829,3604,3604,3604,1716,1736,1746,1747,1737,1738,1730,1731,3875,1731,1717,1718,3779,1745,1746,1737,
3780,3780,3734,3780,3735,3604,3654,3687,0,3639,2117,3779,1745,1746,1747,1757,3705,3492,3493,3494,3755,3756,3779,1729,1730,1721,1722,3804,3805,3806,3812,3814,3706,3707,3806,3604,370,3779,3780,3781,3542,3543,3704,1719,1720,1762,1763,3875,1741,1742,1746,1747,1748,3781,3754,3572,3573,3756,3581,3804,3805,3806,3848,0,0,3820,3779,3780,3820,1729,3875,1731,1730,1731,1721,1722,3580,3597,3598,3686,1725,1726,1730,1731,1732,3705,3706,3707,3686,1754,1746,1747,1746,1747,1733,1734,3565,3805,3705,3467,
3572,3573,3785,3729,3760,3581,3679,2041,3666,3664,3682,3804,3705,3706,3707,3806,3580,3629,3632,3779,3780,3781,3779,1745,1746,1737,1738,3875,1731,1730,1731,1730,1731,1721,1722,3604,3604,3804,3805,3806,3604,370,3580,1716,1881,1962,1962,1883,1757,3804,3705,3706,3707,3806,3779,3597,3598,3781,3604,3579,370,3580,1716,0,0,3845,3804,3832,3845,1745,1746,1747,1746,1747,1737,1738,1730,1731,1730,1731,1741,1742,1746,1747,1748,3812,3814,3565,3804,3492,3493,3494,3706,3707,3832,1713,3579,3736,3604,3492,
3597,3598,3810,3782,3806,3723,3724,3875,1793,1796,3897,3893,3869,3812,3813,3814,3704,3679,3682,3804,3805,3806,3804,3705,3542,3543,1754,1746,1747,1746,1747,1746,1747,1737,1738,1730,1731,1730,1731,1730,1731,1730,1731,1732,1897,3554,3554,1899,3683,3581,3754,3755,3756,3812,3813,3814,3467,3468,3469,1719,1720,1730,1732,0,0,1713,3581,3779,3820,3542,3543,4264,3492,3493,3494,1754,1746,1747,1746,1747,1757,3805,3555,3736,3806,3580,371,1719,1720,3875,1731,1717,1718,3604,3779,1729,1730,1731,1721,1722,
3834,3834,3787,3789,3830,3748,3749,3922,1809,1812,3921,3918,3894,3896,3897,3875,3897,1749,370,3581,1719,1720,3875,1731,1730,1731,1731,1730,1731,1721,1722,3493,3494,3805,1754,1746,1747,1746,1747,1746,1747,1746,1747,1748,1929,1930,3554,1961,1883,3604,3779,3565,3781,3580,370,3830,3492,3493,3494,1716,1736,1746,1748,0,0,1729,1718,3779,3845,3812,3814,0,3812,3814,3736,3805,3542,1719,1720,1730,1731,1730,1731,1721,1722,3604,3579,1716,1736,1746,1747,1733,1734,3685,3779,1745,1746,1747,1737,1738,
3705,3706,3812,3814,3661,3873,3774,3947,1825,1828,3946,3943,3919,5335,5336,5337,3922,1765,1766,370,1716,1736,1746,1747,1746,1747,1747,1746,1747,1737,1738,1731,1717,1718,3779,3780,3782,3705,3706,3707,3805,3705,3707,3806,3604,3604,1947,3554,1931,370,3804,3805,3806,1725,1726,3875,1731,1730,1731,1732,0,0,0,0,0,1745,1734,3779,1713,3686,1716,0,1713,3830,371,3580,3661,1716,1736,1746,1747,1746,1747,1737,1738,1730,1731,1732,0,0,0,0,3820,3661,3804,3492,3493,3494,3832,1754,
370,3580,3771,3797,3897,3898,3654,3612,3640,3640,3614,3968,3944,5360,5361,5362,3947,1781,1782,1731,1732,0,0,0,0,0,0,0,0,0,1754,1755,1756,1713,3804,3805,3806,3704,3604,3754,3755,3756,3829,3604,3604,3604,1913,1945,3580,3604,1725,1726,1731,1741,1742,1746,1747,1746,1747,1748,0,0,0,0,0,0,3845,3779,1729,1730,1732,0,1729,1730,1731,1730,1731,1732,3734,3782,3705,3492,3493,3494,1754,1746,1747,1748,0,0,0,0,3845,3514,3515,3516,3686,3581,3868,3843,
3875,3897,3796,3822,3922,3923,3654,3637,3554,3554,3639,0,3969,5385,5386,5387,3972,1797,1798,1747,1748,0,0,0,0,0,0,0,0,0,0,0,0,3874,1730,1731,1717,1718,3580,3779,3780,3781,1719,1720,3875,1731,1762,1763,1730,1731,1741,1742,1747,1757,0,0,0,0,0,0,0,0,0,0,0,0,1713,3804,1745,1746,1748,0,1745,1746,1747,1746,1747,1748,3805,3806,3565,3581,3579,1725,1726,1783,0,0,0,0,0,0,3820,3754,3540,3756,370,3754,3820,3555,
3921,3922,3821,3847,3947,3948,3631,3662,3554,3554,3664,0,0,0,0,0,0,0,0,0,0,0,0,0,0,0,0,0,0,0,0,0,0,1745,1746,1747,1733,1713,3661,3804,3805,3806,1716,1736,1746,3612,3640,3640,3614,1747,1757,1753,0,0,0,0,0,0,0,0,0,0,0,0,0,0,3874,1717,1718,0,0,0,0,3707,3805,3805,3686,1725,1726,1730,1731,3875,1731,1741,1742,1799,1800,0,0,0,0,0,3604,3779,3565,3781,3829,3868,3844,3517,
3946,3947,3846,3872,3972,3973,3612,3712,0,0,3689,0,0,0,0,0,0,0,0,0,0,0,0,0,0,0,0,0,0,0,0,0,0,0,0,0,0,1729,3875,1731,1730,1731,1732,3542,3543,3637,3554,3554,3639,0,0,0,0,0,0,0,0,0,0,0,0,0,0,0,0,0,1745,1733,1713,0,0,0,0,1846,1731,3875,1731,1741,1742,1746,1747,1746,1747,1757,0,0,0,0,0,0,0,1713,3542,3543,3805,3806,3754,3820,3604,3542,
3971,3972,3871,3542,3543,3654,3662,0,0,3667,0,0,0,0,0,0,0,0,0,0,0,0,0,0,0,0,0,0,0,0,0,0,0,0,0,0,0,1745,1746,1747,1746,1747,1748,3686,3631,3662,3554,3554,3664,0,0,0,0,0,0,0,0,0,0,0,0,0,0,0,0,0,0,0,1729,1783,0,0,1861,1862,1747,1746,1747,1757,0,0,0,0,0,0,0,0,0,0,0,0,0,1729,1717,1718,371,3840,3779,1713,3604,3604,
3493,3494,3805,3806,3604,3654,3687,0,0,3713,3614,0,0,0,0,0,0,0,0,0,0,0,0,0,0,0,0,0,0,0,0,0,3612,3640,3613,3640,3613,3640,2305,2306,3492,3493,3494,3631,3612,3712,0,0,3689,0,0,0,0,0,0,0,0,0,0,0,0,0,0,0,0,0,0,0,1745,1799,1800,0,0,0,0,0,0,0,0,0,0,0,0,0,0,0,0,0,0,0,0,1745,1733,1734,3704,3865,3757,1729,1730,1731,
3755,3756,3581,3704,3756,3679,3681,3641,0,0,3639,0,0,0,0,0,0,0,0,0,0,0,0,0,0,0,0,0,0,0,2242,3613,3712,0,0,0,0,0,2321,2403,3614,3610,3989,3612,3712,0,0,3667,0,0,0,0,0,0,0,0,0,0,0,0,0,0,0,0,0,0,0,0,0,0,0,0,0,0,0,0,0,0,0,0,0,0,0,0,0,0,0,0,0,0,0,0,0,3845,3580,3779,3733,1745,1746,1747,
3780,3781,3830,3804,3806,3604,3679,3681,3666,0,3713,3614,0,0,0,0,0,0,0,0,0,0,0,0,0,0,0,0,0,2257,2258,0,0,0,2369,2371,3688,0,0,0,3713,3640,3613,3712,0,0,0,3689,0,0,0,0,0,0,0,0,0,0,0,0,0,0,0,0,0,0,0,0,0,0,0,0,0,0,0,0,0,0,0,0,0,0,0,0,0,0,0,0,0,0,0,0,0,1713,3604,3736,3832,3572,3573,3834,
3780,3807,3756,3754,3755,3756,3830,2086,3687,0,0,3664,0,0,0,0,0,0,0,0,0,0,0,0,0,0,0,0,0,3637,0,0,0,3642,0,0,0,3641,3688,0,0,0,0,0,0,3688,2355,0,0,0,0,0,0,0,0,0,0,0,0,0,0,0,0,0,0,0,0,0,0,0,0,0,0,0,0,0,0,0,0,0,0,0,0,0,0,0,0,0,0,0,0,0,0,1729,1717,1718,3779,3597,3598,3734,
3780,3780,3781,3779,3780,3781,370,2102,3993,2229,0,3713,3614,0,0,3612,3613,3640,3613,3640,3613,2305,0,0,0,0,0,0,0,3662,0,0,2355,0,0,0,0,0,0,2340,3688,2369,2370,2371,3642,0,0,0,0,0,0,0,0,0,0,0,0,0,0,0,0,0,0,0,0,0,0,0,0,0,0,0,0,0,0,0,0,0,0,0,0,0,0,0,0,0,0,0,0,0,0,0,0,1745,1733,1713,3804,3686,3706,3707,
3784,3785,3517,3518,3805,3806,3580,2118,3610,2275,0,0,3713,3613,3640,3712,0,0,0,0,0,2321,2403,3614,0,0,0,3612,3640,3712,0,2230,0,0,0,0,0,0,0,0,0,0,0,0,0,0,0,0,0,0,0,0,0,0,0,0,0,0,0,0,0,0,0,0,0,0,0,0,0,0,0,0,0,0,0,0,0,0,0,0,0,0,0,0,0,0,0,0,0,0,0,0,0,0,0,1729,1730,1731,3875,1731,
3809,3810,3542,3629,3632,3629,3630,3631,3612,3712,0,0,0,0,0,0,0,2369,2370,2371,0,0,0,3713,3640,4238,3613,3712,0,0,0,2323,0,0,0,0,0,0,0,0,0,0,0,0,0,0,0,0,0,0,0,0,0,0,0,0,0,0,0,0,0,0,0,0,0,0,0,0,0,0,0,0,0,0,0,0,0,0,0,0,0,0,0,0,0,0,0,0,0,0,0,0,0,3661,3805,1745,1746,1747,1746,1747,
3834,3835,3790,3679,3682,3654,2241,2242,3712,0,0,0,0,0,3688,3688,3642,0,0,0,3641,3688,0,0,3554,4263,3638,0,0,0,3688,3689,0,0,0,0,0,0,0,0,0,0,0,0,0,0,0,0,0,0,0,0,0,0,0,0,0,0,0,0,0,0,0,0,0,0,0,0,0,0,0,0,0,0,0,0,0,0,0,0,0,0,0,0,0,0,0,0,0,0,0,0,3812,3813,3813,3813,3813,3813,3863,3813,
3734,3782,3815,370,3629,3631,2257,2258,0,0,0,0,3688,3642,0,0,0,0,0,0,0,0,3641,3688,3688,4313,2369,2370,2371,3642,0,0,0,0,0,0,0,0,0,0,0,0,0,0,0,0,0,0,0,0,0,0,0,0,0,0,0,0,0,0,0,0,0,0,0,0,0,0,0,0,0,0,0,0,0,0,0,0,0,0,0,0,0,0,0,0,0,0,0,0,0,0,0,0,0,0,0,0,0,0,
3805,3806,3840,3580,3654,3612,3712,0,0,0,3688,3642,0,0,0,0,0,0,0,0,0,0,0,0,0,0,0,0,0,0,0,0,0,0,0,0,0,0,0,0,0,0,0,0,0,0,0,0,0,0,0,0,0,0,0,0,0,0,0,0,0,0,0,0,0,0,0,0,0,0,0,0,0,0,0,0,0,0,0,0,0,0,0,0,0,0,0,0,0,0,0,0,0,0,0,0,0,0,0,0,
3685,3604,3865,3629,3631,3662,0,0,0,3667,0,0,0,0,0,0,0,0,0,0,0,0,0,0,0,0,0,0,0,0,0,0,0,0,0,0,0,0,0,0,0,0,0,0,0,0,0,0,0,0,0,0,0,0,0,0,0,0,0,0,0,0,0,0,0,0,0,0,0,0,0,0,0,0,0,0,0,0,0,0,0,0,0,0,0,0,0,0,0,0,0,0,0,0,0,0,0,0,0,0,
3604,3604,3685,3654,3612,3712,0,0,0,3689,0,0,0,0,0,0,0,0,0,0,0,0,0,0,0,0,0,0,0,0,0,0,0,0,0,0,0,0,0,0,0,0,0,0,0,0,0,0,0,0,0,0,0,0,0,0,0,0,0,0,0,0,0,0,0,0,0,0,0,0,0,0,0,0,0,0,0,0,0,0,0,0,0,0,0,0,0,0,0,0,0,0,3815,3812,3813,3813,3813,3813,3813,3813,
370,3604,3604,2086,3637,0,0,0,2230,0,0,0,0,0,0,0,0,0,0,0,0,0,0,0,0,0,0,0,0,0,0,0,0,0,0,0,0,0,0,0,0,0,0,0,0,0,0,0,0,0,0,0,0,0,0,0,0,0,0,0,0,0,0,0,0,0,0,0,0,0,0,0,0,0,0,0,0,0,0,0,0,0,0,0,0,0,0,0,0,0,0,0,3815,3604,3604,3542,3543,3868,3844,3604,
3754,3755,3756,2102,3662,0,0,0,2307,0,0,0,0,0,0,0,0,0,0,0,0,0,0,0,0,0,0,0,0,0,0,0,0,0,0,0,0,0,0,0,0,0,0,0,0,0,0,0,0,0,0,0,0,0,0,0,0,0,0,0,0,0,0,0,0,0,0,0,0,0,0,0,0,0,0,0,0,0,0,0,0,0,0,0,0,0,0,0,0,0,0,0,3815,3604,3604,3579,3754,3820,370,3604,
3518,3780,3781,2118,2243,0,0,0,2323,0,0,0,0,0,0,0,0,0,0,0,0,0,0,0,0,0,0,0,0,0,0,0,0,0,0,0,0,0,0,0,0,0,0,0,0,0,0,0,0,0,0,0,0,0,0,0,0,0,0,0,0,0,0,0,0,0,0,0,0,0,0,0,0,0,0,0,0,0,0,0,0,0,0,0,0,0,0,0,0,0,0,0,3815,3754,3756,3661,3868,3844,3686,3755,
3543,3805,3806,2086,2259,0,0,0,3713,3614,0,0,0,0,0,0,0,0,0,0,0,0,0,0,0,0,0,0,0,0,0,0,0,0,0,0,0,0,0,0,0,0,0,0,0,0,0,0,0,0,0,0,0,0,0,0,0,0,0,0,0,0,0,0,0,0,0,0,0,0,0,0,0,0,0,0,0,0,0,0,0,0,0,0,0,0,0,0,0,0,0,0,3815,3804,3806,3754,3820,3580,3779,3780,
370,3829,3581,2102,2275,0,0,0,0,3639,0,0,0,0,0,0,0,0,0,0,0,0,0,0,0,0,0,0,0,0,0,0,0,0,0,0,0,0,0,0,0,0,0,0,0,0,0,0,0,0,0,0,0,0,0,0,0,0,0,0,0,0,0,0,0,0,0,0,0,0,0,0,0,0,0,0,0,0,0,0,0,0,0,0,0,0,0,0,0,0,0,0,3815,3555,370,3779,1713,3830,3804,3442,
3604,3754,3756,2118,3687,0,0,0,0,2291,0,0,0,0,0,0,0,0,0,0,0,0,0,0,0,0,0,0,0,0,0,0,0,0,0,0,0,0,0,0,0,0,0,0,0,0,0,0,0,0,0,0,0,0,0,0,0,0,0,0,0,0,0,0,0,0,0,0,0,0,0,0,0,0,0,0,0,0,0,0,0,0,0,0,0,0,0,0,0,0,0,0,3815,3604,3604,3779,1729,1717,1718,3467,
3604,3804,3806,3679,3681,3666,0,0,0,2307,0,0,0,0,0,0,0,0,0,0,0,0,0,0,0,0,0,0,0,0,0,0,0,0,0,0,0,0,0,0,0,0,0,0,0,0,0,0,0,0,0,0,0,0,0,0,0,0,0,0,0,0,0,0,0,0,0,0,0,0,0,0,0,0,0,0,0,0,0,0,0,0,0,0,0,0,0,0,0,0,0,0,3815,3604,3604,3779,1745,1733,1734,3492,
3604,3604,3579,3790,3654,3662,0,0,0,2323,0,0,0,0,0,0,0,0,0,0,0,0,0,0,0,0,0,0,0,0,0,0,0,0,0,0,0,0,0,0,0,0,0,0,0,0,0,0,0,0,0,0,0,0,0,0,0,0,0,0,0,0,0,0,0,0,0,0,0,0,0,0,0,0,0,0,0,0,0,0,0,0,0,0,0,0,0,0,0,0,0,0,3815,3604,3604,3804,3805,3832,1713,370,
3755,3756,3830,3815,2086,2243,0,0,0,3664,0,0,0,0,0,0,0,0,0,0,0,0,0,0,0,0,0,0,0,0,0,0,0,0,0,0,0,0,0,0,0,0,0,0,0,0,0,0,0,0,0,0,0,0,0,0,0,0,0,0,0,0,0,0,0,0,0,0,0,0,0,0,0,0,0,0,0,0,0,0,0,0,0,0,0,0,0,0,0,0,0,0,3815,3581,3604,3604,3686,3690,3874,1730,
3780,3517,3518,3840,2102,2259,0,0,0,3713,3614,0,0,0,0,0,0,0,0,0,0,0,0,0,0,0,0,0,0,0,0,0,0,0,0,0,0,0,0,0,0,0,0,0,0,0,0,0,0,0,0,0,0,0,0,0,0,0,0,0,0,0,0,0,0,0,0,0,0,0,0,0,0,0,0,0,0,0,0,0,0,0,0,0,0,0,0,0,0,0,0,0,3815,3754,3572,3573,3756,3740,1745,1746,
3805,3542,3543,3865,2118,2275,0,0,0,0,3639,0,0,0,0,0,0,0,0,0,0,0,0,0,0,0,0,0,0,0,0,0,0,0,0,0,0,0,0,0,0,0,0,0,0,0,0,0,0,0,0,0,0,0,0,0,0,0,0,0,0,0,0,0,0,0,0,0,0,0,0,0,0,0,0,0,0,0,0,0,0,0,0,0,0,0,0,0,0,0,0,0,3815,3686,3597,3598,3781,3804,3805,3805,
3580,3604,3604,370,3654,3662,0,0,0,0,2291,0,0,0,0,0,0,0,0,0,0,0,0,0,0,0,0,0,0,0,0,0,0,0,0,0,0,0,0,0,0,0,0,0,0,0,0,0,0,0,0,0,0,0,0,0,0,0,0,0,0,0,0,0,0,0,0,0,0,0,0,0,0,0,0,0,0,0,0,0,0,0,0,0,0,0,0,0,0,0,0,0,3815,3804,3805,3805,3806,3604,3604,3604,
3604,3604,3604,3604,3654,3687,0,0,0,0,2323,0,0,0,0,0,0,0,0,0,0,0,0,0,0,0,0,0,0,0,0,0,0,0,0,0,0,0,0,0,0,0,0,0,0,0,0,0,0,0,0,0,0,0,0,0,0,0,0,0,0,0,0,0,0,0,0,0,0,0,0,0,0,0,0,0,0,0,0,0,0,0,0,0,0,0,0,0,0,0,0,0,3815,370,3604,3604,3604,3604,3542,3543,
3756,370,3604,3704,3679,3681,3666,0,0,0,3713,3614,0,0,0,0,0,0,0,0,0,0,0,0,0,0,0,0,0,0,0,0,0,0,0,0,0,0,0,0,0,0,0,0,0,0,0,0,0,0,0,0,0,0,0,0,0,0,0,0,0,0,0,0,0,0,0,0,0,0,0,0,0,0,0,0,0,0,0,0,0,0,0,0,0,0,0,0,0,0,0,0,3815,3604,3604,3754,3755,3686,370,3754,
3806,3754,3755,3756,3579,3654,2243,0,0,0,0,3639,0,0,0,0,0,0,0,0,0,0,0,0,0,0,0,0,0,0,0,0,0,0,0,0,0,0,0,0,0,0,0,0,0,0,0,0,0,0,0,0,0,0,0,0,0,0,0,0,0,0,0,0,0,0,0,0,0,0,0,0,0,0,0,0,0,0,0,0,0,0,0,0,0,0,0,0,0,0,0,0,3815,3492,3493,3494,3780,3781,3580,3804,
3604,3779,3780,3442,3443,3444,2259,0,0,0,0,3664,0,0,0,0,0,0,0,0,0,0,0,0,0,0,0,0,0,0,0,0,0,0,0,0,0,0,0,0,0,0,0,0,0,0,0,0,0,0,0,0,0,0,0,0,0,0,0,0,0,0,0,0,0,0,0,0,0,0,0,0,0,0,0,0,0,0,0,0,0,0,0,0,0,0,0,0,0,0,0,0,3815,3604,3830,3868,3842,3843,3842,3843,
3604,3804,3805,3467,3468,3469,2275,0,0,0,0,2291,0,0,0,0,0,0,0,0,0,0,0,0,0,0,0,0,0,0,0,0,0,0,2242,3613,3640,3613,3614,0,0,0,0,0,0,0,0,0,0,0,0,0,0,0,0,0,0,0,0,0,0,0,0,0,0,0,0,0,0,0,0,0,0,0,0,0,0,0,0,0,0,0,0,0,0,0,0,0,0,0,0,0,3815,3579,3868,3844,3517,3518,3604,3604,
3604,3830,3581,3492,3493,3494,3662,0,0,0,0,2307,0,0,0,0,0,0,0,0,0,0,0,0,0,0,0,0,0,0,0,0,3612,2401,2258,0,0,0,3713,3613,3614,0,0,0,0,0,0,0,0,0,0,0,0,0,0,0,0,0,0,0,0,0,0,0,0,0,0,0,0,0,0,0,0,0,0,0,0,0,0,0,0,0,0,0,0,0,0,0,0,0,0,0,3840,3604,3844,3579,3542,3543,3754,3530,
3755,3756,3787,3789,3654,3612,3712,0,0,0,0,2323,0,0,0,0,0,0,0,0,0,0,0,0,0,0,0,0,0,0,0,3612,3712,0,0,0,0,0,0,0,3713,2305,0,0,0,0,0,0,0,0,0,0,0,0,0,0,0,0,0,0,0,0,0,0,0,0,0,0,0,0,0,0,0,0,0,0,0,0,0,0,0,0,0,0,0,0,0,0,0,0,0,3604,370,3604,3604,3580,3604,3604,3868,3555,
3565,3806,3812,3814,3654,2243,0,0,0,0,0,3664,0,0,0,0,0,0,0,0,0,0,0,0,0,0,0,0,0,0,0,3637,0,0,0,0,0,0,0,0,0,2321,2403,3614,0,0,0,0,0,0,0,0,0,0,0,0,0,0,0,0,0,0,0,0,0,0,0,0,0,0,0,0,0,0,0,0,0,0,0,0,0,0,0,0,0,0,0,0,0,0,0,3604,3754,3755,3756,3868,3842,3843,3844,3805,
3469,3629,3608,3634,3631,2275,0,0,0,0,0,3689,0,0,0,0,0,0,0,0,0,0,0,0,0,0,0,0,0,0,3612,3712,0,0,0,0,0,0,0,0,0,0,0,3713,2305,0,0,0,0,0,0,0,0,0,0,0,0,0,0,0,0,0,0,0,0,0,0,0,0,0,0,0,0,0,0,0,0,0,0,0,0,0,0,0,0,0,0,0,0,0,0,3604,3779,3780,3781,3820,3604,3604,3604,3442,
3494,3631,2385,2242,3613,3712,0,0,0,0,2230,0,0,0,0,0,0,0,0,0,0,0,0,0,0,0,0,0,0,0,2243,0,0,0,0,0,0,0,0,0,0,0,0,0,2321,2322,0,0,0,0,0,0,0,0,0,0,0,0,0,0,0,0,0,0,0,0,0,0,0,0,0,0,0,0,0,0,0,0,0,0,0,0,0,0,0,0,0,0,0,0,3604,3604,3804,3868,3842,3844,3754,3755,3755,3467,
3612,3613,2401,2258,3638,0,0,0,0,0,2323,0,0,0,0,0,0,0,0,0,0,0,0,0,0,0,0,0,0,0,2275,0,0,0,0,0,0,0,0,0,0,0,0,0,0,3639,0,0,0,0,0,0,0,0,0,0,0,0,0,0,0,0,0,0,0,0,0,0,0,0,0,0,0,0,0,0,0,0,0,0,0,0,0,0,0,0,0,0,3845,3604,3604,3604,3754,3820,3815,3754,3757,3572,3573,3492,
3712,3638,0,0,0,0,0,0,0,0,3689,0,0,0,0,0,0,0,0,0,0,0,0,0,0,0,0,0,0,0,3687,0,0,0,0,0,0,0,0,0,0,0,0,0,0,3664,0,0,0,0,0,0,0,0,0,0,0,0,0,0,0,0,0,0,0,0,0,0,0,0,0,0,0,0,0,0,0,0,0,0,0,0,0,0,0,0,0,0,3844,3604,3604,3604,3690,3845,3840,3779,3758,3597,3598,3760,
3554,0,0,0,0,0,0,0,0,3642,0,0,0,0,0,0,0,0,0,0,0,0,0,0,0,0,0,0,0,0,0,3641,3688,0,0,0,0,0,0,0,0,0,0,0,3688,3689,0,0,0,0,0,0,0,0,0,0,0,0,0,0,0,0,0,0,0,0,0,0,0,0,0,0,0,0,0,0,0,0,0,0,0,0,0,0,0,0,3604,3604,3754,3755,3756,3581,3715,1713,3865,3804,3705,3706,3707,3806,
3554,0,0,0,0,0,0,0,3667,3815,0,0,0,0,0,0,0,0,0,0,0,0,0,0,0,0,0,0,0,0,0,0,0,3641,2369,2370,2371,0,0,0,0,0,3688,3642,0,0,0,0,0,0,0,0,0,0,0,0,0,0,0,0,0,0,0,0,0,0,0,0,0,0,0,0,0,0,0,0,0,0,0,0,0,0,0,0,0,0,3845,3604,3779,3780,3781,370,3740,1729,1730,1731,1721,1722,370,3581,
3554,0,0,0,0,0,0,0,3689,3815,0,0,0,0,0,0,0,0,0,0,0,0,0,0,0,0,0,0,0,0,0,0,0,0,0,0,0,3641,3688,2369,2371,3642,0,0,0,0,0,0,0,0,0,0,0,0,0,0,0,0,0,0,0,0,0,0,0,0,0,0,0,0,0,0,0,0,0,0,0,0,0,0,0,0,0,0,0,0,3870,3580,3804,3805,3806,3579,3779,1745,1746,1747,1737,1738,1730,1731,
3554,0,0,0,0,2369,2371,3642,3607,3815,0,0,0,0,0,0,0,0,0,0,0,0,0,0,0,0,0,0,0,0,0,0,0,0,0,0,0,0,0,0,0,0,0,0,0,0,0,0,0,0,0,0,0,0,0,0,0,0,0,0,0,0,0,0,0,0,0,0,0,0,0,0,0,0,0,0,0,0,0,0,0,0,0,0,0,0,3874,3875,5063,5064,3897,1749,3804,3705,3492,3493,3494,1754,1746,1747,
3554,0,3688,3688,3642,3607,3680,3680,3682,3815,0,0,0,0,0,0,0,0,0,0,0,0,0,0,0,0,0,0,0,0,0,0,0,0,0,0,0,0,0,0,0,0,0,0,0,0,0,0,0,0,0,0,0,0,0,0,0,0,0,0,0,0,0,0,0,0,0,0,0,0,0,0,0,0,0,0,0,0,0,0,0,0,0,0,0,0,3920,5087,0,5089,3922,1765,1766,3683,3580,370,3804,3542,3543,3706,
2371,3642,3607,3680,3680,3682,3736,3604,3604,3815,0,0,0,0,0,0,0,0,0,0,0,0,0,0,0,0,0,0,0,0,0,0,0,0,0,0,0,0,0,0,0,0,0,0,0,0,0,0,0,0,0,0,0,0,0,0,0,0,0,0,0,0,0,0,0,0,0,0,0,0,0,0,0,0,0,0,0,0,0,0,0,0,0,0,0,0,3945,5112,0,5114,3947,1781,1782,1717,1718,3754,3756,3604,3754,3755,
3680,3680,3682,3604,370,3604,3604,3754,3755,3815,0,0,0,0,0,0,0,0,0,0,0,0,0,0,0,0,0,0,0,0,0,0,0,0,0,0,0,0,0,0,0,0,0,0,0,0,0,0,0,0,0,0,0,0,0,0,0,0,0,0,0,0,0,0,0,0,0,0,0,2242,3613,3640,3613,3640,3614,0,0,0,0,0,0,0,0,0,0,0,3970,5137,0,5139,3972,1797,1798,1733,1734,3804,3806,370,3779,3780,
3581,3754,3755,3756,3604,3604,3604,3779,3565,3815,0,0,0,0,0,0,0,0,0,0,0,0,0,0,0,0,0,0,0,0,0,0,0,0,0,0,0,0,0,0,0,0,0,0,0,0,0,0,0,0,0,0,0,0,0,0,0,0,0,0,0,0,0,0,0,0,0,3612,2401,2258,0,0,0,0,3713,3614,0,0,0,0,0,0,0,0,0,0,0,0,0,0,0,0,0,4124,3844,3604,3604,3604,3804,3805,
3604,3779,3780,3781,3604,3604,3604,3804,3805,3815,0,0,0,0,0,0,0,0,0,0,0,0,0,0,0,0,0,0,0,0,0,0,0,0,0,0,0,0,0,0,0,0,0,0,0,0,0,0,0,0,0,0,0,0,0,0,0,0,0,0,0,0,0,0,0,0,3612,3712,0,0,0,0,0,0,0,3639,0,0,0,0,0,0,0,0,0,0,0,0,0,0,0,0,0,3633,3604,3604,3604,3604,370,3579,
3842,3843,3867,3806,3754,3755,3756,370,3579,3815,0,0,0,0,0,0,0,0,0,0,0,0,0,0,0,0,0,0,0,0,0,0,0,0,0,0,0,0,0,0,0,0,0,0,0,0,0,0,0,0,0,0,0,0,0,0,0,0,0,0,0,0,0,0,0,0,3637,0,0,0,0,0,0,0,0,3664,0,0,0,0,0,0,0,0,0,0,0,0,0,0,0,0,0,3604,3604,3604,3604,3604,3604,3604,
3754,3756,3841,3843,3842,3565,3867,3754,3756,3815,0,0,0,0,0,0,3612,3613,3640,3614,0,0,0,0,0,0,0,0,0,0,0,0,0,0,0,0,0,0,0,0,0,0,0,0,0,0,0,0,0,0,0,0,0,0,0,0,0,0,0,0,0,0,0,0,0,0,3687,3688,0,0,0,0,0,0,0,3689,0,0,0,0,0,0,0,0,0,0,0,0,0,0,0,0,3604,3604,370,3604,3604,3604,3581,3604,
3804,3806,3604,3754,3755,3756,3841,3843,3867,3815,0,0,0,0,0,3612,3712,0,0,3713,3613,3614,0,0,0,0,0,0,0,0,0,0,0,0,0,0,0,0,0,0,0,0,0,0,0,0,0,0,0,0,0,0,0,0,0,0,0,0,0,0,0,0,0,0,0,0,0,0,3641,3688,0,0,0,0,3667,0,0,0,0,0,0,0,0,0,0,0,0,0,0,3780,3754,3756,3604,3604,3754,3572,3573,3442,3443,3444,
3604,3604,3604,3779,3758,3807,3755,3756,3823,3815,0,0,0,0,0,3637,0,0,0,0,0,3689,0,0,0,0,0,0,0,0,0,0,0,0,0,0,0,0,0,0,0,0,0,0,0,0,0,0,0,0,0,0,0,0,0,0,0,0,0,0,0,0,0,0,0,0,0,0,0,0,3641,2369,2371,3688,3689,0,0,0,0,0,0,0,0,0,0,0,0,0,3780,3579,3804,3806,3604,3604,3779,3597,3598,3467,3468,3469,
3754,3755,3755,3757,3734,3492,3493,3494,3848,3815,0,0,0,0,0,3687,3688,0,0,0,3667,0,0,0,0,0,0,0,0,0,0,0,0,0,0,0,0,0,0,0,0,0,0,0,0,0,0,0,0,0,0,0,0,0,0,0,0,0,0,0,0,0,0,0,0,0,0,0,0,0,0,0,0,0,0,0,0,0,0,0,0,0,0,0,0,0,0,0,3845,3604,3580,3604,3604,3604,3804,3805,3805,3492,3493,3494,
3542,3543,3784,3784,3785,3782,3805,3806,1716,3815,0,0,0,0,0,0,0,3641,3688,3688,3689,0,0,0,0,0,0,0,0,0,0,0,0,0,0,0,0,0,0,0,0,0,0,0,0,0,0,0,0,0,0,0,0,0,0,0,0,0,0,0,0,0,0,0,0,0,0,0,0,0,0,0,0,0,0,0,0,0,0,0,0,0,0,0,0,0,0,0,3780,370,3704,3754,3755,3756,3829,3604,3604,3604,3604,3579,
3715,3808,3809,3809,3810,3710,1719,1720,1732,3815,0,0,0,0,0,0,0,0,0,0,0,0,0,0,0,0,0,0,0,0,0,0,0,0,0,0,0,0,0,0,0,0,0,0,0,0,0,0,0,0,0,0,0,0,0,0,0,0,0,0,0,0,0,0,0,0,0,0,0,0,0,0,0,0,0,0,0,0,0,0,0,0,0,0,0,0,0,3780,3604,3604,3604,3779,3780,3781,3604,370,3604,3604,3868,3842,
3740,3833,3834,3834,3835,3760,1735,1736,1748,3815,0,0,0,0,0,0,0,0,0,0,0,0,0,0,0,0,0,0,0,0,0,0,0,0,0,0,0,0,0,0,0,0,0,0,0,0,0,0,0,0,0,0,0,0,0,0,0,0,0,0,0,0,0,0,0,0,0,0,0,0,0,0,0,0,0,0,0,0,0,0,0,0,0,0,0,0,0,3845,3604,3604,3604,3804,3805,3806,3581,3868,3842,3843,3844,370,
3804,3705,3706,3707,3805,3806,1716,3542,3543,3815,0,0,0,0,0,0,0,0,0,0,0,0,0,0,0,0,0,0,0,0,0,0,0,0,0,0,0,0,0,0,0,0,0,0,0,0,0,0,0,0,0,0,0,0,0,0,0,0,0,0,0,0,0,0,0,0,0,0,0,0,0,0,0,0,0,0,0,0,0,0,0,0,0,0,0,0,0,3780,3604,3604,3604,3604,3604,3604,3604,3820,3754,3755,3756,3604,
3604,3830,1725,1726,1730,1731,1732,3729,3781,3840,0,0,0,0,0,0,0,0,0,0,0,0,0,0,0,0,0,0,0,0,0,0,0,0,0,0,0,0,0,0,0,0,0,0,0,0,0,0,0,0,0,0,0,0,0,0,0,0,0,0,0,0,0,0,0,0,0,0,0,0,0,0,0,0,0,0,0,0,0,0,0,0,0,0,0,0,3780,3629,3632,3604,3604,3604,3604,3754,3868,3844,3779,3780,3781,3604,
3875,3875,1741,1742,1746,1747,1748,3733,3781,3865,3685,3685,3685,3685,3685,3679,3680,3658,3659,3633,3680,3682,3685,3685,3685,3680,3680,3682,3685,3685,3685,3685,3685,3685,3685,3685,3679,3680,3680,3682,3685,3779,3758,3758,3781,3685,3685,3685,3685,3679,3680,3554,0,0,3554,3682,3685,3685,3685,3685,3679,3680,3658,3633,3680,3680,3680,3680,3680,3658,3659,3659,3659,3633,3680,3680,3658,3659,3633,3680,3682,3685,3779,3780,3780,3780,3813,3679,3682,3604,3604,3604,370,3804,3845,3517,3518,3805,3806,3604,
1746,1747,1757,3492,3493,3494,3835,3780,3807,3730,3731,3731,3731,3732,3756,3581,370,3604,3604,3754,3756,3629,3632,3604,3604,3604,370,3754,3542,3543,3604,3604,3604,3604,3580,3604,3579,370,3754,3756,3542,3804,3805,3805,3806,3754,3730,3731,3732,3755,3756,3815,0,0,3815,3604,3604,3604,3604,3754,3756,3604,370,3604,3604,3604,3604,3604,3604,3629,3632,3604,370,3579,3604,3604,3580,3754,3542,3543,370,3604,3779,3780,3780,3820,3604,3604,3830,3754,3755,3756,3579,3868,3844,3542,3543,3604,3604,3780,
3834,3736,3834,3835,3780,3780,3780,3780,3733,3780,3780,3780,3780,3729,3710,3754,3755,3755,3756,3804,3806,3679,3682,3604,3604,3604,3581,3804,3805,3806,3704,3492,3493,3494,370,3604,3604,3604,3804,3806,3604,3604,3604,3604,3604,3779,3758,3758,3780,3780,3781,3815,0,0,3815,3604,3604,3604,3604,3804,3806,3754,3756,3604,3604,3604,3492,3493,3494,3679,3682,3604,3754,3868,3842,3843,3842,3843,3867,3806,3604,3604,3779,3780,3868,3844,3604,3604,370,3779,3780,3781,3604,3845,370,3581,3754,3755,3755,3755,
3780,3780,3729,3734,3780,3780,3780,3780,3780,3734,3758,3780,3734,3780,3735,3779,3492,3493,3494,3829,3604,3579,3604,3754,3755,3756,3604,370,3604,3604,3604,3754,3868,3842,3843,3842,3843,3867,370,3604,3581,3604,3579,3604,3604,3804,3832,3780,3780,3780,3781,3815,0,0,3815,3604,3604,3492,3493,3494,370,3804,3806,3754,3755,3756,3830,3604,370,3868,3843,3842,3843,3844,3604,3604,3604,3604,3841,3843,3842,3843,3842,3843,3844,3604,3604,3604,3604,3804,3805,3868,3843,3844,3754,3755,3757,3733,3729,3780,
3758,3758,3780,3733,3780,3780,3780,3780,3729,3780,3783,3784,3785,3734,3760,3804,3805,3868,3843,3843,3867,3580,370,3779,3780,3781,3754,3756,3604,3868,3842,3843,3844,3829,3604,3604,3604,3841,3842,3843,3867,3604,370,3754,3755,3756,3690,3780,3780,3780,3710,3815,0,0,3815,3754,3755,3756,370,3604,3604,3604,3542,3543,3780,3781,3868,3842,3843,3844,3604,3604,3581,3604,3604,3604,3604,3604,3604,3830,3704,3604,370,3754,3730,3731,3732,3442,3443,3444,3755,3820,3581,3754,3757,3780,3780,3780,3783,3784,
3758,3758,3733,3734,3783,3784,3784,3785,3780,3733,3808,3809,3810,3780,3868,3842,3843,3844,3830,3604,3841,3843,3867,3804,3805,3806,3804,3868,3843,3844,3604,3580,3604,370,3604,3604,3604,3604,3830,3604,3841,3843,3867,3779,3780,3781,3715,3733,3780,3758,3735,3815,0,0,3815,3779,3555,3781,3579,3604,3604,3604,3704,3868,3842,3843,3844,370,3604,3604,3604,370,3604,3604,3604,3604,3604,3604,370,3580,3754,3755,3756,3690,3783,3784,3784,3467,3468,3469,3734,3845,370,3779,3780,3780,3780,3734,3808,3809,
3758,3758,3734,3780,3808,3809,3809,3810,3734,3868,3842,3843,3842,3843,3844,3604,3581,3604,3754,3756,3604,370,3841,3842,3843,3842,3843,3844,370,3604,3604,3604,3604,3604,3579,3754,3755,3756,370,3579,3604,3604,3841,3867,3805,3806,3740,3780,3780,3780,3760,3815,0,0,3815,3804,3805,3806,3829,3604,3604,3868,3843,3844,370,3604,3604,3604,3604,3604,3580,3704,3604,3542,3543,3756,370,3579,3604,3604,3779,3780,3781,3715,3808,3809,3809,3492,3493,3494,3868,3844,3604,3779,3783,3784,3785,3517,3518,3834
</data>
 </layer>
 <layer id="4" name="Buildings2" width="100" height="75">
  <properties>
   <property name="Draw" value="Buildings"/>
  </properties>
  <data encoding="csv">
0,0,0,0,0,0,0,0,0,0,0,0,0,0,0,0,0,0,0,0,0,0,0,0,0,0,0,0,0,3517,3518,0,0,0,0,0,0,0,0,0,0,0,0,0,0,0,0,0,0,0,0,0,0,0,0,0,0,0,0,0,0,0,0,0,0,0,0,0,0,0,0,0,0,0,0,0,0,0,0,0,0,0,0,0,0,0,0,0,0,0,0,0,0,0,0,0,0,0,0,0,
0,0,0,0,0,0,0,0,0,0,0,0,0,0,0,0,0,3442,3443,3444,0,0,0,0,0,0,0,0,0,0,0,0,0,1349,0,0,0,0,0,0,0,0,0,0,0,0,0,0,0,0,0,0,0,0,0,0,0,0,0,0,0,0,0,0,0,0,0,0,0,0,0,0,0,0,0,0,0,0,0,0,0,0,0,0,0,0,0,0,0,0,0,0,0,0,0,0,0,0,0,0,
0,0,0,0,0,0,0,0,0,0,0,0,0,0,0,0,0,3467,3468,3469,0,0,0,0,0,0,0,0,0,0,0,0,0,0,0,0,0,0,0,0,0,0,0,0,0,0,0,0,0,0,0,0,0,0,0,0,0,0,0,0,0,0,0,0,0,0,0,0,0,0,0,0,0,0,0,0,0,0,0,0,0,0,0,0,0,0,0,0,0,0,0,0,0,1349,0,0,0,0,0,0,
0,0,0,0,0,0,0,0,0,0,0,0,0,0,0,0,0,0,0,0,0,0,0,0,0,0,0,0,0,0,0,0,0,0,0,0,0,0,0,0,0,0,0,0,0,1762,1763,0,0,0,0,0,0,0,0,0,0,0,0,0,0,0,0,0,0,0,0,0,0,0,0,0,0,0,0,0,0,0,0,0,0,0,0,0,0,0,0,0,0,0,0,0,0,0,0,0,0,0,0,0,
0,0,0,0,0,0,0,0,0,0,0,0,0,0,0,0,0,0,0,0,0,0,0,0,0,0,0,0,0,0,0,0,0,0,0,0,0,0,0,0,0,0,0,0,1779,1778,1779,1755,0,0,0,0,0,0,0,0,0,0,0,0,0,0,0,0,0,0,0,0,0,0,0,0,0,0,0,0,0,1349,0,0,0,0,0,0,0,0,0,0,0,0,0,0,0,0,0,0,0,0,0,0,
0,0,0,0,0,0,0,0,0,0,0,0,0,0,0,0,0,0,0,0,0,0,0,0,0,0,0,0,0,0,0,0,0,0,0,0,0,0,1349,0,0,0,0,0,0,0,0,0,0,0,0,0,0,0,0,0,0,0,0,0,0,1349,0,0,0,0,0,0,0,0,0,0,0,0,0,0,0,0,0,0,0,0,0,0,0,0,0,0,0,0,0,0,0,0,0,0,0,1349,0,0,
0,0,0,0,0,0,0,0,0,0,0,0,1349,0,0,0,0,0,0,0,0,0,0,0,0,1349,0,0,0,0,3492,0,0,0,0,0,0,0,0,0,0,0,0,0,0,0,0,0,0,0,0,0,0,0,0,0,0,0,0,0,0,0,0,0,0,0,0,0,0,0,0,0,0,0,0,0,0,0,0,0,1349,3442,3443,3444,0,0,0,0,0,0,0,0,0,0,0,0,0,0,0,0,
0,0,0,0,0,0,0,0,0,0,0,0,0,0,0,0,0,0,0,0,0,0,0,0,0,0,0,0,0,0,0,0,0,0,0,0,0,0,0,0,0,0,0,0,0,0,0,0,0,0,0,0,0,0,0,0,1349,0,0,0,0,0,0,0,0,0,0,0,0,0,0,0,0,0,0,0,0,0,0,0,0,3467,3468,3469,0,0,1349,0,0,0,0,0,0,0,0,0,0,0,0,0,
0,0,0,0,1349,0,1843,1842,1841,1843,1842,0,0,0,0,0,0,0,0,0,0,0,0,0,0,0,0,0,0,0,0,0,0,0,0,0,0,0,0,0,0,0,0,0,0,0,0,0,0,0,0,0,0,0,0,0,0,0,0,0,0,0,0,0,0,0,0,0,0,0,0,0,0,0,1349,0,0,0,0,0,0,0,0,0,0,0,0,0,0,0,0,0,0,0,0,0,0,0,0,0,
0,0,0,0,0,0,0,0,0,0,0,0,0,0,0,0,0,0,0,0,0,0,0,0,0,0,0,0,0,0,0,0,0,0,0,1349,0,0,0,0,0,0,0,0,0,0,1762,1763,0,1349,0,0,0,0,0,0,0,0,0,0,0,0,0,0,0,0,0,0,0,0,0,0,0,0,0,0,0,0,0,0,0,0,0,0,0,0,0,0,0,0,0,0,0,0,0,0,0,0,0,0,
0,0,0,0,0,0,0,0,0,0,0,0,0,0,0,0,0,0,0,0,0,0,0,0,0,0,0,0,0,0,0,0,0,0,0,0,0,0,0,0,0,0,0,0,0,1779,1778,1779,1755,0,0,0,0,0,0,0,0,0,0,0,0,0,0,0,0,0,0,0,0,0,0,0,0,0,0,0,0,0,0,0,0,0,0,0,0,0,0,0,0,0,0,0,0,0,0,0,0,0,0,0,
0,0,0,0,0,0,0,0,0,0,0,0,0,0,0,0,0,0,0,0,0,0,0,0,0,0,0,0,0,0,0,0,0,0,0,0,0,0,0,0,0,0,0,0,0,0,0,0,0,0,0,0,0,0,0,0,0,0,0,0,0,0,0,0,0,0,0,0,0,0,0,0,0,0,0,0,0,0,0,0,0,0,0,0,0,0,0,0,0,0,0,0,0,0,0,3815,0,0,0,0,
0,0,0,0,0,0,0,0,0,0,0,0,0,0,0,0,0,0,0,0,0,0,0,0,0,0,0,0,0,0,0,0,0,0,0,0,0,0,0,0,0,0,0,0,0,0,0,0,0,0,0,0,0,0,0,0,0,0,0,0,0,0,0,0,0,0,0,0,0,0,0,0,0,0,0,0,0,0,0,0,0,0,0,0,0,0,0,0,0,0,0,0,0,0,0,0,0,0,0,0,
0,0,0,0,0,0,0,0,0,0,0,0,0,0,0,0,0,0,0,0,0,0,0,0,0,0,0,0,0,0,0,0,0,0,0,0,0,0,0,0,0,0,0,0,0,0,0,0,0,0,0,0,0,0,0,0,0,0,0,0,0,0,0,0,0,0,0,0,0,0,0,0,0,0,0,0,0,0,0,0,0,0,0,0,0,0,0,0,0,0,0,0,0,0,0,0,0,0,0,1349,
0,0,0,0,0,0,0,0,0,0,0,0,0,0,0,0,0,0,0,0,0,0,0,0,0,0,0,0,0,0,0,0,0,0,3638,0,3638,0,0,0,0,0,0,0,0,0,0,0,0,0,0,0,0,0,0,0,0,0,0,0,0,0,0,0,0,0,0,0,0,0,0,0,0,0,0,0,0,0,0,0,0,0,0,0,0,0,0,0,0,0,0,0,0,0,0,0,0,0,0,0,
0,0,0,0,0,0,0,0,0,0,0,0,0,0,0,0,0,0,0,0,0,0,0,0,0,0,0,0,0,0,0,0,0,0,0,0,0,0,0,0,0,0,0,0,0,0,0,0,0,0,0,0,0,0,0,0,0,0,0,0,0,0,0,0,0,0,0,0,0,0,0,0,0,0,0,0,0,0,0,0,0,0,0,0,0,0,0,0,0,0,0,0,0,0,0,0,0,0,0,0,
0,0,0,0,0,0,0,0,0,0,0,0,0,0,0,0,0,0,0,0,0,0,0,0,0,0,0,0,0,0,0,0,0,0,0,0,0,0,0,0,0,0,3638,0,0,0,0,0,0,0,0,0,0,0,0,0,0,0,0,0,0,0,0,0,0,0,0,0,0,0,0,0,0,0,0,0,0,0,0,0,0,0,0,0,0,0,0,0,0,0,0,0,0,0,1349,0,0,0,0,0,
0,0,0,0,0,0,0,0,0,0,0,0,0,0,0,0,0,0,0,0,0,0,0,0,0,0,0,0,0,0,0,0,0,0,0,0,0,0,0,0,0,0,0,0,0,0,0,0,0,0,0,0,0,0,0,0,0,0,0,0,0,0,0,0,0,0,0,0,0,0,0,0,0,0,0,0,0,0,0,0,0,0,0,0,0,0,0,0,0,0,0,0,0,0,0,0,0,0,0,0,
0,0,0,0,0,0,0,0,0,0,0,0,0,0,0,0,3638,0,3638,0,3638,0,0,0,0,0,0,0,0,0,0,0,0,0,0,0,0,0,0,0,0,0,0,0,0,0,0,0,0,0,0,0,0,0,0,0,0,0,0,0,0,0,0,0,0,0,0,0,0,0,0,0,0,0,0,0,0,0,0,0,0,0,0,0,0,0,0,0,0,0,0,0,0,0,0,0,0,0,0,0,
0,0,0,0,0,0,0,0,0,0,0,0,0,3638,0,0,0,0,0,0,0,0,0,0,0,0,0,0,0,0,0,0,0,0,0,0,0,0,0,0,0,0,0,0,0,0,0,0,0,0,0,0,0,0,0,0,0,0,0,0,0,0,0,0,0,0,0,0,0,0,0,0,0,0,0,0,0,0,0,0,0,0,0,0,0,0,0,0,0,0,0,0,0,0,0,0,0,0,0,0,
0,0,0,0,0,0,0,0,0,0,0,0,0,0,0,0,0,0,0,0,0,0,0,0,0,0,0,0,0,0,0,0,0,0,0,0,0,0,0,0,0,0,0,0,0,0,0,0,0,0,0,0,0,0,0,0,0,0,0,0,0,0,0,0,0,0,0,0,0,0,0,0,0,0,0,0,0,0,0,0,0,0,0,0,0,0,0,0,0,0,0,0,0,0,0,0,0,0,0,0,
0,0,0,0,0,0,0,0,0,0,0,0,0,0,0,0,0,0,0,0,0,0,0,0,0,0,0,0,0,0,0,0,0,0,0,0,0,0,0,0,0,0,0,0,0,0,0,0,0,0,0,0,0,0,0,0,0,0,0,0,0,0,0,0,0,0,0,0,0,0,0,0,0,0,0,0,0,0,0,0,0,0,0,0,0,0,0,0,0,0,0,0,0,0,0,0,0,0,0,0,
0,0,0,0,0,0,0,0,0,0,0,0,0,0,0,0,0,0,0,0,0,0,0,0,0,0,0,0,0,0,0,0,0,0,0,0,0,0,0,0,0,0,0,0,0,0,0,0,0,0,0,0,0,0,0,0,0,0,0,0,0,0,0,0,0,0,0,0,0,0,0,0,0,0,0,0,0,0,0,0,0,0,0,0,0,0,0,0,0,0,0,0,0,0,0,0,0,0,0,0,
0,0,0,0,0,0,0,0,0,0,0,0,0,0,0,0,0,0,0,0,0,0,0,0,0,0,0,0,0,0,0,0,0,0,0,0,0,0,0,0,0,0,0,0,0,0,0,0,0,0,0,0,0,0,0,0,0,0,0,0,0,0,0,0,0,0,0,0,0,0,0,0,0,0,0,0,0,0,0,0,0,0,0,0,0,0,0,0,0,0,0,0,0,0,0,0,0,0,0,0,
0,0,0,0,0,0,0,0,0,0,0,0,0,0,0,0,0,0,0,0,0,0,0,0,0,0,0,0,0,0,0,0,0,0,0,0,0,0,0,0,0,0,0,0,0,0,0,0,0,0,0,0,0,0,0,0,0,0,0,0,0,0,0,0,0,0,0,0,0,0,0,0,0,0,0,0,0,0,0,0,0,0,0,0,0,0,0,0,0,0,0,0,0,0,0,0,0,0,0,0,
0,0,0,0,0,0,0,0,0,0,0,0,0,0,0,0,0,0,0,0,0,0,0,0,0,0,0,0,0,0,0,0,0,0,0,0,0,0,0,0,0,0,0,0,0,0,0,0,0,0,0,0,0,0,0,0,0,0,0,0,0,0,0,0,0,0,0,0,0,0,0,0,0,0,0,0,0,0,0,0,0,0,0,0,0,0,0,0,0,0,0,0,0,0,0,0,0,0,0,0,
0,0,0,0,0,0,0,0,0,0,0,0,0,0,0,0,0,0,0,0,0,0,0,0,0,0,0,0,0,0,0,0,0,0,0,0,0,0,0,0,0,0,0,0,0,0,0,0,0,0,0,0,0,0,0,0,0,0,0,0,0,0,0,0,0,0,0,0,0,0,0,0,0,0,0,0,0,0,0,0,0,0,0,0,0,0,0,0,0,0,0,0,0,0,0,0,0,0,0,0,
0,0,0,0,0,0,0,0,0,0,0,0,0,0,0,0,0,0,0,0,0,0,0,0,0,0,0,0,0,0,0,0,0,0,0,0,0,0,0,0,0,0,0,0,0,0,0,0,0,0,0,0,0,0,0,0,0,0,0,0,0,0,0,0,0,0,0,0,0,0,0,0,0,0,0,0,0,0,0,0,0,0,0,0,0,0,0,0,0,0,0,0,0,0,0,0,0,0,0,0,
0,0,0,0,0,0,0,0,0,0,0,0,0,0,0,0,0,0,0,0,0,0,0,0,0,0,0,0,0,0,0,0,0,0,0,0,0,0,0,0,0,0,0,0,0,0,0,0,0,0,0,0,0,0,0,0,0,0,0,0,0,0,0,0,0,0,0,0,0,0,0,0,0,0,0,0,0,0,0,0,0,0,0,0,0,0,0,0,0,0,0,0,0,0,0,0,0,0,0,0,
0,0,0,0,0,0,0,0,0,0,0,0,0,0,0,0,0,0,0,0,0,0,0,0,0,0,0,0,0,0,0,0,0,0,0,0,0,0,0,0,0,0,0,0,0,0,0,0,0,0,0,0,0,0,0,0,0,0,0,0,0,0,0,0,0,0,0,0,0,0,0,0,0,0,0,0,0,0,0,0,0,0,0,0,0,0,0,0,0,0,0,0,0,0,0,0,0,0,0,0,
0,0,0,0,0,0,0,0,0,0,0,0,0,0,0,0,0,0,0,0,0,0,0,0,0,0,0,0,0,0,0,0,0,0,0,0,0,0,0,0,0,0,0,0,0,0,0,0,0,0,0,0,0,0,0,0,0,0,0,0,0,0,0,0,0,0,0,0,0,0,0,0,0,0,0,0,0,0,0,0,0,0,0,0,0,0,0,0,0,0,0,0,0,0,0,0,0,0,0,0,
0,0,0,0,0,0,0,0,0,0,0,0,0,0,0,0,0,0,0,0,0,0,0,0,0,0,0,0,0,0,0,0,0,0,0,0,0,0,0,0,0,0,0,0,0,0,0,0,0,0,0,0,0,0,0,0,0,0,0,0,0,0,0,0,0,0,0,0,0,0,0,0,0,0,0,0,0,0,0,0,0,0,0,0,0,0,0,0,0,0,0,0,0,0,0,0,0,0,0,0,
0,0,0,0,0,0,0,0,0,0,0,0,0,0,0,0,0,0,0,0,0,0,0,0,0,0,0,0,0,0,0,0,0,0,0,0,0,0,0,0,0,0,0,0,0,0,0,0,0,0,0,0,0,0,0,0,0,0,0,0,0,0,0,0,0,0,0,0,0,0,0,0,0,0,0,0,0,0,0,0,0,0,0,0,0,0,0,0,0,0,0,0,0,0,0,0,0,0,0,0,
0,0,0,0,0,0,0,0,0,0,0,0,0,0,0,0,0,0,0,0,0,0,0,0,0,0,0,0,0,0,0,0,0,0,0,0,0,0,0,0,0,0,0,0,0,0,0,0,0,0,0,0,0,0,0,0,0,0,0,0,0,0,0,0,0,0,0,0,0,0,0,0,0,0,0,0,0,0,0,0,0,0,0,0,0,0,0,0,0,0,0,0,0,0,0,0,0,0,0,0,
0,0,0,0,0,0,0,0,0,0,0,0,0,0,0,0,0,0,0,0,0,0,0,0,0,0,0,0,0,0,0,0,0,0,0,0,0,0,0,0,0,0,0,0,0,0,0,0,0,0,0,0,0,0,0,0,0,0,0,0,0,0,0,0,0,0,0,0,0,0,0,0,0,0,0,0,0,0,0,0,0,0,0,0,0,0,0,0,0,0,0,0,0,0,0,0,0,0,0,0,
0,0,0,0,0,0,0,0,0,0,0,0,0,0,0,0,0,0,0,0,0,0,0,0,0,0,0,0,0,0,0,0,0,0,0,0,0,0,0,0,0,0,0,0,0,0,0,0,0,0,0,0,0,0,0,0,0,0,0,0,0,0,0,0,0,0,0,0,0,0,0,0,0,0,0,0,0,0,0,0,0,0,0,0,0,0,0,0,0,0,0,0,0,0,0,0,0,0,0,0,
0,0,0,0,0,0,0,0,0,0,0,0,0,0,0,0,0,0,0,0,0,0,0,0,0,0,0,0,0,0,0,0,0,0,0,0,0,0,0,0,0,0,0,0,0,0,0,0,0,0,0,0,0,0,0,0,0,0,0,0,0,0,0,0,0,0,0,0,0,0,0,0,0,0,0,0,0,0,0,0,0,0,0,0,0,0,0,0,0,0,0,0,0,0,0,0,0,0,0,0,
0,0,0,0,0,0,0,0,0,0,0,0,0,0,0,0,0,0,0,0,0,0,0,0,0,0,0,0,0,0,0,0,0,0,0,0,0,0,0,0,0,0,0,0,0,0,0,0,0,0,0,0,0,0,0,0,0,0,0,0,0,0,0,0,0,0,0,0,0,0,0,0,0,0,0,0,0,0,0,0,0,0,0,0,0,0,0,0,0,0,0,0,0,0,0,0,0,0,0,0,
0,0,0,0,0,0,0,0,0,0,0,0,0,0,0,0,0,0,0,0,0,0,0,0,0,0,0,0,0,0,0,0,0,0,0,0,0,0,0,0,0,0,0,0,0,0,0,0,0,0,0,0,0,0,0,0,0,0,0,0,0,0,0,0,0,0,0,0,0,0,0,0,0,0,0,0,0,0,0,0,0,0,0,0,0,0,0,0,0,0,0,0,0,0,0,0,0,0,0,0,
0,0,0,0,0,0,0,0,0,0,0,0,0,0,0,0,0,0,0,0,0,0,0,0,0,0,0,0,0,0,0,0,0,0,0,0,0,0,0,0,0,0,0,0,0,0,0,0,0,0,0,0,0,0,0,0,0,0,0,0,0,0,0,0,0,0,0,0,0,0,0,0,0,0,0,0,0,0,0,0,0,0,0,0,0,0,0,0,0,0,0,0,0,0,0,0,0,0,0,0,
0,0,0,0,0,0,0,0,0,0,0,0,0,0,0,0,0,0,0,0,0,0,0,0,0,0,0,0,0,0,0,0,0,0,0,0,0,0,0,0,0,0,0,0,0,0,0,0,0,0,0,0,0,0,0,0,0,0,0,0,0,0,0,0,0,0,0,0,0,0,0,0,0,0,0,0,0,0,0,0,0,0,0,0,0,0,0,0,0,0,0,0,0,0,0,0,0,0,0,0,
0,0,0,0,0,0,0,0,0,0,0,0,0,0,0,0,0,0,0,0,0,0,0,0,0,0,0,0,0,0,0,0,0,0,0,0,0,0,0,0,0,0,0,0,0,0,0,0,0,0,0,0,0,0,0,0,0,0,0,0,0,0,0,0,0,0,0,0,0,0,0,0,0,0,0,0,0,0,0,0,0,0,0,0,0,0,0,0,0,0,0,0,0,0,0,0,0,0,0,0,
0,0,0,0,0,0,0,0,0,0,0,0,0,0,0,0,0,0,0,0,0,0,0,0,0,0,0,0,0,0,0,0,0,0,0,3638,0,3638,0,0,0,0,0,0,0,0,0,0,0,0,0,0,0,0,0,0,0,0,0,0,0,0,0,0,0,0,0,0,0,0,0,0,0,0,0,0,0,0,0,0,0,0,0,0,0,0,0,0,0,0,0,0,0,3843,0,0,0,0,0,0,
0,0,0,0,0,0,0,0,0,0,0,0,0,0,0,0,0,0,0,0,0,0,0,0,0,0,0,0,0,0,0,0,0,0,0,0,0,0,0,3638,0,0,0,0,0,0,0,0,0,0,0,0,0,0,0,0,0,0,0,0,0,0,0,0,0,0,0,0,0,0,0,0,0,0,0,0,0,0,0,0,0,0,0,0,0,0,0,0,0,0,0,0,0,0,0,0,0,0,0,0,
0,0,0,0,0,0,0,0,0,0,0,0,0,0,0,0,0,0,0,0,0,0,0,0,0,0,0,0,0,0,0,0,0,0,0,0,0,0,0,0,0,0,0,0,0,0,0,0,0,0,0,0,0,0,0,0,0,0,0,0,0,0,0,0,0,0,0,0,0,0,0,0,0,0,0,0,0,0,0,0,0,0,0,0,0,0,0,0,0,0,0,0,0,0,0,0,0,0,0,0,
0,0,0,0,0,0,0,0,0,0,0,0,0,0,0,0,0,0,0,0,0,0,0,0,0,0,0,0,0,0,0,0,0,0,0,0,0,0,0,0,0,0,0,0,0,0,0,0,0,0,0,0,0,0,0,0,0,0,0,0,0,0,0,0,0,0,0,0,0,0,0,0,0,0,0,0,0,0,0,0,0,0,0,0,0,0,0,0,0,0,0,0,0,0,0,0,0,0,0,0,
0,0,0,0,0,0,0,0,0,0,0,0,0,0,0,0,0,0,0,0,0,0,0,0,0,0,0,0,0,0,0,0,0,0,0,0,0,0,0,0,0,0,0,0,0,0,0,0,0,0,0,0,0,0,0,0,0,0,0,0,0,0,0,0,0,0,0,0,0,0,0,0,0,0,0,0,0,0,0,0,0,0,0,0,0,0,0,0,0,0,0,0,0,0,0,0,0,0,0,0,
0,0,0,0,0,0,0,0,0,0,0,0,0,0,0,0,0,0,0,0,0,0,0,0,0,0,0,0,0,0,0,0,0,0,0,0,0,0,0,0,0,0,0,0,0,0,0,0,0,0,0,0,0,0,0,0,0,0,0,0,0,0,0,0,0,0,0,0,0,0,0,0,0,0,0,0,0,0,0,0,0,0,0,0,0,0,0,0,0,0,0,0,0,0,0,0,0,0,0,0,
0,0,0,0,0,0,0,0,0,0,0,0,0,0,0,0,0,0,0,0,0,0,0,0,0,0,0,0,0,0,0,0,0,0,0,0,0,0,0,0,0,0,0,0,0,0,0,0,0,0,0,0,0,0,0,0,0,0,0,0,0,0,0,0,0,0,0,0,0,0,0,0,0,0,0,0,0,0,0,0,0,0,0,0,0,0,0,0,0,0,0,0,0,0,0,0,0,0,0,0,
0,0,0,0,0,0,0,0,0,0,0,0,0,0,0,0,0,0,0,0,0,0,0,0,0,0,0,0,0,0,0,0,0,0,0,0,0,0,0,0,0,0,0,0,0,0,0,0,0,0,0,0,0,0,0,0,0,0,0,0,0,0,0,0,0,0,0,0,0,0,0,0,0,0,0,0,0,0,0,0,0,0,0,0,0,0,0,0,0,0,0,0,0,0,0,0,0,0,0,0,
0,0,0,0,0,0,0,0,0,0,0,0,0,0,0,0,0,0,0,0,0,0,0,0,0,0,0,0,0,0,0,0,0,0,0,0,0,0,0,0,0,0,0,0,0,0,0,0,0,0,0,0,0,0,0,0,0,0,0,0,0,0,0,0,0,0,0,0,0,0,0,0,0,0,0,0,0,0,0,0,0,0,0,0,0,0,0,0,0,0,0,0,0,0,0,0,0,0,0,0,
0,0,0,0,0,0,0,0,0,0,0,0,0,0,0,0,0,0,0,0,0,0,0,0,0,0,0,0,0,0,0,0,0,0,0,0,0,0,0,0,0,0,0,0,0,0,0,0,0,0,0,0,0,0,0,0,0,0,0,0,0,0,0,0,0,0,0,0,0,0,0,0,0,0,0,0,0,0,0,0,0,0,0,0,0,0,0,0,0,0,0,0,0,0,0,0,0,0,0,0,
0,0,0,0,0,0,0,0,0,0,0,0,0,0,0,0,0,0,0,0,0,0,0,0,0,0,0,0,0,0,0,0,0,0,0,0,0,0,0,0,0,0,0,0,0,0,0,0,0,0,0,0,0,0,0,0,0,0,0,0,0,0,0,0,0,0,0,0,0,0,0,0,0,0,0,0,0,0,0,0,0,0,0,0,0,0,0,0,0,0,0,0,0,0,0,0,0,0,0,0,
0,0,0,0,0,0,0,0,0,0,0,0,0,0,0,0,0,0,0,0,0,0,0,0,0,0,0,0,0,0,0,0,0,0,0,0,0,0,0,0,0,0,0,0,0,0,0,0,0,0,0,0,0,0,0,0,0,0,0,0,0,0,0,0,0,0,0,0,0,0,0,0,0,0,0,0,0,0,0,0,0,0,0,0,0,0,0,0,0,0,0,0,0,0,0,0,0,0,0,0,
0,0,0,0,0,0,0,0,0,0,0,0,0,0,0,0,0,0,0,0,0,0,0,0,0,0,0,0,0,0,0,0,0,0,0,0,0,0,0,0,0,0,0,0,0,0,0,0,0,0,0,0,0,0,0,0,0,0,0,0,0,0,0,0,0,0,0,0,0,0,0,0,0,0,0,0,0,0,0,0,0,0,0,0,0,0,0,0,0,0,0,1348,0,0,0,0,0,0,0,0,
0,0,0,0,0,0,0,0,0,0,0,0,0,0,0,0,0,0,0,0,0,0,0,0,0,0,0,0,0,0,0,0,0,0,0,0,0,0,0,0,0,0,0,0,0,0,0,0,0,0,0,0,0,0,0,0,0,0,0,0,0,0,0,0,0,0,0,0,0,0,0,0,0,0,0,0,0,0,0,0,0,0,0,0,0,0,0,0,0,0,0,0,0,0,0,0,0,0,0,0,
0,0,0,0,0,0,0,0,0,0,0,0,0,0,0,0,0,0,0,0,0,0,0,0,0,0,0,0,0,0,0,0,0,0,0,0,0,0,0,0,0,0,0,0,0,0,0,0,0,0,0,0,0,0,0,0,0,0,0,0,0,0,0,0,0,0,0,0,0,0,3638,0,3638,0,0,0,0,0,0,0,0,0,0,0,0,0,0,0,0,0,0,0,0,0,0,0,0,0,0,0,
0,0,0,0,0,0,0,0,0,0,0,0,0,0,0,0,0,0,0,0,0,0,0,0,0,0,0,0,0,0,0,0,0,0,0,0,0,0,0,0,0,0,0,0,0,0,0,0,0,0,0,0,0,0,0,0,0,0,0,0,0,0,0,0,0,0,0,0,0,0,0,0,0,0,0,0,0,0,0,0,0,0,0,0,0,0,0,0,0,0,0,0,0,0,0,0,0,0,0,0,
0,0,0,0,0,0,0,0,0,0,0,0,0,0,0,0,0,0,0,0,0,0,0,0,0,0,0,0,0,0,0,0,0,0,0,0,0,0,0,0,0,0,0,0,0,0,0,0,0,0,0,0,0,0,0,0,0,0,0,0,0,0,0,0,0,0,0,0,0,0,0,0,0,0,0,0,0,0,0,0,0,0,0,0,0,0,0,0,0,0,0,0,0,0,0,0,0,0,0,0,
0,0,0,0,0,0,0,0,0,0,0,0,0,0,0,0,0,0,0,0,0,0,0,0,0,0,0,0,0,0,0,0,0,0,0,0,0,0,0,0,0,0,0,0,0,0,0,0,0,0,0,0,0,0,0,0,0,0,0,0,0,0,0,0,0,0,0,0,0,0,0,0,0,0,0,0,0,0,0,0,0,0,0,0,0,0,0,0,0,0,0,0,0,0,0,0,0,0,0,0,
0,0,0,0,0,0,0,0,0,0,0,0,0,0,0,0,0,3638,0,0,0,0,0,0,0,0,0,0,0,0,0,0,0,0,0,0,0,0,0,0,0,0,0,0,0,0,0,0,0,0,0,0,0,0,0,0,0,0,0,0,0,0,0,0,0,0,0,0,0,0,0,0,0,0,0,0,0,0,0,0,0,0,0,0,0,0,0,0,0,0,0,0,0,0,0,0,0,0,0,0,
0,0,0,0,0,0,0,0,0,0,0,0,0,0,0,0,0,0,0,0,3638,0,0,0,0,0,0,0,0,0,0,0,0,0,0,0,0,0,0,0,0,0,0,0,0,0,0,0,0,0,0,0,0,0,0,0,0,0,0,0,0,0,0,0,0,0,0,0,0,0,0,0,0,0,0,0,0,0,0,0,0,0,0,0,0,0,0,0,0,0,0,0,0,0,0,0,0,0,0,0,
0,0,0,0,0,0,0,0,0,0,0,0,0,0,0,0,0,0,0,0,0,0,0,0,0,0,0,0,0,0,0,0,0,0,0,0,0,0,0,0,0,0,0,0,0,0,0,0,0,0,0,0,0,0,0,0,0,0,0,0,0,0,0,0,0,0,0,0,0,0,0,0,0,0,0,0,0,0,0,0,0,0,0,0,0,0,0,0,0,0,0,0,0,0,0,0,0,0,0,0,
0,0,0,0,0,0,0,0,0,0,0,0,0,0,0,0,0,0,0,0,0,0,0,0,0,0,0,0,0,0,0,0,0,0,0,0,0,0,0,0,0,0,0,0,0,0,0,0,0,0,0,0,0,0,0,0,0,0,0,0,0,0,0,0,0,0,0,0,0,0,0,0,0,0,0,0,0,0,0,0,0,0,0,0,0,0,0,0,0,0,0,0,0,0,0,0,0,0,0,0,
0,0,0,0,0,0,0,1349,0,0,0,0,0,0,0,0,0,0,0,0,0,0,0,0,0,0,0,0,0,0,0,0,0,0,0,0,0,0,0,0,0,0,0,0,0,0,0,0,0,0,0,0,0,0,0,0,0,0,0,0,0,0,0,0,0,0,0,0,0,0,0,0,0,0,0,0,0,0,0,0,0,0,0,0,0,0,0,0,0,0,0,0,0,0,0,0,0,0,0,0,
0,0,0,0,0,0,0,0,0,0,0,0,0,0,0,0,0,0,0,0,0,0,0,0,0,0,0,0,0,0,0,0,0,0,0,0,0,0,0,0,0,0,0,0,0,0,0,0,0,0,0,0,0,0,0,0,0,0,0,0,0,0,0,0,0,0,0,0,0,0,0,0,0,0,0,0,0,0,0,0,0,0,0,0,0,0,0,0,0,0,0,0,0,0,0,0,0,0,0,0,
0,0,0,0,0,0,0,0,0,0,0,0,0,0,0,0,0,0,0,0,0,0,0,0,0,0,0,0,0,0,0,0,0,0,0,0,0,0,0,0,0,0,0,0,0,0,0,0,0,0,0,0,0,0,0,0,0,0,0,0,0,0,0,0,0,0,0,0,0,0,0,0,0,0,0,0,0,0,0,0,0,0,0,0,0,0,0,0,0,0,0,0,0,0,0,0,0,0,0,0,
0,0,0,0,0,0,0,0,0,0,0,0,0,0,0,0,0,0,0,0,0,0,0,0,0,0,0,0,0,0,0,0,0,0,0,0,0,0,0,0,0,0,0,0,0,0,0,0,0,0,0,0,0,0,0,0,0,0,0,0,0,0,0,0,0,0,0,0,0,0,0,0,0,0,0,0,0,0,0,0,0,0,0,0,0,0,0,0,0,0,0,0,0,0,0,0,0,0,0,0,
0,0,0,0,0,0,0,0,0,0,0,0,0,0,0,0,0,0,0,0,0,0,0,0,0,0,0,0,0,0,0,0,0,0,0,0,0,0,0,0,0,0,0,0,0,0,0,0,0,0,0,0,0,0,0,0,0,0,0,0,0,0,0,0,0,0,0,0,0,0,0,0,0,0,0,0,0,0,0,0,0,0,0,0,0,0,0,0,0,0,0,0,0,0,0,0,0,0,0,0,
0,0,0,0,0,0,0,0,0,0,0,0,0,0,0,0,0,0,0,0,0,0,0,0,0,0,0,0,0,0,0,0,0,0,0,0,0,0,0,0,0,0,0,0,0,0,0,0,0,0,0,0,0,0,0,0,0,0,0,0,0,0,0,0,0,0,0,0,0,0,0,0,0,0,0,0,0,0,0,0,0,0,0,0,0,0,0,0,0,0,0,0,0,0,0,0,0,0,0,0,
0,0,0,0,0,0,0,0,0,0,0,0,0,0,0,0,0,0,0,0,0,0,0,0,0,0,0,0,0,0,0,0,0,0,0,0,0,0,0,0,0,0,0,0,0,0,0,0,0,0,0,0,0,0,0,0,0,0,0,0,0,0,0,0,0,0,0,0,0,0,0,0,0,0,0,0,0,0,0,0,0,0,0,0,0,0,0,0,0,0,0,0,0,0,0,0,0,0,0,0,
0,0,0,0,0,0,0,0,0,0,0,0,0,0,0,0,0,0,0,0,0,0,0,0,0,0,0,0,0,0,0,0,0,0,0,0,0,0,0,0,0,0,0,0,0,0,0,0,0,0,0,0,0,0,0,0,0,0,0,0,0,0,0,0,0,0,0,0,0,0,0,0,0,0,0,0,0,0,0,0,0,0,0,0,0,0,0,0,0,0,0,0,0,0,0,0,0,0,0,0,
0,0,0,0,0,0,0,0,0,0,0,0,0,0,0,0,0,0,0,0,0,0,0,0,0,0,0,0,0,0,0,0,0,0,0,0,0,0,0,0,0,0,0,0,0,0,0,0,0,0,0,0,0,0,0,0,0,0,0,0,0,0,0,0,0,0,0,0,0,0,0,0,0,0,0,0,0,0,0,0,0,0,0,0,0,0,0,0,0,0,0,0,0,0,0,0,0,0,0,0,
0,0,0,0,0,0,0,0,0,0,0,0,0,0,0,0,0,0,0,0,0,0,0,0,0,0,0,0,0,0,0,0,0,0,0,0,0,0,0,0,0,0,0,0,0,0,0,0,0,0,0,0,0,0,0,0,0,0,0,0,0,0,0,0,0,0,0,0,0,0,0,0,0,0,0,0,0,0,0,0,0,0,0,0,0,0,0,0,0,0,0,0,0,0,0,0,0,0,0,0,
0,0,0,0,0,0,0,0,0,0,0,0,0,0,0,0,0,0,0,0,0,0,0,0,0,0,0,0,0,0,0,0,0,0,0,0,0,0,0,0,0,0,0,0,0,0,0,0,0,0,0,0,0,0,0,0,0,0,0,0,0,0,0,0,0,0,0,0,0,0,0,0,0,0,0,0,0,0,0,0,0,0,0,0,0,0,0,0,0,0,0,3442,3443,3444,0,0,0,0,0,0
</data>
 </layer>
 <layer id="6" name="Front" width="100" height="75">
  <data encoding="csv">
0,0,0,0,0,0,0,0,0,3467,3468,3469,0,0,0,0,0,0,0,3464,3465,3466,1349,3661,0,3540,0,3514,3515,3516,0,0,0,0,0,0,0,3482,3483,3484,0,3540,0,0,0,0,0,0,0,0,0,0,0,3495,3496,3497,3498,3499,3500,3507,3508,3509,0,0,0,0,0,0,3840,3565,0,0,0,0,0,3520,3521,3522,3523,3524,3525,3429,3430,3431,0,0,3464,3465,3466,0,3540,3787,3838,3789,0,0,0,0,0,0,
0,0,0,3442,3443,3444,0,0,0,0,0,0,0,0,0,0,0,0,0,3489,3490,3491,0,0,0,3565,0,3686,3540,0,0,0,0,0,0,0,0,3507,3508,3509,0,3565,3541,0,0,0,0,0,0,0,3439,3440,3441,3520,3521,3522,3523,3524,3525,3532,3533,3534,0,0,0,0,0,0,3865,0,3787,3788,3789,0,0,0,0,3547,3548,0,0,3454,3455,3456,0,0,3489,3490,3491,0,3565,0,3432,3433,3434,0,0,0,0,0,
0,0,0,3467,3468,3469,0,0,0,0,0,3736,0,0,0,0,0,0,0,3514,3515,3516,0,0,0,0,0,0,3565,0,3787,3789,0,0,3439,3440,3441,0,3533,0,3517,3518,3686,0,2545,2546,2547,2548,0,0,3464,3465,3466,3545,3686,3547,3548,0,0,3557,3558,3559,0,0,0,0,3439,3440,3441,0,0,0,0,0,0,0,0,0,0,0,0,3479,3480,3481,0,0,3514,3515,3516,3442,3443,3444,3457,3458,3459,0,3540,0,0,3442,
0,0,0,3492,3493,3494,3517,3518,0,0,0,0,0,0,0,0,0,0,0,0,3540,0,3736,0,0,0,0,0,0,0,0,0,0,0,3464,3465,3466,0,3558,0,0,0,0,0,2581,2582,2583,2584,0,0,3489,3490,3491,0,0,0,0,0,0,3736,0,0,0,0,0,3661,3464,3465,3466,0,0,0,3442,3443,3444,0,0,0,0,0,0,3504,3505,3506,0,3787,3789,3540,0,3467,3468,3469,3482,3483,3484,0,0,0,0,0,
0,0,3736,0,0,0,3542,3543,2674,2677,2678,0,0,3787,3788,3789,0,0,0,3686,3565,0,0,0,3517,3518,0,0,0,0,3442,3443,3444,0,3489,3490,3491,0,0,3429,3430,3431,0,0,2617,2618,2619,2620,0,0,3514,3515,3516,3787,3788,3789,3442,3443,3444,0,0,0,0,0,0,0,3489,3490,3491,3517,3518,4239,3467,3468,3469,0,0,0,0,3439,3440,3441,3530,0,0,0,0,0,0,0,0,0,3507,3508,3509,0,0,0,0,0,
0,0,0,0,0,0,0,2709,2710,2713,2714,0,0,0,0,0,0,0,0,0,0,0,0,0,0,0,0,0,0,0,3467,3468,3469,0,3514,3515,3516,0,0,3454,3455,3456,0,0,2653,2654,2655,2656,0,0,3686,3540,0,0,0,0,0,0,0,0,0,0,0,0,0,0,3514,3515,3516,3787,3789,0,3787,3789,0,0,3517,3518,0,3464,3465,3466,0,0,0,0,0,0,0,0,0,0,0,3533,0,3442,3443,3444,0,0,
0,0,0,0,0,0,0,2745,2746,2749,1348,0,0,0,0,0,0,0,0,0,0,0,0,0,0,0,0,0,0,0,0,0,0,0,0,3540,0,0,0,3479,3480,3481,0,3442,3443,3444,0,0,0,0,0,0,0,0,0,0,0,0,0,0,0,0,0,0,0,0,0,3540,0,0,0,0,0,0,0,0,0,3543,0,3489,3490,3491,0,0,0,0,0,0,0,0,0,0,0,3558,0,3467,3468,3469,0,0,
3686,0,0,0,0,0,1348,2781,2782,2785,2786,0,0,0,0,0,1348,0,0,0,0,0,0,0,0,0,0,0,0,0,0,0,0,0,3686,3565,3787,3838,3789,3504,3505,3506,0,3467,3468,3469,0,0,0,0,0,0,0,0,0,0,0,0,0,0,0,0,0,0,0,0,0,3565,0,0,0,0,0,0,0,0,0,0,0,3514,3515,3516,0,0,0,0,0,0,0,0,0,0,0,0,0,0,0,0,0,0,
0,0,0,0,0,0,0,2817,2818,2821,2822,0,0,0,0,0,0,0,0,0,0,0,0,0,0,0,0,0,0,0,0,0,0,0,0,0,3812,3863,3814,3736,3530,3531,0,3492,3493,3494,2530,2531,2532,0,0,0,0,0,0,0,0,0,0,0,0,0,0,0,0,0,0,0,0,0,0,0,0,0,0,0,0,0,0,0,3540,0,0,0,0,0,0,0,0,0,0,0,0,0,0,0,0,0,0,3530,
0,0,0,0,0,0,0,2853,2854,2857,2858,0,0,0,0,0,0,0,0,0,0,0,0,0,0,0,0,0,0,0,0,0,0,0,0,0,0,0,0,3554,3555,0,0,0,0,2565,2566,2567,2568,0,0,0,0,0,0,0,0,0,0,0,0,0,0,0,0,0,0,0,0,0,0,0,0,0,0,0,0,0,0,0,0,0,0,0,0,0,0,0,0,0,0,0,0,0,0,0,0,0,0,0,
0,0,0,0,0,0,0,2889,2890,2893,2894,0,0,0,0,0,0,0,0,0,0,0,0,0,0,0,0,0,0,0,0,0,0,0,0,0,0,0,0,0,0,0,0,3517,3518,2601,2602,2603,2604,0,0,0,0,0,0,0,0,0,0,0,0,0,0,0,0,0,0,0,0,0,0,0,0,0,0,0,0,0,0,0,0,0,0,0,0,0,0,0,0,0,0,3868,3844,0,0,3790,3446,3447,3448,3449,
3443,3444,1348,3517,3518,0,0,0,0,0,0,0,0,0,0,0,0,0,0,0,0,0,0,0,0,0,0,0,0,0,0,0,0,0,0,0,0,0,0,0,3442,3443,3444,0,0,2637,2638,2639,2640,0,0,0,0,0,0,0,0,0,0,0,0,0,0,0,0,0,0,0,0,0,0,0,0,0,0,0,0,0,0,0,0,0,0,0,0,0,0,0,0,0,0,0,0,0,0,3470,3471,3472,3473,3474,
3468,3469,0,3439,3440,3441,0,0,0,0,0,0,0,0,0,0,0,0,0,0,0,0,0,0,0,0,0,0,0,0,0,0,0,0,0,0,0,0,0,0,3467,3468,3469,0,0,0,0,0,0,0,0,0,0,0,0,0,0,0,0,0,0,0,0,0,0,0,0,0,0,0,0,0,0,0,0,0,0,0,0,0,0,0,0,0,0,0,0,0,0,0,0,0,0,0,0,3495,3496,3497,3498,3499,
0,0,0,3464,3465,3466,0,0,0,0,0,0,0,0,0,0,0,0,0,0,0,0,0,0,0,0,0,0,0,0,0,0,0,0,0,0,0,0,0,0,0,0,0,0,0,0,0,0,0,0,0,0,0,0,0,0,0,0,0,0,0,0,0,0,0,0,0,0,0,0,0,0,0,0,0,0,0,0,0,0,0,0,0,0,0,0,0,0,0,0,0,0,0,0,0,3520,3521,3522,3523,3524,
3440,3441,0,3489,3490,3491,0,0,0,0,0,0,0,0,0,0,0,0,0,0,0,0,0,0,0,0,0,0,0,0,0,0,0,0,0,0,0,0,0,0,0,0,0,0,0,0,0,0,0,0,0,0,0,0,0,0,0,0,0,0,0,0,0,0,0,0,0,0,0,0,0,0,0,0,0,0,0,0,0,0,0,0,0,0,0,0,0,0,0,0,0,0,0,0,0,0,0,3547,3548,0,
3465,3466,0,3514,3515,3516,0,0,0,0,0,0,0,0,0,0,0,0,0,0,0,0,0,0,0,0,0,0,0,0,0,0,0,0,0,0,0,0,0,0,0,0,0,0,0,0,0,0,0,0,0,0,0,0,0,0,0,0,0,0,0,0,0,0,0,0,0,0,0,0,0,0,0,0,0,0,0,0,0,0,0,0,0,0,0,0,0,0,0,0,0,0,0,0,0,0,0,0,0,0,
3490,3491,0,3736,3540,0,0,0,0,0,0,0,0,0,0,0,0,0,0,0,0,0,0,0,0,0,0,0,0,0,0,0,0,0,0,0,0,0,0,0,0,0,0,0,0,0,0,0,0,0,0,0,0,0,0,0,0,0,0,0,0,0,0,0,0,0,0,0,0,0,0,0,0,0,0,0,0,0,0,0,0,0,0,0,0,0,0,0,0,0,0,0,0,0,0,0,0,0,0,0,
3515,3516,0,0,3565,0,0,0,0,0,0,0,0,0,0,0,0,0,0,0,0,0,0,0,0,0,0,0,0,0,0,0,0,0,0,0,0,0,0,0,0,0,0,0,0,0,0,0,0,0,0,0,0,0,0,0,0,0,0,0,0,0,0,0,0,0,0,0,0,0,0,0,0,0,0,0,0,0,0,0,0,0,0,0,0,0,0,0,0,0,0,0,0,0,0,0,0,0,0,0,
3540,0,0,0,3686,0,0,0,0,0,0,0,0,0,0,0,0,0,0,0,0,0,0,0,0,0,0,0,0,0,0,0,0,0,0,0,0,0,0,0,0,0,0,0,0,0,0,0,0,0,0,0,0,0,0,0,0,0,0,0,0,0,0,0,0,0,0,0,0,0,0,0,0,0,0,0,0,0,0,0,0,0,0,0,0,0,0,0,0,0,0,0,0,0,0,0,0,0,0,1349,
3565,0,0,3543,0,0,0,0,0,0,0,0,0,0,0,0,0,0,0,0,0,0,0,0,0,0,0,0,0,0,0,0,0,0,0,0,0,0,0,0,0,0,0,0,0,0,0,0,0,0,0,0,0,0,0,0,0,0,0,0,0,0,0,0,0,0,0,0,0,0,0,0,0,0,0,0,0,0,0,0,0,0,0,0,0,0,0,0,0,0,0,0,3787,3788,3788,3788,3788,3788,3838,3788,
0,0,0,0,0,0,0,0,0,0,0,0,0,0,0,0,0,0,0,0,0,0,0,0,0,0,0,0,0,0,0,0,0,0,0,0,0,0,0,0,0,0,0,0,0,0,0,0,0,0,0,0,0,0,0,0,0,0,0,0,0,0,0,0,0,0,0,0,0,0,0,0,0,0,0,0,0,0,0,0,0,0,0,0,0,0,0,0,0,0,0,0,0,0,0,0,0,0,0,0,
0,0,0,0,0,0,0,0,0,0,0,0,0,0,0,0,0,0,0,0,0,0,0,0,0,0,0,0,0,0,0,0,0,0,0,0,0,0,0,0,0,0,0,0,0,0,0,0,0,0,0,0,0,0,0,0,0,0,0,0,0,0,0,0,0,0,0,0,0,0,0,0,0,0,0,0,0,0,0,0,0,0,0,0,0,0,0,0,0,0,0,0,0,0,0,0,0,0,0,0,
3439,3440,3441,0,0,0,0,0,0,0,0,0,0,0,0,0,0,0,0,0,0,0,0,0,0,0,0,0,0,0,0,0,0,0,0,0,0,0,0,0,0,0,0,0,0,0,0,0,0,0,0,0,0,0,0,0,0,0,0,0,0,0,0,0,0,0,0,0,0,0,0,0,0,0,0,0,0,0,0,0,0,0,0,0,0,0,0,0,0,0,0,0,0,0,0,0,0,0,0,0,
3464,3465,3466,0,0,0,0,0,0,0,0,0,0,0,0,0,0,0,0,0,0,0,0,0,0,0,0,0,0,0,0,0,0,0,0,0,0,0,0,0,0,0,0,0,0,0,0,0,0,0,0,0,0,0,0,0,0,0,0,0,0,0,0,0,0,0,0,0,0,0,0,0,0,0,0,0,0,0,0,0,0,0,0,0,0,0,0,0,0,0,0,0,3790,3787,3788,3788,3788,3788,3788,3788,
3489,3490,3491,0,0,0,0,0,0,0,0,0,0,0,0,0,0,0,0,0,0,0,0,0,0,0,0,0,0,0,0,0,0,0,0,0,0,0,0,0,0,0,0,0,0,0,0,0,0,0,0,0,0,0,0,0,0,0,0,0,0,0,0,0,0,0,0,0,0,0,0,0,0,0,0,0,0,0,0,0,0,0,0,0,0,0,0,0,0,0,0,0,3429,3430,3431,3517,3518,0,3868,3843,
3514,3515,3516,0,0,0,0,0,0,0,0,0,0,0,0,0,0,0,0,0,0,0,0,0,0,0,0,0,0,0,0,0,0,0,0,0,0,0,0,0,0,0,0,0,0,0,0,0,0,0,0,0,0,0,0,0,0,0,0,0,0,0,0,0,0,0,0,0,0,0,0,0,0,0,0,0,0,0,0,0,0,0,0,0,0,0,0,0,0,0,0,0,3454,3455,3456,0,0,0,0,0,
0,3540,0,0,0,0,0,0,0,0,0,0,0,0,0,0,0,0,0,0,0,0,0,0,0,0,0,0,0,0,0,0,0,0,0,0,0,0,0,0,0,0,0,0,0,0,0,0,0,0,0,0,0,0,0,0,0,0,0,0,0,0,0,0,0,0,0,0,0,0,0,0,0,0,0,0,0,0,0,0,0,0,0,0,0,0,0,0,0,0,0,0,3479,3480,3481,0,0,0,0,0,
0,3565,3736,0,0,0,0,0,0,0,0,0,0,0,0,0,0,0,0,0,0,0,0,0,0,0,0,0,0,0,0,0,0,0,0,0,0,0,0,0,0,0,0,0,0,0,0,0,0,0,0,0,0,0,0,0,0,0,0,0,0,0,0,0,0,0,0,0,0,0,0,0,0,0,0,0,0,0,0,0,0,0,0,0,0,0,0,0,0,0,0,0,3504,3505,3506,0,0,0,0,0,
0,0,0,0,0,0,0,0,0,0,0,0,0,0,0,0,0,0,0,0,0,0,0,0,0,0,0,0,0,0,0,0,0,0,0,0,0,0,0,0,0,0,0,0,0,0,0,0,0,0,0,0,0,0,0,0,0,0,0,0,0,0,0,0,0,0,0,0,0,0,0,0,0,0,0,0,0,0,0,0,0,0,0,0,0,0,0,0,0,0,0,0,0,3530,0,0,0,0,0,0,
3440,3441,0,0,0,0,0,0,0,0,0,0,0,0,0,0,0,0,0,0,0,0,0,0,0,0,0,0,0,0,0,0,0,0,0,0,0,0,0,0,0,0,0,0,0,0,0,0,0,0,0,0,0,0,0,0,0,0,0,0,0,0,0,0,0,0,0,0,0,0,0,0,0,0,0,0,0,0,0,0,0,0,0,0,0,0,0,0,0,0,0,0,3445,3446,3447,3448,0,0,0,0,
3465,3466,0,0,0,0,0,0,0,0,0,0,0,0,0,0,0,0,0,0,0,0,0,0,0,0,0,0,0,0,0,0,0,0,0,0,0,0,0,0,0,0,0,0,0,0,0,0,0,0,0,0,0,0,0,0,0,0,0,0,0,0,0,0,0,0,0,0,0,0,0,0,0,0,0,0,0,0,0,0,0,0,0,0,0,0,0,0,0,0,0,0,3470,3471,3472,3473,0,0,0,0,
3490,3491,0,0,0,0,0,0,0,0,0,0,0,0,0,0,0,0,0,0,0,0,0,0,0,0,0,0,0,0,0,0,0,0,0,0,0,0,0,0,0,0,0,0,0,0,0,0,0,0,0,0,0,0,0,0,0,0,0,0,0,0,0,0,0,0,0,0,0,0,0,0,0,0,0,0,0,0,0,0,0,0,0,0,0,0,0,0,0,0,0,0,3495,3496,3497,3498,0,0,0,0,
3515,3516,0,0,0,0,0,0,0,0,0,0,0,0,0,0,0,0,0,0,0,0,0,0,0,0,0,0,0,0,0,0,0,0,0,0,0,0,0,0,0,0,0,0,0,0,0,0,0,0,0,0,0,0,0,0,0,0,0,0,0,0,0,0,0,0,0,0,0,0,0,0,0,0,0,0,0,0,0,0,0,0,0,0,0,0,0,0,0,0,0,0,3520,3521,3522,3523,0,0,0,0,
3540,0,0,0,0,0,0,0,0,0,0,0,0,0,0,0,0,0,0,0,0,0,0,0,0,0,0,0,0,0,0,0,0,0,0,0,0,0,0,0,0,0,0,0,0,0,0,0,0,0,0,0,0,0,0,0,0,0,0,0,0,0,0,0,0,0,0,0,0,0,0,0,0,0,0,0,0,0,0,0,0,0,0,0,0,0,0,0,0,0,0,0,0,0,3547,3548,0,0,0,0,
3565,0,0,0,0,0,0,0,0,0,0,0,0,0,0,0,0,0,0,0,0,0,0,0,0,0,0,0,0,0,0,0,0,0,0,0,0,0,0,0,0,0,0,0,0,0,0,0,0,0,0,0,0,0,0,0,0,0,0,0,0,0,0,0,0,0,0,0,0,0,0,0,0,0,0,0,0,0,0,0,0,0,0,0,0,0,0,0,0,0,0,0,0,0,0,0,0,0,0,0,
0,0,0,0,0,0,0,0,0,0,0,0,0,0,0,0,0,0,0,0,0,0,0,0,0,0,0,0,0,0,0,0,0,0,0,0,0,0,0,0,0,0,0,0,0,0,0,0,0,0,0,0,0,0,0,0,0,0,0,0,0,0,0,0,0,0,0,0,0,0,0,0,0,0,0,0,0,0,0,0,0,0,0,0,0,0,0,0,0,0,0,0,0,0,0,0,0,0,0,0,
0,0,0,0,3661,0,0,0,0,0,0,0,0,0,0,0,0,0,0,0,0,0,0,0,0,0,0,0,0,0,0,0,0,0,0,0,0,0,0,0,0,0,0,0,0,0,0,0,0,0,0,0,0,0,0,0,0,0,0,0,0,0,0,0,0,0,0,0,0,0,0,0,0,0,0,0,0,0,0,0,0,0,0,0,0,0,0,0,0,0,0,0,0,0,0,0,0,0,3517,3518,
3686,0,0,0,0,0,0,0,0,0,0,0,0,0,0,0,0,0,0,0,0,0,0,0,0,0,0,0,0,0,0,0,0,0,0,0,0,0,0,0,0,0,0,0,0,0,0,0,0,0,0,0,0,0,0,0,0,0,0,0,0,0,0,0,0,0,0,0,0,0,0,0,0,0,0,0,0,0,0,0,0,0,0,0,0,0,0,0,0,0,0,0,0,3442,3443,3444,0,0,0,0,
0,0,0,0,0,0,0,0,0,0,0,0,0,0,0,0,0,0,0,0,0,0,0,0,0,0,0,0,0,0,0,0,0,0,0,0,0,0,0,0,0,0,0,0,0,0,0,0,0,0,0,0,0,0,0,0,0,0,0,0,0,0,0,0,0,0,0,0,0,0,0,0,0,0,0,0,0,0,0,0,0,0,0,0,0,0,0,0,0,0,0,0,0,3467,3468,3469,0,0,3429,3430,
3440,3441,3540,3534,0,0,0,0,0,0,0,0,0,0,0,0,0,0,0,0,0,0,0,0,0,0,0,0,0,0,0,0,0,0,0,0,0,0,0,0,0,0,0,0,0,0,0,0,0,0,0,0,0,0,0,0,0,0,0,0,0,0,0,0,0,0,0,0,0,0,0,0,0,0,0,0,0,0,0,0,0,0,0,0,0,0,0,0,0,0,0,0,0,0,0,0,0,0,3454,3455,
3465,3466,3565,3559,0,0,0,0,0,0,0,0,0,0,0,0,0,0,0,0,0,0,0,0,0,0,0,0,0,0,0,0,0,0,0,0,0,0,0,0,0,0,0,0,0,0,0,0,0,0,0,0,0,0,0,0,0,0,0,0,0,0,0,0,0,0,0,0,0,0,0,0,0,0,0,0,0,0,0,0,0,0,0,0,0,0,0,0,0,0,0,0,0,0,0,0,0,0,3479,3480,
3490,3491,0,0,0,0,0,0,0,0,0,0,0,0,0,0,0,0,0,0,0,0,0,0,0,0,0,0,0,0,0,0,0,0,0,0,0,0,0,0,0,0,0,0,0,0,0,0,0,0,0,0,0,0,0,0,0,0,0,0,0,0,0,0,0,0,0,0,0,0,0,0,0,0,0,0,0,0,0,0,0,0,0,0,0,0,0,0,0,0,0,0,0,0,0,0,0,0,3504,3505,
3515,3516,0,0,0,0,0,0,0,0,0,0,0,0,0,0,0,0,0,0,0,0,0,0,0,0,0,0,0,0,0,0,0,0,0,0,0,0,0,0,0,0,0,0,0,0,0,0,0,0,0,0,0,0,0,0,0,0,0,0,0,0,0,0,0,0,0,0,0,0,0,0,0,0,0,0,0,0,0,0,0,0,0,0,0,0,0,0,0,0,0,0,0,0,0,3445,3446,3447,3448,3449,
3540,0,0,0,0,0,0,0,0,0,0,0,0,0,0,0,0,0,0,0,0,0,0,0,0,0,0,0,0,0,0,0,0,0,0,0,0,0,0,0,0,0,0,0,0,0,0,0,0,0,0,0,0,0,0,0,0,0,0,0,0,0,0,0,0,0,0,0,0,0,0,0,0,0,0,0,0,0,0,0,0,0,0,0,0,0,0,0,0,0,0,0,0,0,0,3470,3471,3472,3473,3474,
3444,0,0,0,0,0,0,0,0,0,0,0,0,0,0,0,0,0,0,0,0,0,0,0,0,0,0,0,0,0,0,0,0,0,0,0,0,0,0,0,0,0,0,0,0,0,0,0,0,0,0,0,0,0,0,0,0,0,0,0,0,0,0,0,0,0,0,0,0,0,0,0,0,0,0,0,0,0,0,0,0,0,0,0,0,0,0,0,0,0,0,0,3532,3533,3534,3495,3496,3497,3498,3499,
0,3686,0,0,0,0,0,0,0,0,0,0,0,0,0,0,0,0,0,0,0,0,0,0,0,0,0,0,0,0,0,0,0,0,0,0,0,0,0,0,0,0,0,0,0,0,0,0,0,0,0,0,0,0,0,0,0,0,0,0,0,0,0,0,0,0,0,0,0,0,0,0,0,0,0,0,0,0,0,0,0,0,0,0,0,0,0,0,0,0,3868,3844,3557,3558,3559,3520,3521,3522,3523,3524,
0,0,0,0,0,0,0,0,0,0,0,0,0,0,0,0,0,0,0,0,0,0,0,0,0,0,0,0,0,0,0,0,0,0,0,0,0,0,0,0,0,0,0,0,0,0,0,0,0,0,0,0,0,0,0,0,0,0,0,0,0,0,0,0,0,0,0,0,0,0,0,0,0,0,0,0,0,0,0,0,0,0,0,0,0,0,0,0,3868,3842,3844,3604,0,0,3790,0,0,3547,3548,0,
0,0,0,0,0,0,0,0,0,0,0,0,0,0,0,0,0,0,0,0,0,0,0,0,0,0,0,0,0,0,0,0,0,0,0,0,0,0,0,0,0,0,0,0,0,0,0,0,0,0,0,0,0,0,0,0,0,0,0,0,0,0,0,0,0,0,0,0,0,0,0,0,0,0,0,0,0,0,0,0,0,0,0,0,0,0,0,0,0,0,3481,0,0,0,0,3736,0,0,0,0,
0,0,0,0,0,0,0,0,0,0,0,0,0,0,0,0,0,0,0,0,0,0,0,0,0,0,0,0,0,0,0,0,0,0,0,0,0,0,0,0,0,0,0,0,0,0,0,0,0,0,0,0,0,0,0,0,0,0,0,0,0,0,0,0,0,0,0,0,0,0,0,0,0,0,0,0,0,0,0,0,0,0,0,0,0,0,3868,3842,3844,0,3506,0,0,0,0,0,0,0,0,0,
0,0,0,0,0,0,0,0,0,3790,0,0,0,0,0,0,0,0,0,0,0,0,0,0,0,0,0,0,0,0,0,0,0,0,0,0,0,0,0,0,0,0,0,0,0,0,0,0,0,0,0,0,0,0,0,0,0,0,0,0,0,0,0,0,0,0,0,0,0,0,0,0,0,0,0,0,0,0,0,0,0,0,0,0,0,0,3820,3604,3754,3530,3661,0,0,0,0,0,0,0,3686,0,
0,0,0,0,0,0,0,0,0,0,0,0,0,0,0,0,0,0,0,0,0,0,0,0,0,0,0,0,0,0,0,0,0,0,0,0,0,0,0,0,0,0,0,0,0,0,0,0,0,0,0,0,0,0,0,0,0,0,0,0,0,0,0,0,0,0,0,0,0,0,0,0,0,0,0,0,0,0,0,0,0,0,0,0,0,0,0,0,0,3555,0,0,3686,0,3442,3443,3444,0,0,0,
0,0,0,0,0,0,0,3439,3440,3441,0,0,0,0,0,0,0,0,0,0,0,0,0,0,0,0,0,0,0,0,0,0,0,0,0,0,0,0,0,0,0,0,0,0,0,0,0,0,0,0,0,0,0,0,0,0,0,0,0,0,0,0,0,0,0,0,0,0,0,0,0,0,0,0,0,0,0,0,0,0,0,0,0,0,0,0,0,0,0,0,0,0,0,0,3467,3468,3469,0,0,0,
0,0,0,0,0,0,0,3464,3465,3466,0,0,0,0,0,0,0,0,0,0,0,0,0,0,0,0,0,0,0,0,0,0,0,0,0,0,0,0,0,0,0,0,0,0,0,0,0,0,0,0,0,0,0,0,0,0,0,0,0,0,0,0,0,0,0,0,0,0,0,0,0,0,0,0,0,0,0,0,0,0,0,0,0,0,0,0,0,0,0,0,1349,0,0,0,0,0,0,3517,3518,0,
0,0,0,0,0,0,0,3489,3490,3491,0,0,0,0,0,0,0,0,0,0,0,0,0,0,0,0,0,0,0,0,0,0,0,0,0,0,0,0,0,0,0,0,0,0,0,0,0,0,0,0,0,0,0,0,0,0,0,0,0,0,0,0,0,0,0,0,0,0,0,0,0,0,0,0,0,0,0,0,0,0,0,0,0,0,0,0,0,0,0,0,0,0,0,0,0,0,0,0,0,0,
0,0,0,0,3439,3440,3441,0,3515,3516,0,0,0,0,0,0,0,0,0,0,0,0,0,0,0,0,0,0,0,0,0,0,0,0,0,0,0,0,0,0,0,0,0,0,0,0,0,0,0,0,0,0,0,0,0,0,0,0,0,0,0,0,0,0,0,0,0,0,0,0,0,0,0,0,0,0,0,0,0,0,0,0,0,0,0,0,0,0,0,0,0,0,0,0,0,0,0,3736,3532,3533,
3441,0,0,0,3464,3465,3466,0,3540,0,0,0,0,0,0,0,0,0,0,0,0,0,0,0,0,0,0,0,0,0,0,0,0,0,0,0,0,0,0,0,0,0,0,0,0,0,0,0,0,0,0,0,0,0,0,0,0,0,0,0,0,0,0,0,0,0,0,0,0,0,0,0,0,0,0,0,0,0,0,0,0,0,0,0,0,0,0,0,0,0,0,0,0,0,0,0,0,0,3557,3558,
3466,0,0,0,3489,3490,3491,0,0,0,0,0,0,0,0,0,0,0,0,0,0,0,0,0,0,0,0,0,0,0,0,0,0,0,0,0,0,0,0,0,0,0,0,0,0,0,0,0,0,0,0,0,0,0,0,0,0,0,0,0,0,0,0,0,0,0,0,0,0,0,0,0,0,0,0,0,0,0,0,0,0,0,0,0,0,0,0,0,0,0,0,0,0,3868,0,0,0,0,0,0,
3491,3686,0,0,3514,3515,3516,0,0,0,0,0,0,0,0,0,0,0,0,0,0,0,0,0,0,0,0,0,0,0,0,0,0,0,0,0,0,0,0,0,0,0,0,0,0,0,0,0,0,0,0,0,0,0,0,0,0,0,0,0,0,0,0,0,0,0,0,0,0,0,0,0,0,0,0,0,0,0,0,0,0,0,0,0,0,0,0,0,0,0,0,0,0,0,0,0,0,0,0,3432,
3516,0,0,0,0,3540,3541,0,0,0,0,0,0,0,0,0,0,0,0,0,0,0,0,0,0,0,0,0,0,0,0,0,0,0,0,0,0,0,0,0,0,0,0,0,0,0,0,0,0,0,0,0,0,0,0,0,0,0,0,0,0,0,0,0,0,0,0,0,0,0,0,0,0,0,0,0,0,0,0,0,0,0,0,0,0,0,0,0,0,0,0,0,3868,3844,0,0,0,0,0,3457,
0,0,0,0,3564,3843,3566,0,3736,0,0,0,0,0,0,0,0,0,0,0,0,0,0,0,0,0,0,0,0,0,0,0,0,0,0,0,0,0,0,0,0,0,0,0,0,0,0,0,0,0,0,0,0,0,0,0,0,0,0,0,0,0,0,0,0,0,0,0,0,0,0,0,0,0,0,0,0,0,0,0,0,0,0,0,0,0,0,0,0,3868,3842,3843,3844,3604,0,0,0,0,0,3482,
0,0,0,0,0,3442,3443,3444,0,0,0,0,0,0,0,0,0,0,0,0,0,0,0,0,0,0,0,0,0,0,0,0,0,0,0,0,0,0,0,0,0,0,0,0,0,0,0,0,0,0,0,0,0,0,0,0,0,0,0,0,0,0,0,0,0,0,0,0,0,0,0,0,0,0,0,0,0,0,0,0,0,0,0,0,0,0,0,0,3868,3844,3754,3756,3604,0,0,0,0,0,0,3507,
0,0,0,0,0,3467,3468,3469,0,0,0,0,0,0,0,0,0,0,0,0,0,0,0,0,0,0,0,0,0,0,0,0,0,0,0,0,0,0,0,0,0,0,0,0,0,0,0,0,0,0,0,0,0,0,0,0,0,0,0,0,0,0,0,0,0,0,0,0,0,0,0,0,0,0,0,0,0,0,0,0,0,0,0,0,0,0,0,0,0,0,0,0,0,0,0,0,0,0,0,0,
3517,3518,0,0,0,3790,0,0,0,0,0,0,0,0,0,0,0,0,0,0,0,0,0,0,0,0,0,0,0,0,0,0,0,0,0,0,0,0,0,0,0,0,0,0,0,0,0,0,0,0,0,0,0,0,0,0,0,0,0,0,0,0,0,0,0,0,0,0,0,0,0,0,0,0,0,0,0,0,0,0,0,0,0,0,0,0,0,0,0,0,0,0,0,0,0,3686,3439,3440,3441,0,
0,0,0,0,0,3815,0,3661,0,0,0,0,0,0,0,0,0,0,0,0,0,0,0,0,0,0,0,0,0,0,0,0,0,0,0,0,0,0,0,0,0,0,0,0,0,0,0,0,0,0,0,0,0,0,0,0,0,0,0,0,0,0,0,0,0,0,0,0,0,0,0,0,0,0,0,0,0,0,0,0,0,0,0,0,0,0,0,3868,3844,0,0,0,3530,3531,0,0,3464,3465,3466,0,
0,0,0,0,3686,3815,0,0,0,0,0,0,0,0,0,0,0,0,0,0,0,0,0,0,0,0,0,0,0,0,0,0,0,0,0,0,0,0,0,0,0,0,0,0,0,0,0,0,0,0,0,0,0,0,0,0,0,0,0,0,0,0,0,0,0,0,0,0,0,0,0,0,0,0,0,0,0,0,0,0,0,0,0,0,0,0,0,3820,3604,0,0,0,3555,0,0,0,3489,3490,3491,0,
0,0,3787,3838,3789,3840,0,3517,3518,0,0,0,0,0,0,0,0,0,0,0,0,0,0,0,0,0,0,0,0,0,0,0,0,0,0,0,0,0,0,0,0,0,0,0,0,0,0,0,0,0,0,0,0,0,0,0,0,0,0,0,0,0,0,0,0,0,0,0,0,0,0,0,0,0,0,0,0,0,0,0,0,0,0,0,0,0,0,0,0,0,0,0,0,0,0,0,3514,3515,3516,0,
3736,0,3812,3863,3814,3865,0,0,0,0,0,0,0,0,0,0,0,0,0,0,0,0,0,0,0,0,0,0,0,0,0,0,0,0,0,0,0,0,0,0,0,0,0,0,0,0,0,0,0,0,0,0,0,0,0,0,0,0,0,0,0,0,0,0,0,0,0,0,0,0,0,0,0,0,0,0,0,0,0,0,0,0,0,0,0,0,3868,3844,0,0,0,0,0,0,0,0,0,3540,0,3736,
0,0,0,3442,3443,3444,0,0,0,0,0,0,0,0,0,0,0,0,0,0,0,0,0,0,0,0,0,0,0,0,0,0,0,0,0,0,0,0,0,0,0,0,0,0,0,0,0,0,0,0,0,0,0,0,0,0,0,0,0,0,0,0,0,0,0,0,0,0,0,0,0,0,0,0,0,0,0,0,0,0,0,0,0,0,0,0,0,0,0,3482,3483,3484,3736,0,0,0,0,3565,0,0,
0,0,0,3467,3468,3469,0,0,0,0,0,0,0,0,0,0,0,0,0,0,0,0,0,0,0,0,0,0,0,0,0,3442,3443,3444,0,0,0,0,0,0,0,0,0,0,0,0,0,0,0,0,0,0,0,0,0,0,0,0,0,0,0,0,0,0,0,0,0,0,0,0,0,0,0,0,0,0,0,0,0,0,0,0,0,0,0,3868,0,0,0,3507,3508,3509,0,0,0,0,0,0,0,0,
0,0,0,0,0,0,0,0,3686,0,0,0,0,0,0,0,3442,3443,3444,0,0,3661,0,0,0,0,0,0,0,0,0,3467,3468,3469,0,3686,0,0,0,0,0,3543,0,0,0,0,0,0,0,0,0,0,0,0,0,0,0,3442,3443,3444,0,3736,0,0,0,0,3467,3468,3469,0,0,0,0,0,3661,0,0,0,0,0,3429,3430,3431,3736,0,0,0,0,0,3532,3533,3534,0,0,0,0,0,0,0,0,
0,0,0,0,0,0,0,0,0,0,0,0,0,0,0,0,3467,3468,3469,0,3736,0,0,0,0,0,0,0,0,0,0,0,0,0,0,3439,3440,3441,0,0,0,0,3661,0,0,0,0,0,0,0,0,0,0,0,0,0,0,3467,3468,3469,0,0,0,0,0,0,0,0,3439,3440,3441,3686,0,0,0,0,0,0,0,0,3454,3455,3456,0,0,0,0,0,0,3557,3558,3559,0,0,0,0,0,0,0,0,
3440,3441,0,0,0,0,0,0,0,0,0,0,0,0,0,0,0,0,0,0,0,0,0,0,0,0,0,0,0,0,0,0,3787,3838,3789,3464,3465,3466,0,0,0,3736,0,0,0,0,0,0,0,0,0,0,0,0,0,0,0,0,0,3432,3433,3434,3517,3518,0,0,0,0,3464,3465,3466,0,0,0,0,0,0,0,0,0,3479,3480,3481,0,0,0,0,0,0,3686,0,0,0,3661,3432,3433,3434,0,0,0,
3465,3466,0,0,0,0,0,0,0,0,3736,0,0,0,0,0,0,0,3787,3789,0,0,0,0,0,0,0,3686,0,0,0,0,3812,3863,3814,3489,3490,3491,0,0,0,0,0,0,0,0,0,0,0,0,0,0,0,0,0,0,3530,0,0,3457,3458,3459,0,0,0,0,0,0,3489,3490,3491,0,0,0,0,0,0,0,3736,0,3504,3505,3506,0,0,0,0,0,0,0,0,0,0,0,3457,3458,3459,3686,0,0,
3490,3491,0,0,3736,0,0,0,0,0,0,0,0,0,0,0,0,0,3812,3814,0,0,0,0,0,0,0,0,0,0,0,0,0,0,3736,3514,3515,3516,0,0,0,0,0,0,0,0,0,0,0,0,3686,0,0,0,0,0,0,0,0,3482,3483,3484,0,0,0,3429,3430,3431,3514,3515,3516,0,0,3517,3518,0,0,0,0,0,0,3530,3531,0,3686,0,0,0,0,0,0,0,0,3736,3482,3483,3484,0,0,0,
3515,3516,3442,3443,3444,0,0,3686,0,0,0,0,0,0,0,0,0,3686,0,0,0,0,3442,3443,3444,3517,3518,0,0,0,0,0,0,0,0,0,3540,0,0,0,0,0,0,0,0,0,0,3686,0,0,0,0,0,0,0,0,0,0,0,3507,3508,3509,3442,3443,3444,3454,3455,3456,3736,3540,3541,0,0,0,0,0,0,0,3432,3433,3434,3555,0,0,0,0,0,0,0,0,0,0,0,0,3507,3508,3509,0,0,0
</data>
 </layer>
 <layer id="7" name="AlwaysFront" width="100" height="75">
  <data encoding="csv">
3472,3473,3474,3475,0,0,0,0,0,0,0,0,0,0,0,0,0,0,0,0,0,0,0,0,0,0,0,0,0,0,0,0,0,0,0,0,0,0,0,0,0,0,0,0,0,0,0,0,0,0,0,0,0,0,0,0,0,0,0,0,0,0,0,0,0,0,0,0,0,0,0,0,0,0,0,0,0,0,0,0,0,0,0,0,0,0,0,0,0,0,0,0,0,0,0,3489,3490,3491,0,0,
3497,3498,3499,3500,0,0,0,0,0,0,0,0,0,0,0,0,0,0,0,0,0,0,0,0,0,0,0,0,0,0,0,0,0,0,0,0,0,0,0,0,0,0,0,0,0,0,0,0,0,0,0,0,0,0,0,0,0,0,0,0,0,0,0,0,0,0,0,0,0,0,0,0,0,0,0,0,0,0,0,0,0,0,0,0,0,0,0,0,0,0,0,0,0,0,0,3514,3515,3516,0,0,
3522,3523,3524,3525,0,0,0,0,0,0,0,0,0,0,0,0,0,0,0,0,0,0,0,0,0,0,0,0,0,0,0,0,0,0,0,0,0,0,0,0,0,0,0,0,0,0,0,0,0,0,0,0,0,0,0,0,0,0,0,0,0,0,0,0,0,0,0,0,0,0,0,0,0,0,0,0,0,0,0,0,0,0,0,0,0,0,0,0,0,0,0,0,0,0,0,0,0,0,0,0,
3547,3548,0,0,0,0,0,0,0,0,0,0,0,0,0,0,0,0,0,0,0,0,0,0,0,0,0,0,0,0,0,0,0,0,0,0,0,0,0,0,0,0,0,0,0,0,0,0,0,0,0,0,0,0,0,0,0,0,0,0,0,0,0,0,0,0,0,0,0,0,0,0,0,0,0,0,0,0,0,0,0,0,0,0,0,0,0,0,0,0,0,0,0,0,0,0,0,0,0,0,
0,0,0,0,0,0,0,0,0,0,0,0,0,0,0,0,0,0,0,0,0,0,0,0,0,0,0,0,0,0,0,0,0,0,0,0,0,0,0,0,0,0,0,0,2633,2634,2635,2636,0,0,0,0,0,0,0,0,0,0,0,0,0,0,0,0,0,0,0,0,0,0,0,0,0,0,0,0,0,0,0,0,0,0,0,0,0,0,0,0,0,0,0,0,0,0,0,0,0,0,3429,3430,
0,0,0,0,0,0,0,0,0,0,0,0,0,0,0,0,0,0,0,0,0,0,0,0,0,0,0,0,0,0,0,0,0,0,0,0,0,0,0,0,0,0,0,0,2669,2670,2671,2672,0,0,0,0,0,0,0,0,0,0,0,0,0,0,0,0,0,0,0,0,0,0,0,0,0,0,0,0,0,0,0,0,0,0,0,0,0,0,0,0,0,0,0,0,0,3439,3440,3441,0,0,3454,3455,
0,0,0,0,0,0,0,0,0,0,0,0,0,0,0,0,0,0,0,0,0,0,0,0,0,0,0,0,0,0,0,0,0,0,0,0,0,0,0,0,0,0,0,0,0,0,0,0,0,0,0,0,0,0,0,0,0,0,0,0,0,0,0,0,0,0,0,0,0,0,0,0,0,0,0,0,0,0,0,0,0,0,0,0,0,0,0,0,0,0,0,0,0,3464,3465,3466,0,0,3479,3480,
0,0,0,0,0,0,0,0,0,0,0,0,0,0,0,0,0,0,0,0,0,0,0,0,0,0,0,0,0,0,0,0,0,0,0,0,0,0,0,0,0,0,0,0,0,0,0,0,0,0,0,0,0,0,0,0,0,0,0,0,0,0,0,0,0,0,0,0,0,0,0,0,0,0,0,0,0,0,0,0,0,0,0,0,0,0,0,0,0,0,0,0,0,3489,3490,3491,0,0,3504,3505,
0,0,0,0,0,0,0,3351,3352,3355,3356,0,0,0,0,0,0,0,0,0,0,0,0,0,0,0,0,0,0,0,0,0,0,0,0,0,0,0,0,0,0,0,0,0,0,0,0,0,0,0,0,0,0,0,0,0,0,0,0,0,0,0,0,0,0,0,0,0,0,0,0,0,0,0,0,0,0,0,0,0,0,0,0,0,0,0,0,0,0,0,0,0,0,0,0,0,0,0,0,0,
0,0,0,0,0,0,0,3387,3388,3391,3392,0,0,0,0,0,0,0,0,0,0,0,0,0,0,0,0,0,0,0,0,0,0,0,0,0,0,0,0,0,0,0,0,0,0,0,0,0,0,0,0,0,0,0,0,0,0,0,0,0,0,0,0,0,0,0,0,0,0,0,0,0,0,0,0,0,0,0,0,0,0,0,0,0,0,0,0,0,0,0,0,0,0,0,0,0,0,0,0,0,
0,0,0,0,0,0,0,3423,3424,3427,3428,0,0,0,0,0,0,0,0,0,0,0,0,0,0,0,0,0,0,0,0,0,0,0,0,0,0,0,0,0,0,0,0,0,0,2633,2634,2635,2636,0,0,0,0,0,0,0,0,0,0,0,0,0,0,0,0,0,0,0,0,0,0,0,0,0,0,0,0,0,0,0,0,0,0,0,0,0,0,0,0,0,0,0,3517,3518,0,0,0,0,0,0,
0,0,0,0,0,0,0,0,0,0,0,0,0,0,0,0,0,0,0,0,0,0,0,0,0,0,0,0,0,0,0,0,0,0,0,0,0,0,0,0,0,0,0,0,0,2669,2670,2671,2672,0,0,0,0,0,0,0,0,0,0,0,0,0,0,0,0,0,0,0,0,0,0,0,0,0,0,0,0,0,0,0,0,0,0,0,0,0,0,0,0,0,0,0,0,0,0,0,0,0,0,0,
0,0,0,0,0,0,0,0,0,0,0,0,0,0,0,0,0,0,0,0,0,0,0,0,0,0,0,0,0,0,0,0,0,0,0,0,0,0,0,0,0,0,0,0,0,0,0,0,0,0,0,0,0,0,0,0,0,0,0,0,0,0,0,0,0,0,0,0,0,0,0,0,0,0,0,0,0,0,0,0,0,0,0,0,0,0,0,0,0,0,0,0,0,0,0,0,0,0,0,0,
0,0,0,0,0,0,0,0,0,0,0,0,0,0,0,0,0,0,0,0,0,0,0,0,0,0,0,0,0,0,0,0,0,0,0,0,0,0,0,0,0,0,0,0,0,0,0,0,0,0,0,0,0,0,0,0,0,0,0,0,0,0,0,0,0,0,0,0,0,0,0,0,0,0,0,0,0,0,0,0,0,0,0,0,0,0,0,0,0,0,0,0,0,0,0,0,0,0,0,0,
0,0,0,0,0,0,0,0,0,0,0,0,0,0,0,0,0,0,0,0,0,0,0,0,0,0,0,0,0,0,0,0,0,0,0,0,0,0,0,0,0,0,0,0,0,0,0,0,0,0,0,0,0,0,0,0,0,0,0,0,0,0,0,0,0,0,0,0,0,0,0,0,0,0,0,0,0,0,0,0,0,0,0,0,0,0,0,0,0,0,0,0,0,0,0,0,0,0,0,0,
0,0,0,0,0,0,0,0,0,0,0,0,0,0,0,0,0,0,0,0,0,0,0,0,0,0,0,0,0,0,0,0,0,0,0,0,0,0,0,0,0,0,0,0,0,0,0,0,0,0,0,0,0,0,0,0,0,0,0,0,0,0,0,0,0,0,0,0,0,0,0,0,0,0,0,0,0,0,0,0,0,0,0,0,0,0,0,0,0,0,0,0,0,0,0,0,0,0,0,0,
0,0,0,0,0,0,0,0,0,0,0,0,0,0,0,0,0,0,0,0,0,0,0,0,0,0,0,0,0,0,0,0,0,0,0,0,0,0,0,0,0,0,0,0,0,0,0,0,0,0,0,0,0,0,0,0,0,0,0,0,0,0,0,0,0,0,0,0,0,0,0,0,0,0,0,0,0,0,0,0,0,0,0,0,0,0,0,0,0,0,0,0,0,0,0,0,0,0,0,0,
0,0,0,0,0,0,0,0,0,0,0,0,0,0,0,0,0,0,0,0,0,0,0,0,0,0,0,0,0,0,0,0,0,0,0,0,0,0,0,0,0,0,0,0,0,0,0,0,0,0,0,0,0,0,0,0,0,0,0,0,0,0,0,0,0,0,0,0,0,0,0,0,0,0,0,0,0,0,0,0,0,0,0,0,0,0,0,0,0,0,0,0,0,0,0,0,0,0,0,0,
0,0,0,0,0,0,0,0,0,0,0,0,0,0,0,0,0,0,0,0,0,0,0,0,0,0,0,0,0,0,0,0,0,0,0,0,0,0,0,0,0,0,0,0,0,0,0,0,0,0,0,0,0,0,0,0,0,0,0,0,0,0,0,0,0,0,0,0,0,0,0,0,0,0,0,0,0,0,0,0,0,0,0,0,0,0,0,0,0,0,0,0,0,0,0,0,0,0,0,0,
3441,0,0,0,0,0,0,0,0,0,0,0,0,0,0,0,0,0,0,0,0,0,0,0,0,0,0,0,0,0,0,0,0,0,0,0,0,0,0,0,0,0,0,0,0,0,0,0,0,0,0,0,0,0,0,0,0,0,0,0,0,0,0,0,0,0,0,0,0,0,0,0,0,0,0,0,0,0,0,0,0,0,0,0,0,0,0,0,0,0,0,0,0,0,0,0,0,0,0,0,
3466,0,0,0,0,0,0,0,0,0,0,0,0,0,0,0,0,0,0,0,0,0,0,0,0,0,0,0,0,0,0,0,0,0,0,0,0,0,0,0,0,0,0,0,0,0,0,0,0,0,0,0,0,0,0,0,0,0,0,0,0,0,0,0,0,0,0,0,0,0,0,0,0,0,0,0,0,0,0,0,0,0,0,0,0,0,0,0,0,0,0,0,0,0,0,0,0,0,0,0,
3491,0,0,0,0,0,0,0,0,0,0,0,0,0,0,0,0,0,0,0,0,0,0,0,0,0,0,0,0,0,0,0,0,0,0,0,0,0,0,0,0,0,0,0,0,0,0,0,0,0,0,0,0,0,0,0,0,0,0,0,0,0,0,0,0,0,0,0,0,0,0,0,0,0,0,0,0,0,0,0,0,0,0,0,0,0,0,0,0,0,0,0,0,0,0,0,0,0,0,0,
3516,0,0,0,0,0,0,0,0,0,0,0,0,0,0,0,0,0,0,0,0,0,0,0,0,0,0,0,0,0,0,0,0,0,0,0,0,0,0,0,0,0,0,0,0,0,0,0,0,0,0,0,0,0,0,0,0,0,0,0,0,0,0,0,0,0,0,0,0,0,0,0,0,0,0,0,0,0,0,0,0,0,0,0,0,0,0,0,0,0,0,0,0,0,0,0,0,0,0,0,
0,0,0,0,0,0,0,0,0,0,0,0,0,0,0,0,0,0,0,0,0,0,0,0,0,0,0,0,0,0,0,0,0,0,0,0,0,0,0,0,0,0,0,0,0,0,0,0,0,0,0,0,0,0,0,0,0,0,0,0,0,0,0,0,0,0,0,0,0,0,0,0,0,0,0,0,0,0,0,0,0,0,0,0,0,0,0,0,0,0,0,0,0,0,0,0,0,0,3432,3433,
0,0,0,0,0,0,0,0,0,0,0,0,0,0,0,0,0,0,0,0,0,0,0,0,0,0,0,0,0,0,0,0,0,0,0,0,0,0,0,0,0,0,0,0,0,0,0,0,0,0,0,0,0,0,0,0,0,0,0,0,0,0,0,0,0,0,0,0,0,0,0,0,0,0,0,0,0,0,0,0,0,0,0,0,0,0,0,0,0,0,0,0,0,0,0,0,0,0,3457,3458,
0,0,0,0,0,0,0,0,0,0,0,0,0,0,0,0,0,0,0,0,0,0,0,0,0,0,0,0,0,0,0,0,0,0,0,0,0,0,0,0,0,0,0,0,0,0,0,0,0,0,0,0,0,0,0,0,0,0,0,0,0,0,0,0,0,0,0,0,0,0,0,0,0,0,0,0,0,0,0,0,0,0,0,0,0,0,0,0,0,0,0,0,0,0,0,0,0,0,3482,3483,
0,0,0,0,0,0,0,0,0,0,0,0,0,0,0,0,0,0,0,0,0,0,0,0,0,0,0,0,0,0,0,0,0,0,0,0,0,0,0,0,0,0,0,0,0,0,0,0,0,0,0,0,0,0,0,0,0,0,0,0,0,0,0,0,0,0,0,0,0,0,0,0,0,0,0,0,0,0,0,0,0,0,0,0,0,0,0,0,0,0,0,0,0,0,0,0,0,0,3507,3508,
0,0,0,0,0,0,0,0,0,0,0,0,0,0,0,0,0,0,0,0,0,0,0,0,0,0,0,0,0,0,0,0,0,0,0,0,0,0,0,0,0,0,0,0,0,0,0,0,0,0,0,0,0,0,0,0,0,0,0,0,0,0,0,0,0,0,0,0,0,0,0,0,0,0,0,0,0,0,0,0,0,0,0,0,0,0,0,0,0,0,0,0,0,0,0,0,0,0,3532,3533,
0,0,0,0,0,0,0,0,0,0,0,0,0,0,0,0,0,0,0,0,0,0,0,0,0,0,0,0,0,0,0,0,0,0,0,0,0,0,0,0,0,0,0,0,0,0,0,0,0,0,0,0,0,0,0,0,0,0,0,0,0,0,0,0,0,0,0,0,0,0,0,0,0,0,0,0,0,0,0,0,0,0,0,0,0,0,0,0,0,0,0,0,0,0,0,0,0,0,3790,3558,
0,0,0,0,0,0,0,0,0,0,0,0,0,0,0,0,0,0,0,0,0,0,0,0,0,0,0,0,0,0,0,0,0,0,0,0,0,0,0,0,0,0,0,0,0,0,0,0,0,0,0,0,0,0,0,0,0,0,0,0,0,0,0,0,0,0,0,0,0,0,0,0,0,0,0,0,0,0,0,0,0,0,0,0,0,0,0,0,0,0,0,0,0,0,0,0,3449,3450,3840,0,
0,0,0,0,0,0,0,0,0,0,0,0,0,0,0,0,0,0,0,0,0,0,0,0,0,0,0,0,0,0,0,0,0,0,0,0,0,0,0,0,0,0,0,0,0,0,0,0,0,0,0,0,0,0,0,0,0,0,0,0,0,0,0,0,0,0,0,0,0,0,0,0,0,0,0,0,0,0,0,0,0,0,0,0,0,0,0,0,0,0,0,0,0,0,0,0,3474,3475,3865,0,
0,0,0,0,0,0,0,0,0,0,0,0,0,0,0,0,0,0,0,0,0,0,0,0,0,0,0,0,0,0,0,0,0,0,0,0,0,0,0,0,0,0,0,0,0,0,0,0,0,0,0,0,0,0,0,0,0,0,0,0,0,0,0,0,0,0,0,0,0,0,0,0,0,0,0,0,0,0,0,0,0,0,0,0,0,0,0,0,0,0,0,0,0,0,0,0,3499,3500,0,0,
0,0,0,0,0,0,0,0,0,0,0,0,0,0,0,0,0,0,0,0,0,0,0,0,0,0,0,0,0,0,0,0,0,0,0,0,0,0,0,0,0,0,0,0,0,0,0,0,0,0,0,0,0,0,0,0,0,0,0,0,0,0,0,0,0,0,0,0,0,0,0,0,0,0,0,0,0,0,0,0,0,0,0,0,0,0,0,0,0,0,0,0,0,0,0,0,3524,3525,0,3429,
3441,0,0,0,0,0,0,0,0,0,0,0,0,0,0,0,0,0,0,0,0,0,0,0,0,0,0,0,0,0,0,0,0,0,0,0,0,0,0,0,0,0,0,0,0,0,0,0,0,0,0,0,0,0,0,0,0,0,0,0,0,0,0,0,0,0,0,0,0,0,0,0,0,0,0,0,0,0,0,0,0,0,0,0,0,0,0,0,0,0,0,0,0,0,0,0,0,0,0,3454,
3466,0,0,0,0,0,0,0,0,0,0,0,0,0,0,0,0,0,0,0,0,0,0,0,0,0,0,0,0,0,0,0,0,0,0,0,0,0,0,0,0,0,0,0,0,0,0,0,0,0,0,0,0,0,0,0,0,0,0,0,0,0,0,0,0,0,0,0,0,0,0,0,0,0,0,0,0,0,0,0,0,0,0,0,0,0,0,0,0,0,0,0,0,0,0,3439,3440,3441,0,3479,
3491,3439,3440,3441,0,0,0,0,0,0,0,0,0,0,0,0,0,0,0,0,0,0,0,0,0,0,0,0,0,0,0,0,0,0,0,0,0,0,0,0,0,0,0,0,0,0,0,0,0,0,0,0,0,0,0,0,0,0,0,0,0,0,0,0,0,0,0,0,0,0,0,0,0,0,0,0,0,0,0,0,0,0,0,0,0,0,0,0,0,0,0,0,0,0,0,3464,3465,3466,0,3504,
3516,3464,3465,3466,0,0,0,0,0,0,0,0,0,0,0,0,0,0,0,0,0,0,0,0,0,0,0,0,0,0,0,0,0,0,0,0,0,0,0,0,0,0,0,0,0,0,0,0,0,0,0,0,0,0,0,0,0,0,0,0,0,0,0,0,0,0,0,0,0,0,0,0,0,0,0,0,0,0,0,0,0,0,0,0,0,0,0,0,0,0,0,0,0,0,0,3489,3490,3491,0,0,
0,3489,3490,3491,0,0,0,0,0,0,0,0,0,0,0,0,0,0,0,0,0,0,0,0,0,0,0,0,0,0,0,0,0,0,0,0,0,0,0,0,0,0,0,0,0,0,0,0,0,0,0,0,0,0,0,0,0,0,0,0,0,0,0,0,0,0,0,0,0,0,0,0,0,0,0,0,0,0,0,0,0,0,0,0,0,0,0,0,0,0,0,0,0,0,0,3514,3515,3516,0,0,
0,3514,3515,3516,0,0,0,0,0,0,0,0,0,0,0,0,0,0,0,0,0,0,0,0,0,0,0,0,0,0,0,0,0,0,0,0,0,0,0,0,0,0,0,0,0,0,0,0,0,0,0,0,0,0,0,0,0,0,0,0,0,0,0,0,0,0,0,0,0,0,0,0,0,0,0,0,0,0,0,0,0,0,0,0,0,0,0,0,0,0,0,0,0,0,0,0,3540,3541,0,0,
0,0,0,0,0,0,0,0,0,0,0,0,0,0,0,0,0,0,0,0,0,0,0,0,0,0,0,0,0,0,0,0,0,0,0,0,0,0,0,0,0,0,0,0,0,0,0,0,0,0,0,0,0,0,0,0,0,0,0,0,0,0,0,0,0,0,0,0,0,0,0,0,0,0,0,0,0,0,0,0,0,0,0,0,0,0,0,0,0,0,0,0,0,0,0,3564,3565,3566,0,0,
0,0,0,0,0,0,0,0,0,0,0,0,0,0,0,0,0,0,0,0,0,0,0,0,0,0,0,0,0,0,0,0,0,0,0,0,0,0,0,0,0,0,0,0,0,0,0,0,0,0,0,0,0,0,0,0,0,0,0,0,0,0,0,0,0,0,0,0,0,0,0,0,0,0,0,0,0,0,0,0,0,0,0,0,0,0,0,0,0,0,0,0,3564,0,0,0,0,0,0,0,
0,0,0,0,0,0,0,0,0,0,0,0,0,0,0,0,0,0,0,0,0,0,0,0,0,0,0,0,0,0,0,0,0,0,0,0,0,0,0,0,0,0,0,0,0,0,0,0,0,0,0,0,0,0,0,0,0,0,0,0,0,0,0,0,0,0,0,0,0,0,0,0,0,0,0,0,0,0,0,0,0,0,0,0,0,0,0,0,0,0,0,0,0,0,0,0,0,0,0,0,
0,0,0,0,0,0,0,0,0,0,0,0,0,0,0,0,0,0,0,0,0,0,0,0,0,0,0,0,0,0,0,0,0,0,0,0,0,0,0,0,0,0,0,0,0,0,0,0,0,0,0,0,0,0,0,0,0,0,0,0,0,0,0,0,0,0,0,0,0,0,0,0,0,0,0,0,0,0,0,0,0,0,0,0,0,0,0,0,0,0,0,3868,3842,0,0,0,0,0,0,0,
0,0,0,0,0,0,0,0,0,0,0,0,0,0,0,0,0,0,0,0,0,0,0,0,0,0,0,0,0,0,0,0,0,0,0,0,0,0,0,0,0,0,0,0,0,0,0,0,0,0,0,0,0,0,0,0,0,0,0,0,0,0,0,0,0,0,0,0,0,0,0,0,0,0,0,0,0,0,0,0,0,0,0,0,0,0,0,0,0,0,0,3820,370,0,0,0,0,0,0,0,
0,0,0,0,0,0,0,0,0,0,0,0,0,0,0,0,0,0,0,0,0,0,0,0,0,0,0,0,0,0,0,0,0,0,0,0,0,0,0,0,0,0,0,0,0,0,0,0,0,0,0,0,0,0,0,0,0,0,0,0,0,0,0,0,0,0,0,0,0,0,0,0,0,0,0,0,0,0,0,0,0,0,0,0,0,0,0,0,0,0,0,3845,0,0,0,0,0,0,0,0,
0,0,0,0,0,0,0,0,0,0,0,0,0,0,0,0,0,0,0,0,0,0,0,0,0,0,0,0,0,0,0,0,0,0,0,0,0,0,0,0,0,0,0,0,0,0,0,0,0,0,0,0,0,0,0,0,0,0,0,0,0,0,0,0,0,0,0,0,0,0,0,0,0,0,0,0,0,0,0,0,0,0,0,0,0,0,0,0,3429,3430,3431,0,0,0,0,0,0,0,0,0,
0,0,0,0,0,0,0,0,0,0,0,0,0,0,0,0,0,0,0,0,0,0,0,0,0,0,0,0,0,0,0,0,0,0,0,0,0,0,0,0,0,0,0,0,0,0,0,0,0,0,0,0,0,0,0,0,0,0,0,0,0,0,0,0,0,0,0,0,0,0,0,0,0,0,0,0,0,0,0,0,0,0,0,0,0,0,0,0,3454,3455,3456,0,0,0,0,0,0,0,0,0,
0,0,0,0,0,0,0,0,0,0,0,0,0,0,0,0,0,0,0,0,0,0,0,0,0,0,0,0,0,0,0,0,0,0,0,0,0,0,0,0,0,0,0,0,0,0,0,0,0,0,0,0,0,0,0,0,0,0,0,0,0,0,0,0,0,0,0,0,0,0,0,0,0,0,0,0,0,0,0,0,0,0,0,0,0,0,0,0,0,0,0,0,0,0,0,0,0,0,0,0,
0,0,0,0,0,0,0,0,0,0,0,0,0,0,0,0,0,0,0,0,0,0,0,0,0,0,0,0,0,0,0,0,0,0,0,0,0,0,0,0,0,0,0,0,0,0,0,0,0,0,0,0,0,0,0,0,0,0,0,0,0,0,0,0,0,0,0,0,0,0,0,0,0,0,0,0,0,0,0,0,0,0,0,0,0,0,0,3517,3518,0,0,0,0,0,0,3787,3789,0,0,0,
0,0,0,0,0,0,0,0,0,0,0,0,0,0,0,0,0,0,0,0,0,0,0,0,0,0,0,0,0,0,0,0,0,0,0,0,0,0,0,0,0,0,0,0,0,0,0,0,0,0,0,0,0,0,0,0,0,0,0,0,0,0,0,0,0,0,0,0,0,0,0,0,0,0,0,0,0,0,0,0,0,0,0,0,0,0,0,3542,3543,0,0,0,0,0,0,3812,3814,0,0,0,
0,0,0,0,0,0,0,0,0,0,0,0,0,0,0,0,0,0,0,0,0,0,0,0,0,0,0,0,0,0,0,0,0,0,0,0,0,0,0,0,0,0,0,0,0,0,0,0,0,0,0,0,0,0,0,0,0,0,0,0,0,0,0,0,0,0,0,0,0,0,0,0,0,0,0,0,0,0,0,0,0,0,0,0,0,0,0,0,0,0,0,0,0,0,0,0,0,0,3432,3433,
0,0,0,0,0,0,0,0,0,0,0,0,0,0,0,0,0,0,0,0,0,0,0,0,0,0,0,0,0,0,0,0,0,0,0,0,0,0,0,0,0,0,0,0,0,0,0,0,0,0,0,0,0,0,0,0,0,0,0,0,0,0,0,0,0,0,0,0,0,0,0,0,0,0,0,0,0,0,0,0,0,0,0,0,0,0,0,3580,3804,3805,0,0,0,0,0,0,0,0,3457,3458,
0,3439,3440,3441,0,0,0,0,0,0,0,0,0,0,0,0,0,0,0,0,0,0,0,0,0,0,0,0,0,0,0,0,0,0,0,0,0,0,0,0,0,0,0,0,0,0,0,0,0,0,0,0,0,0,0,0,0,0,0,0,0,0,0,0,0,0,0,0,0,0,0,0,0,0,0,0,0,0,0,0,0,0,0,0,0,0,0,3875,5063,5064,0,0,0,0,0,0,0,0,3482,3483,
0,3464,3465,3466,0,0,0,0,0,0,0,0,0,0,0,0,0,0,0,0,0,0,0,0,0,0,0,0,0,0,0,0,0,0,0,0,0,0,0,0,0,0,0,0,0,0,0,0,0,0,0,0,0,0,0,0,0,0,0,0,0,0,0,0,0,0,0,0,0,0,0,0,0,0,0,0,0,0,0,0,0,0,0,0,0,0,0,0,5088,0,0,0,0,0,0,0,0,0,3507,3508,
0,3489,3490,3491,0,0,0,3514,0,0,0,0,0,0,0,0,0,0,0,0,0,0,0,0,0,0,0,0,0,0,0,0,0,0,0,0,0,0,0,0,0,0,0,0,0,0,0,0,0,0,0,0,0,0,0,0,0,0,0,0,0,0,0,0,0,0,0,0,0,0,0,0,0,0,0,0,0,0,0,0,0,0,0,0,0,0,0,0,0,0,0,0,0,0,0,0,0,0,0,0,
0,3514,3515,3516,0,0,0,0,0,3531,0,0,0,0,0,0,0,0,0,0,0,0,0,0,0,0,0,0,0,0,0,0,0,0,0,0,0,0,0,0,0,0,0,0,0,0,0,0,0,0,0,0,0,0,0,0,0,0,0,0,0,0,0,0,0,0,0,0,0,0,0,0,0,0,0,0,0,0,0,0,0,0,0,0,0,0,0,0,0,0,0,0,0,0,0,0,0,0,0,0,
0,3532,3540,3534,0,0,0,3554,0,0,0,0,0,0,0,0,0,0,0,0,0,0,0,0,0,0,0,0,0,0,0,0,0,0,0,0,0,0,0,0,0,0,0,0,0,0,0,0,0,0,0,0,0,0,0,0,0,0,0,0,0,0,0,0,0,0,0,0,0,0,0,0,0,0,0,0,0,0,0,0,0,0,0,0,0,0,0,0,0,0,0,0,0,0,0,0,0,0,0,0,
0,3557,3565,3559,0,0,0,0,0,0,0,0,0,0,0,0,0,0,0,0,0,0,0,0,0,0,0,0,0,0,0,0,0,0,0,0,0,0,0,0,0,0,0,0,0,0,0,0,0,0,0,0,0,0,0,0,0,0,0,0,0,0,0,0,0,0,0,0,0,0,0,0,0,0,0,0,0,0,0,0,0,0,0,0,0,0,0,0,0,0,0,0,0,3820,0,0,0,0,0,0,
3445,3446,3447,3448,3449,3450,0,0,0,0,0,0,0,0,0,0,0,0,0,0,0,0,0,0,0,0,0,0,0,0,0,0,0,0,0,0,0,0,0,0,0,0,0,0,0,0,0,0,0,0,0,0,0,0,0,0,0,0,0,0,0,0,0,0,0,0,0,0,0,0,0,0,0,0,0,0,0,0,0,0,0,0,0,0,0,0,0,0,0,0,0,0,0,0,0,0,0,0,0,0,
3470,3471,3472,3473,3474,3475,0,0,0,0,0,0,0,0,0,0,0,0,0,0,0,0,0,0,0,0,0,0,0,0,0,0,0,0,0,0,0,0,0,0,0,0,0,0,0,0,0,0,0,0,0,0,0,0,0,0,0,0,0,0,0,0,0,0,0,0,0,0,0,0,0,0,0,0,0,0,0,0,0,0,0,0,0,0,0,0,0,0,0,0,0,0,0,0,0,0,0,0,0,0,
3495,3496,3497,3498,3499,3500,0,0,0,0,0,0,0,0,0,0,0,0,0,0,0,0,0,0,0,0,0,0,0,0,0,0,0,0,0,0,0,0,0,0,0,0,0,0,0,0,0,0,0,0,0,0,0,0,0,0,0,0,0,0,0,0,0,0,0,0,0,0,0,0,0,0,0,0,0,0,0,0,0,0,0,0,0,0,0,0,0,0,0,0,3736,0,0,0,0,0,0,0,0,0,
3520,3521,3522,3523,3524,3525,0,0,0,0,0,0,0,0,0,0,0,0,0,0,0,0,0,0,0,0,0,0,0,0,0,0,0,0,0,0,0,0,0,0,0,0,0,0,0,0,0,0,0,0,0,0,0,0,0,0,0,0,0,0,0,0,0,0,0,0,0,0,0,0,0,0,0,0,0,0,0,0,0,0,0,0,0,0,0,0,0,0,3820,3579,0,3479,3480,3481,0,0,0,0,0,0,
3545,0,3547,3548,0,0,0,0,0,0,0,0,0,0,0,0,0,0,0,0,0,0,0,0,0,0,0,0,0,0,0,0,0,0,0,0,0,0,0,0,0,0,0,0,0,0,0,0,0,0,0,0,0,0,0,0,0,0,0,0,0,0,0,0,0,0,0,0,0,0,0,0,0,0,0,0,0,0,0,0,0,0,0,0,0,0,0,0,0,0,0,3504,3505,3506,0,0,0,0,0,0,
0,0,3572,3573,0,0,0,0,0,0,0,0,0,0,0,0,0,0,0,0,0,0,0,0,0,0,0,0,0,0,0,0,0,0,0,0,0,0,0,0,0,0,0,0,0,0,0,0,0,0,0,0,0,0,0,0,0,0,0,0,0,0,0,0,0,0,0,0,0,0,0,0,0,0,0,0,0,0,0,0,0,0,0,0,0,0,0,0,0,0,0,0,0,0,0,0,0,0,0,0,
0,0,3597,3598,0,0,0,0,0,0,0,0,0,0,0,0,0,0,0,0,0,0,0,0,0,0,0,0,0,0,0,0,0,0,0,0,0,0,0,0,0,0,0,0,0,0,0,0,0,0,0,0,0,0,0,0,0,0,0,0,0,0,0,0,0,0,0,0,0,0,0,0,0,0,0,0,0,0,0,0,0,0,0,0,0,0,0,0,3517,3518,0,0,0,0,0,0,0,0,0,0,
0,0,0,0,0,0,0,0,0,0,0,0,0,0,0,0,0,0,0,0,0,0,0,0,0,0,0,0,0,0,0,0,0,0,0,0,0,0,0,0,0,0,0,0,0,0,0,0,0,0,0,0,0,0,0,0,0,0,0,0,0,0,0,0,0,0,0,0,0,0,0,0,0,0,0,0,0,0,0,0,0,0,0,0,0,0,0,0,3542,3543,0,0,0,0,0,0,0,0,0,0,
3441,0,0,0,0,0,0,0,0,0,0,0,0,0,0,0,0,0,0,0,0,0,0,0,0,0,0,0,0,0,0,0,0,0,0,0,0,0,0,0,0,0,0,0,0,0,0,0,0,0,0,0,0,0,0,0,0,0,0,0,0,0,0,0,0,0,0,0,0,0,0,0,0,0,0,0,0,0,0,0,0,0,0,0,0,0,0,0,0,0,0,0,0,0,0,0,0,0,0,0,
3466,0,0,0,0,0,0,0,0,0,3787,3788,3788,3788,3788,3788,3788,3788,3788,3838,3788,3788,3788,3788,3788,3788,3788,3788,3788,3788,3788,3788,3788,3788,3788,3788,3788,3788,3788,3788,3788,3788,3788,3788,3788,3788,3788,3788,3788,3788,3789,3790,0,0,3790,3787,3788,3788,3788,3788,3788,3788,3788,3788,3788,3788,3788,3788,3788,3838,3788,3788,3788,3788,3788,3788,3788,3788,3788,3788,3788,3788,3838,3788,3788,3788,3788,3629,0,0,0,0,0,0,0,0,0,3445,3446,3447,
3491,0,0,0,0,0,0,0,0,0,3812,3813,3813,3813,3813,3813,3813,3813,3813,3813,3813,3813,3813,3813,3813,3813,3813,3813,3813,3813,3813,3813,3813,3813,3813,3813,3813,3813,3813,3813,3813,3813,3813,3813,3813,3813,3813,3813,3813,3813,3814,3815,0,0,3815,3812,3813,3813,3813,3813,3813,3813,3813,3813,3813,3813,3813,3813,3813,3813,3813,3813,3813,3813,3813,3813,3813,3813,3813,3813,3813,3813,3863,3813,3813,3813,3820,0,3450,0,0,0,0,0,0,0,0,3470,3471,3472,
3516,0,0,3445,3446,3447,3448,3449,3450,0,3464,3465,3466,0,0,0,0,0,0,0,0,0,0,3489,3490,3491,0,0,0,0,0,0,0,0,0,0,0,0,0,0,0,0,0,3457,3458,3459,3445,3446,3447,3448,3449,3450,0,0,0,3454,3455,3456,0,0,0,0,0,3489,3490,3491,0,0,0,0,0,0,0,0,0,0,0,0,0,0,0,0,0,3470,3471,3472,3473,3474,3475,0,0,0,0,0,0,0,0,3495,3496,3497,
0,0,0,3470,3471,3472,3473,3474,3475,0,3489,3490,3491,0,0,0,0,0,0,0,0,0,0,3514,3515,3516,0,0,0,0,0,0,0,0,0,0,0,0,0,0,0,0,0,3482,3483,3484,3470,3471,3472,3473,3474,3475,0,0,0,3479,3480,3481,0,0,0,0,0,3514,3515,3516,0,0,0,0,0,0,0,3445,3446,3447,3448,3449,3450,0,0,0,0,3495,3496,3497,3498,3499,3500,0,0,0,0,0,0,0,0,3520,3521,3522,
0,0,0,3495,3496,3497,3498,3499,3500,0,3514,3515,3516,3439,3440,3441,0,0,0,0,0,0,0,0,3540,0,0,0,3439,3440,3441,0,0,0,0,0,0,0,0,0,0,0,0,3507,3508,3509,3495,3496,3497,3498,3499,3500,0,0,0,3504,3505,3506,0,0,0,0,0,0,3540,0,0,0,0,0,0,0,0,3470,3471,3472,3473,3474,3475,0,0,0,0,3520,3521,3522,3523,3524,3525,0,0,0,0,0,0,0,0,3545,0,3547,
0,0,0,3520,3521,3522,3523,3524,3525,0,0,3540,0,3464,3465,3466,0,0,0,0,0,0,0,0,3565,0,0,0,3464,3465,3466,0,0,0,0,0,0,0,0,0,0,0,0,3532,3533,3534,3520,3521,3522,3523,3524,3525,0,0,0,0,0,0,0,0,0,0,0,0,3565,0,0,0,0,0,0,0,0,3495,3496,3497,3498,3499,3500,0,0,0,0,3545,0,3547,3548,0,0,0,0,0,0,0,0,0,0,0,0,3572,
0,0,0,3545,0,3547,3548,0,0,0,0,3565,0,3489,3490,3491,0,0,0,3439,3440,3441,0,0,0,0,0,0,3489,3490,3491,3439,3440,3441,0,0,0,0,0,0,3429,3430,3431,3557,3558,3559,3545,0,3547,3548,0,0,0,0,0,0,3439,3440,3441,0,0,0,0,0,0,0,0,0,0,0,0,0,0,3520,3521,3522,3523,3524,3525,0,0,0,0,0,0,3572,3573,0,0,0,0,0,0,0,0,0,0,0,0,3597,
0,0,0,0,0,3572,3573,0,3439,3440,3441,0,0,3514,3515,3516,0,0,0,3464,3465,3466,0,0,0,0,0,0,3514,3515,3516,3464,3465,3466,0,0,0,0,0,0,3454,3455,3456,0,3439,3440,3441,0,3572,3573,0,0,0,0,0,0,3464,3465,3466,0,0,0,0,0,0,0,0,0,0,0,0,3439,3440,3441,0,3547,3548,0,0,0,0,0,0,0,0,3597,3598,0,0,0,0,0,0,0,0,0,0,0,0,0
</data>
 </layer>
 <layer id="8" name="AlwaysFront2" width="100" height="75">
  <properties>
   <property name="Draw" value="AlwaysFront"/>
  </properties>
  <data encoding="csv">
0,0,0,0,0,0,0,0,0,0,0,0,0,0,0,0,0,0,0,0,0,0,0,0,0,0,0,0,0,0,0,0,0,0,0,0,0,0,0,0,0,0,0,0,0,0,0,0,0,0,0,0,0,0,0,0,0,0,0,0,0,0,0,0,0,0,0,0,0,0,0,0,0,0,0,0,0,0,0,0,0,0,0,0,0,0,0,0,0,0,0,0,0,0,0,0,0,0,0,0,
0,0,0,0,0,0,0,0,0,0,0,0,0,0,0,0,0,0,0,0,0,0,0,0,0,0,0,0,0,0,0,0,0,0,0,0,0,0,0,0,0,0,0,0,0,0,0,0,0,0,0,0,0,0,0,0,0,0,0,0,0,0,0,0,0,0,0,0,0,0,0,0,0,0,0,0,0,0,0,0,0,0,0,0,0,0,0,0,0,0,0,0,0,0,0,0,0,0,0,0,
0,0,0,0,0,0,0,0,0,0,0,0,0,0,0,0,0,0,0,0,0,0,0,0,0,0,0,0,0,0,0,0,0,0,0,0,0,0,0,0,0,0,0,0,0,0,0,0,0,0,0,0,0,0,0,0,0,0,0,0,0,0,0,0,0,0,0,0,0,0,0,0,0,0,0,0,0,0,0,0,0,0,0,0,0,0,0,0,0,0,0,0,0,0,0,0,0,0,0,0,
0,0,0,0,0,0,0,0,0,0,0,0,0,0,0,0,0,0,0,0,0,0,0,0,0,0,0,0,0,0,0,0,0,0,0,0,0,0,0,0,0,0,0,0,0,0,0,0,0,0,0,0,0,0,0,0,0,0,0,0,0,0,0,0,0,0,0,0,0,0,0,0,0,0,0,0,0,0,0,0,0,0,0,0,0,0,0,0,0,0,0,0,0,0,0,0,0,0,0,0,
0,0,0,0,0,0,0,0,0,0,0,0,0,0,0,0,0,0,0,0,0,0,0,0,0,0,0,0,0,0,0,0,0,0,0,0,0,0,0,0,0,0,0,0,0,0,0,0,0,0,0,0,0,0,0,0,0,0,0,0,0,0,0,0,0,0,0,0,0,0,0,0,0,0,0,0,0,0,0,0,0,0,0,0,0,0,0,0,0,0,0,0,0,0,0,0,0,0,0,0,
0,0,0,0,0,0,0,0,0,0,0,0,0,0,0,0,0,0,0,0,0,0,0,0,0,0,0,0,0,0,0,0,0,0,0,0,0,0,0,0,0,0,0,0,0,0,0,0,0,0,0,0,0,0,0,0,0,0,0,0,0,0,0,0,0,0,0,0,0,0,0,0,0,0,0,0,0,0,0,0,0,0,0,0,0,0,0,0,0,0,0,0,0,0,0,0,0,0,0,0,
0,0,0,0,0,0,0,0,0,0,0,0,0,0,0,0,0,0,0,0,0,0,0,0,0,0,0,0,0,0,0,0,0,0,0,0,0,0,0,0,0,0,0,0,0,0,0,0,0,0,0,0,0,0,0,0,0,0,0,0,0,0,0,0,0,0,0,0,0,0,0,0,0,0,0,0,0,0,0,0,0,0,0,0,0,0,0,0,0,0,0,0,0,0,0,0,0,0,0,0,
0,0,0,0,0,0,0,0,0,0,0,0,0,0,0,0,0,0,0,0,0,0,0,0,0,0,0,0,0,0,0,0,0,0,0,0,0,0,0,0,0,0,0,0,0,0,0,0,0,0,0,0,0,0,0,0,0,0,0,0,0,0,0,0,0,0,0,0,0,0,0,0,0,0,0,0,0,0,0,0,0,0,0,0,0,0,0,0,0,0,0,0,0,0,0,0,0,0,0,0,
0,0,0,0,0,0,0,0,0,0,0,0,0,0,0,0,0,0,0,0,0,0,0,0,0,0,0,0,0,0,0,0,0,0,0,0,0,0,0,0,0,0,0,0,0,0,0,0,0,0,0,0,0,0,0,0,0,0,0,0,0,0,0,0,0,0,0,0,0,0,0,0,0,0,0,0,0,0,0,0,0,0,0,0,0,0,0,0,0,0,0,0,0,0,0,0,0,0,0,0,
0,0,0,0,0,0,0,0,0,0,0,0,0,0,0,0,0,0,0,0,0,0,0,0,0,0,0,0,0,0,0,0,0,0,0,0,0,0,0,0,0,0,0,0,0,0,0,0,0,0,0,0,0,0,0,0,0,0,0,0,0,0,0,0,0,0,0,0,0,0,0,0,0,0,0,0,0,0,0,0,0,0,0,0,0,0,0,0,0,0,0,0,0,0,0,0,0,0,0,0,
0,0,0,0,0,0,0,0,0,0,0,0,0,0,0,0,0,0,0,0,0,0,0,0,0,0,0,0,0,0,0,0,0,0,0,0,0,0,0,0,0,0,0,0,0,0,0,0,0,0,0,0,0,0,0,0,0,0,0,0,0,0,0,0,0,0,0,0,0,0,0,0,0,0,0,0,0,0,0,0,0,0,0,0,0,0,0,0,0,0,0,0,0,0,0,0,0,0,0,0,
0,0,0,0,0,0,0,0,0,0,0,0,0,0,0,0,0,0,0,0,0,0,0,0,0,0,0,0,0,0,0,0,0,0,0,0,0,0,0,0,0,0,0,0,0,0,0,0,0,0,0,0,0,0,0,0,0,0,0,0,0,0,0,0,0,0,0,0,0,0,0,0,0,0,0,0,0,0,0,0,0,0,0,0,0,0,0,0,0,0,0,0,0,0,0,0,0,0,0,0,
0,0,0,0,0,0,0,0,0,0,0,0,0,0,0,0,0,0,0,0,0,0,0,0,0,0,0,0,0,0,0,0,0,0,0,0,0,0,0,0,0,0,0,0,0,0,0,0,0,0,0,0,0,0,0,0,0,0,0,0,0,0,0,0,0,0,0,0,0,0,0,0,0,0,0,0,0,0,0,0,0,0,0,0,0,0,0,0,0,0,0,0,0,0,0,0,0,0,0,0,
0,0,0,0,0,0,0,0,0,0,0,0,0,0,0,0,0,0,0,0,0,0,0,0,0,0,0,0,0,0,0,0,0,0,0,0,0,0,0,0,0,0,0,0,0,0,0,0,0,0,0,0,0,0,0,0,0,0,0,0,0,0,0,0,0,0,0,0,0,0,0,0,0,0,0,0,0,0,0,0,0,0,0,0,0,0,0,0,0,0,0,0,0,0,0,0,0,0,0,0,
0,0,0,0,0,0,0,0,0,0,0,0,0,0,0,0,0,0,0,0,0,0,0,0,0,0,0,0,0,0,0,0,0,0,0,0,0,0,0,0,0,0,0,0,0,0,0,0,0,0,0,0,0,0,0,0,0,0,0,0,0,0,0,0,0,0,0,0,0,0,0,0,0,0,0,0,0,0,0,0,0,0,0,0,0,0,0,0,0,0,0,0,0,0,0,0,0,0,0,0,
0,0,0,0,0,0,0,0,0,0,0,0,0,0,0,0,0,0,0,0,0,0,0,0,0,0,0,0,0,0,0,0,0,0,0,0,0,0,0,0,0,0,0,0,0,0,0,0,0,0,0,0,0,0,0,0,0,0,0,0,0,0,0,0,0,0,0,0,0,0,0,0,0,0,0,0,0,0,0,0,0,0,0,0,0,0,0,0,0,0,0,0,0,0,0,0,0,0,0,0,
0,0,0,0,0,0,0,0,0,0,0,0,0,0,0,0,0,0,0,0,0,0,0,0,0,0,0,0,0,0,0,0,0,0,0,0,0,0,0,0,0,0,0,0,0,0,0,0,0,0,0,0,0,0,0,0,0,0,0,0,0,0,0,0,0,0,0,0,0,0,0,0,0,0,0,0,0,0,0,0,0,0,0,0,0,0,0,0,0,0,0,0,0,0,0,0,0,0,0,0,
0,0,0,0,0,0,0,0,0,0,0,0,0,0,0,0,0,0,0,0,0,0,0,0,0,0,0,0,0,0,0,0,0,0,0,0,0,0,0,0,0,0,0,0,0,0,0,0,0,0,0,0,0,0,0,0,0,0,0,0,0,0,0,0,0,0,0,0,0,0,0,0,0,0,0,0,0,0,0,0,0,0,0,0,0,0,0,0,0,0,0,0,0,0,0,0,0,0,0,0,
0,0,0,0,0,0,0,0,0,0,0,0,0,0,0,0,0,0,0,0,0,0,0,0,0,0,0,0,0,0,0,0,0,0,0,0,0,0,0,0,0,0,0,0,0,0,0,0,0,0,0,0,0,0,0,0,0,0,0,0,0,0,0,0,0,0,0,0,0,0,0,0,0,0,0,0,0,0,0,0,0,0,0,0,0,0,0,0,0,0,0,0,0,0,0,0,0,0,0,0,
0,0,0,0,0,0,0,0,0,0,0,0,0,0,0,0,0,0,0,0,0,0,0,0,0,0,0,0,0,0,0,0,0,0,0,0,0,0,0,0,0,0,0,0,0,0,0,0,0,0,0,0,0,0,0,0,0,0,0,0,0,0,0,0,0,0,0,0,0,0,0,0,0,0,0,0,0,0,0,0,0,0,0,0,0,0,0,0,0,0,0,0,0,0,0,0,0,0,0,0,
0,0,0,0,0,0,0,0,0,0,0,0,0,0,0,0,0,0,0,0,0,0,0,0,0,0,0,0,0,0,0,0,0,0,0,0,0,0,0,0,0,0,0,0,0,0,0,0,0,0,0,0,0,0,0,0,0,0,0,0,0,0,0,0,0,0,0,0,0,0,0,0,0,0,0,0,0,0,0,0,0,0,0,0,0,0,0,0,0,0,0,0,0,0,0,0,0,0,0,0,
0,0,0,0,0,0,0,0,0,0,0,0,0,0,0,0,0,0,0,0,0,0,0,0,0,0,0,0,0,0,0,0,0,0,0,0,0,0,0,0,0,0,0,0,0,0,0,0,0,0,0,0,0,0,0,0,0,0,0,0,0,0,0,0,0,0,0,0,0,0,0,0,0,0,0,0,0,0,0,0,0,0,0,0,0,0,0,0,0,0,0,0,0,0,0,0,0,0,0,0,
0,0,0,0,0,0,0,0,0,0,0,0,0,0,0,0,0,0,0,0,0,0,0,0,0,0,0,0,0,0,0,0,0,0,0,0,0,0,0,0,0,0,0,0,0,0,0,0,0,0,0,0,0,0,0,0,0,0,0,0,0,0,0,0,0,0,0,0,0,0,0,0,0,0,0,0,0,0,0,0,0,0,0,0,0,0,0,0,0,0,0,0,0,0,0,0,0,0,0,0,
0,0,0,0,0,0,0,0,0,0,0,0,0,0,0,0,0,0,0,0,0,0,0,0,0,0,0,0,0,0,0,0,0,0,0,0,0,0,0,0,0,0,0,0,0,0,0,0,0,0,0,0,0,0,0,0,0,0,0,0,0,0,0,0,0,0,0,0,0,0,0,0,0,0,0,0,0,0,0,0,0,0,0,0,0,0,0,0,0,0,0,0,0,0,0,0,0,0,0,0,
0,0,0,0,0,0,0,0,0,0,0,0,0,0,0,0,0,0,0,0,0,0,0,0,0,0,0,0,0,0,0,0,0,0,0,0,0,0,0,0,0,0,0,0,0,0,0,0,0,0,0,0,0,0,0,0,0,0,0,0,0,0,0,0,0,0,0,0,0,0,0,0,0,0,0,0,0,0,0,0,0,0,0,0,0,0,0,0,0,0,0,0,0,0,0,0,0,0,0,0,
0,0,0,0,0,0,0,0,0,0,0,0,0,0,0,0,0,0,0,0,0,0,0,0,0,0,0,0,0,0,0,0,0,0,0,0,0,0,0,0,0,0,0,0,0,0,0,0,0,0,0,0,0,0,0,0,0,0,0,0,0,0,0,0,0,0,0,0,0,0,0,0,0,0,0,0,0,0,0,0,0,0,0,0,0,0,0,0,0,0,0,0,0,0,0,0,0,0,0,0,
0,0,0,0,0,0,0,0,0,0,0,0,0,0,0,0,0,0,0,0,0,0,0,0,0,0,0,0,0,0,0,0,0,0,0,0,0,0,0,0,0,0,0,0,0,0,0,0,0,0,0,0,0,0,0,0,0,0,0,0,0,0,0,0,0,0,0,0,0,0,0,0,0,0,0,0,0,0,0,0,0,0,0,0,0,0,0,0,0,0,0,0,0,0,0,0,0,0,0,0,
0,0,0,0,0,0,0,0,0,0,0,0,0,0,0,0,0,0,0,0,0,0,0,0,0,0,0,0,0,0,0,0,0,0,0,0,0,0,0,0,0,0,0,0,0,0,0,0,0,0,0,0,0,0,0,0,0,0,0,0,0,0,0,0,0,0,0,0,0,0,0,0,0,0,0,0,0,0,0,0,0,0,0,0,0,0,0,0,0,0,0,0,0,0,0,0,0,0,0,0,
0,0,0,0,0,0,0,0,0,0,0,0,0,0,0,0,0,0,0,0,0,0,0,0,0,0,0,0,0,0,0,0,0,0,0,0,0,0,0,0,0,0,0,0,0,0,0,0,0,0,0,0,0,0,0,0,0,0,0,0,0,0,0,0,0,0,0,0,0,0,0,0,0,0,0,0,0,0,0,0,0,0,0,0,0,0,0,0,0,0,0,0,0,0,0,0,0,0,0,0,
0,0,0,0,0,0,0,0,0,0,0,0,0,0,0,0,0,0,0,0,0,0,0,0,0,0,0,0,0,0,0,0,0,0,0,0,0,0,0,0,0,0,0,0,0,0,0,0,0,0,0,0,0,0,0,0,0,0,0,0,0,0,0,0,0,0,0,0,0,0,0,0,0,0,0,0,0,0,0,0,0,0,0,0,0,0,0,0,0,0,0,0,0,0,0,0,0,0,0,0,
0,0,0,0,0,0,0,0,0,0,0,0,0,0,0,0,0,0,0,0,0,0,0,0,0,0,0,0,0,0,0,0,0,0,0,0,0,0,0,0,0,0,0,0,0,0,0,0,0,0,0,0,0,0,0,0,0,0,0,0,0,0,0,0,0,0,0,0,0,0,0,0,0,0,0,0,0,0,0,0,0,0,0,0,0,0,0,0,0,0,0,0,0,0,0,0,0,0,0,0,
0,0,0,0,0,0,0,0,0,0,0,0,0,0,0,0,0,0,0,0,0,0,0,0,0,0,0,0,0,0,0,0,0,0,0,0,0,0,0,0,0,0,0,0,0,0,0,0,0,0,0,0,0,0,0,0,0,0,0,0,0,0,0,0,0,0,0,0,0,0,0,0,0,0,0,0,0,0,0,0,0,0,0,0,0,0,0,0,0,0,0,0,0,0,0,0,0,0,0,0,
0,0,0,0,0,0,0,0,0,0,0,0,0,0,0,0,0,0,0,0,0,0,0,0,0,0,0,0,0,0,0,0,0,0,0,0,0,0,0,0,0,0,0,0,0,0,0,0,0,0,0,0,0,0,0,0,0,0,0,0,0,0,0,0,0,0,0,0,0,0,0,0,0,0,0,0,0,0,0,0,0,0,0,0,0,0,0,0,0,0,0,0,0,0,0,0,0,0,0,0,
0,0,0,0,0,0,0,0,0,0,0,0,0,0,0,0,0,0,0,0,0,0,0,0,0,0,0,0,0,0,0,0,0,0,0,0,0,0,0,0,0,0,0,0,0,0,0,0,0,0,0,0,0,0,0,0,0,0,0,0,0,0,0,0,0,0,0,0,0,0,0,0,0,0,0,0,0,0,0,0,0,0,0,0,0,0,0,0,0,0,0,0,0,0,0,0,0,0,0,0,
0,0,0,0,0,0,0,0,0,0,0,0,0,0,0,0,0,0,0,0,0,0,0,0,0,0,0,0,0,0,0,0,0,0,0,0,0,0,0,0,0,0,0,0,0,0,0,0,0,0,0,0,0,0,0,0,0,0,0,0,0,0,0,0,0,0,0,0,0,0,0,0,0,0,0,0,0,0,0,0,0,0,0,0,0,0,0,0,0,0,0,0,0,0,0,0,0,0,0,0,
0,0,0,0,0,0,0,0,0,0,0,0,0,0,0,0,0,0,0,0,0,0,0,0,0,0,0,0,0,0,0,0,0,0,0,0,0,0,0,0,0,0,0,0,0,0,0,0,0,0,0,0,0,0,0,0,0,0,0,0,0,0,0,0,0,0,0,0,0,0,0,0,0,0,0,0,0,0,0,0,0,0,0,0,0,0,0,0,0,0,0,0,0,0,0,0,0,0,0,0,
0,0,0,0,0,0,0,0,0,0,0,0,0,0,0,0,0,0,0,0,0,0,0,0,0,0,0,0,0,0,0,0,0,0,0,0,0,0,0,0,0,0,0,0,0,0,0,0,0,0,0,0,0,0,0,0,0,0,0,0,0,0,0,0,0,0,0,0,0,0,0,0,0,0,0,0,0,0,0,0,0,0,0,0,0,0,0,0,0,0,0,0,0,0,0,0,0,0,0,0,
0,0,0,0,0,0,0,0,0,0,0,0,0,0,0,0,0,0,0,0,0,0,0,0,0,0,0,0,0,0,0,0,0,0,0,0,0,0,0,0,0,0,0,0,0,0,0,0,0,0,0,0,0,0,0,0,0,0,0,0,0,0,0,0,0,0,0,0,0,0,0,0,0,0,0,0,0,0,0,0,0,0,0,0,0,0,0,0,0,0,0,0,0,0,0,0,0,0,0,0,
0,0,0,0,0,0,0,0,0,0,0,0,0,0,0,0,0,0,0,0,0,0,0,0,0,0,0,0,0,0,0,0,0,0,0,0,0,0,0,0,0,0,0,0,0,0,0,0,0,0,0,0,0,0,0,0,0,0,0,0,0,0,0,0,0,0,0,0,0,0,0,0,0,0,0,0,0,0,0,0,0,0,0,0,0,0,0,0,0,0,0,0,0,0,0,0,0,0,0,0,
0,0,0,0,0,0,0,0,0,0,0,0,0,0,0,0,0,0,0,0,0,0,0,0,0,0,0,0,0,0,0,0,0,0,0,0,0,0,0,0,0,0,0,0,0,0,0,0,0,0,0,0,0,0,0,0,0,0,0,0,0,0,0,0,0,0,0,0,0,0,0,0,0,0,0,0,0,0,0,0,0,0,0,0,0,0,0,0,0,0,0,0,0,0,0,0,0,0,0,0,
0,0,0,0,0,0,0,0,0,0,0,0,0,0,0,0,0,0,0,0,0,0,0,0,0,0,0,0,0,0,0,0,0,0,0,0,0,0,0,0,0,0,0,0,0,0,0,0,0,0,0,0,0,0,0,0,0,0,0,0,0,0,0,0,0,0,0,0,0,0,0,0,0,0,0,0,0,0,0,0,0,0,0,0,0,0,0,0,0,0,0,0,3432,3433,3434,0,0,0,0,0,
0,0,0,0,0,0,0,0,0,0,0,0,0,0,0,0,0,0,0,0,0,0,0,0,0,0,0,0,0,0,0,0,0,0,0,0,0,0,0,0,0,0,0,0,0,0,0,0,0,0,0,0,0,0,0,0,0,0,0,0,0,0,0,0,0,0,0,0,0,0,0,0,0,0,0,0,0,0,0,0,0,0,0,0,0,0,0,0,0,0,0,0,3457,3458,3459,0,0,0,0,0,
0,0,0,0,0,0,0,0,0,0,0,0,0,0,0,0,0,0,0,0,0,0,0,0,0,0,0,0,0,0,0,0,0,0,0,0,0,0,0,0,0,0,0,0,0,0,0,0,0,0,0,0,0,0,0,0,0,0,0,0,0,0,0,0,0,0,0,0,0,0,0,0,0,0,0,0,0,0,0,0,0,0,0,0,0,0,0,0,0,0,0,0,3482,3483,3484,0,0,0,0,0,
0,0,0,0,0,0,0,0,0,0,0,0,0,0,0,0,0,0,0,0,0,0,0,0,0,0,0,0,0,0,0,0,0,0,0,0,0,0,0,0,0,0,0,0,0,0,0,0,0,0,0,0,0,0,0,0,0,0,0,0,0,0,0,0,0,0,0,0,0,0,0,0,0,0,0,0,0,0,0,0,0,0,0,0,0,0,0,0,0,0,0,0,3507,3508,3509,0,0,0,0,0,
0,0,0,0,0,0,0,0,0,0,0,0,0,0,0,0,0,0,0,0,0,0,0,0,0,0,0,0,0,0,0,0,0,0,0,0,0,0,0,0,0,0,0,0,0,0,0,0,0,0,0,0,0,0,0,0,0,0,0,0,0,0,0,0,0,0,0,0,0,0,0,0,0,0,0,0,0,0,0,0,0,0,0,0,0,0,0,0,0,0,0,0,0,0,0,0,0,0,0,0,
0,0,0,0,0,0,0,0,0,0,0,0,0,0,0,0,0,0,0,0,0,0,0,0,0,0,0,0,0,0,0,0,0,0,0,0,0,0,0,0,0,0,0,0,0,0,0,0,0,0,0,0,0,0,0,0,0,0,0,0,0,0,0,0,0,0,0,0,0,0,0,0,0,0,0,0,0,0,0,0,0,0,0,0,0,0,0,0,0,0,0,0,0,0,0,0,0,0,0,0,
0,0,0,0,0,0,0,0,0,0,0,0,0,0,0,0,0,0,0,0,0,0,0,0,0,0,0,0,0,0,0,0,0,0,0,0,0,0,0,0,0,0,0,0,0,0,0,0,0,0,0,0,0,0,0,0,0,0,0,0,0,0,0,0,0,0,0,0,0,0,0,0,0,0,0,0,0,0,0,0,0,0,0,0,0,0,0,0,0,0,0,3517,3518,0,0,0,0,0,0,0,
0,0,0,0,0,0,0,0,0,0,0,0,0,0,0,0,0,0,0,0,0,0,0,0,0,0,0,0,0,0,0,0,0,0,0,0,0,0,0,0,0,0,0,0,0,0,0,0,0,0,0,0,0,0,0,0,0,0,0,0,0,0,0,0,0,0,0,0,0,0,0,0,0,0,0,0,0,0,0,0,0,0,0,0,0,0,0,0,3479,3480,0,3542,3543,0,0,0,0,0,0,0,
0,0,0,0,0,0,0,0,0,0,0,0,0,0,0,0,0,0,0,0,0,0,0,0,0,0,0,0,0,0,0,0,0,0,0,0,0,0,0,0,0,0,0,0,0,0,0,0,0,0,0,0,0,0,0,0,0,0,0,0,0,0,0,0,0,0,0,0,0,0,0,0,0,0,0,0,0,0,0,0,0,0,0,0,0,0,0,0,3504,3505,0,0,0,0,0,0,0,0,0,0,
0,0,0,0,0,0,0,0,0,0,0,0,0,0,0,0,0,0,0,0,0,0,0,0,0,0,0,0,0,0,0,0,0,0,0,0,0,0,0,0,0,0,0,0,0,0,0,0,0,0,0,0,0,0,0,0,0,0,0,0,0,0,0,0,0,0,0,0,0,0,0,0,0,0,0,0,0,0,0,0,0,0,0,0,0,0,0,0,0,0,0,0,0,0,0,0,0,0,0,0,
0,0,0,0,0,0,0,0,0,0,0,0,0,0,0,0,0,0,0,0,0,0,0,0,0,0,0,0,0,0,0,0,0,0,0,0,0,0,0,0,0,0,0,0,0,0,0,0,0,0,0,0,0,0,0,0,0,0,0,0,0,0,0,0,0,0,0,0,0,0,0,0,0,0,0,0,0,0,0,0,0,0,0,0,0,0,0,0,0,0,0,0,0,0,0,0,0,0,0,0,
0,0,0,0,0,0,0,0,0,0,0,0,0,0,0,0,0,0,0,0,0,0,0,0,0,0,0,0,0,0,0,0,0,0,0,0,0,0,0,0,0,0,0,0,0,0,0,0,0,0,0,0,0,0,0,0,0,0,0,0,0,0,0,0,0,0,0,0,0,0,0,0,0,0,0,0,0,0,0,0,0,0,0,0,0,0,0,0,0,0,0,0,0,0,0,0,0,0,0,0,
0,0,0,0,0,0,0,0,0,0,0,0,0,0,0,0,0,0,0,0,0,0,0,0,0,0,0,0,0,0,0,0,0,0,0,0,0,0,0,0,0,0,0,0,0,0,0,0,0,0,0,0,0,0,0,0,0,0,0,0,0,0,0,0,0,0,0,0,0,0,0,0,0,0,0,0,0,0,0,0,0,0,0,0,0,0,0,0,0,0,0,0,0,0,0,0,0,0,0,0,
0,0,0,0,0,0,0,0,0,0,0,0,0,0,0,0,0,0,0,0,0,0,0,0,0,0,0,0,0,0,0,0,0,0,0,0,0,0,0,0,0,0,0,0,0,0,0,0,0,0,0,0,0,0,0,0,0,0,0,0,0,0,0,0,0,0,0,0,0,0,0,0,0,0,0,0,0,0,0,0,0,0,0,0,0,0,0,0,0,0,0,0,0,0,0,0,0,0,0,0,
0,0,0,0,0,0,0,0,0,0,0,0,0,0,0,0,0,0,0,0,0,0,0,0,0,0,0,0,0,0,0,0,0,0,0,0,0,0,0,0,0,0,0,0,0,0,0,0,0,0,0,0,0,0,0,0,0,0,0,0,0,0,0,0,0,0,0,0,0,0,0,0,0,0,0,0,0,0,0,0,0,0,0,0,0,0,0,0,0,0,0,0,0,0,0,0,0,0,0,0,
0,0,0,0,0,0,0,0,0,0,0,0,0,0,0,0,0,0,0,0,0,0,0,0,0,0,0,0,0,0,0,0,0,0,0,0,0,0,0,0,0,0,0,0,0,0,0,0,0,0,0,0,0,0,0,0,0,0,0,0,0,0,0,0,0,0,0,0,0,0,0,0,0,0,0,0,0,0,0,0,0,0,0,0,0,0,0,0,0,0,0,0,0,3445,3446,3447,3448,3449,3450,0,
0,0,0,0,0,0,0,0,0,0,0,0,0,0,0,0,0,0,0,0,0,0,0,0,0,0,0,0,0,0,0,0,0,0,0,0,0,0,0,0,0,0,0,0,0,0,0,0,0,0,0,0,0,0,0,0,0,0,0,0,0,0,0,0,0,0,0,0,0,0,0,0,0,0,0,0,0,0,0,0,0,0,0,0,0,0,0,0,0,0,0,0,0,3470,3471,3472,3473,3474,3475,0,
0,0,0,0,0,0,0,0,0,0,0,0,0,0,0,0,0,0,0,0,0,0,0,0,0,0,0,0,0,0,0,0,0,0,0,0,0,0,0,0,0,0,0,0,0,0,0,0,0,0,0,0,0,0,0,0,0,0,0,0,0,0,0,0,0,0,0,0,0,0,0,0,0,0,0,0,0,0,0,0,0,0,0,0,0,0,0,0,0,0,0,0,0,3495,3496,3497,3498,3499,3500,0,
0,0,0,0,0,0,0,0,0,0,0,0,0,0,0,0,0,0,0,0,0,0,0,0,0,0,0,0,0,0,0,0,0,0,0,0,0,0,0,0,0,0,0,0,0,0,0,0,0,0,0,0,0,0,0,0,0,0,0,0,0,0,0,0,0,0,0,0,0,0,0,0,0,0,0,0,0,0,0,0,0,0,0,0,0,0,0,0,0,0,0,0,0,3520,3521,3522,3523,3524,3525,0,
0,0,0,0,0,0,0,0,0,0,0,0,0,0,0,0,0,0,0,0,0,0,0,0,0,0,0,0,0,0,0,0,0,0,0,0,0,0,0,0,0,0,0,0,0,0,0,0,0,0,0,0,0,0,0,0,0,0,0,0,0,0,0,0,0,0,0,0,0,0,0,0,0,0,0,0,0,0,0,0,0,0,0,0,0,0,0,0,0,0,0,3429,3430,3431,0,3547,3548,0,0,0,
0,0,0,0,0,0,0,0,0,0,0,0,0,0,0,0,0,0,0,0,0,0,0,0,0,0,0,0,0,0,0,0,0,0,0,0,0,0,0,0,0,0,0,0,0,0,0,0,0,0,0,0,0,0,0,0,0,0,0,0,0,0,0,0,0,0,0,0,0,0,0,0,0,0,0,0,0,0,0,0,0,0,0,0,0,0,0,0,0,0,0,3454,3455,3456,0,0,0,0,0,0,
0,0,0,0,0,0,0,0,0,0,0,0,0,0,0,0,0,0,0,0,0,0,0,0,0,0,0,0,0,0,0,0,0,0,0,0,0,0,0,0,0,0,0,0,0,0,0,0,0,0,0,0,0,0,0,0,0,0,0,0,0,0,0,0,0,0,0,0,0,0,0,0,0,0,0,0,0,0,0,0,0,0,0,0,0,0,0,0,0,0,0,0,0,0,0,0,0,0,0,0,
0,0,0,0,0,0,0,0,0,0,0,0,0,0,0,0,0,0,0,0,0,0,0,0,0,0,0,0,0,0,0,0,0,0,0,0,0,0,0,0,0,0,0,0,0,0,0,0,0,0,0,0,0,0,0,0,0,0,0,0,0,0,0,0,0,0,0,0,0,0,0,0,0,0,0,0,0,0,0,0,0,0,0,0,0,0,0,0,0,0,0,0,0,0,0,0,0,0,0,0,
0,0,0,0,0,0,0,0,0,0,0,0,0,0,0,0,0,0,0,0,0,0,0,0,0,0,0,0,0,0,0,0,0,0,0,0,0,0,0,0,0,0,0,0,0,0,0,0,0,0,0,0,0,0,0,0,0,0,0,0,0,0,0,0,0,0,0,0,0,0,0,0,0,0,0,0,0,0,0,0,0,0,0,0,0,0,0,0,0,0,0,0,0,0,0,0,0,0,0,0,
0,0,0,0,0,0,0,0,0,0,0,0,0,0,0,0,0,0,0,0,0,0,0,0,0,0,0,0,0,0,0,0,0,0,0,0,0,0,0,0,0,0,0,0,0,0,0,0,0,0,0,0,0,0,0,0,0,0,0,0,0,0,0,0,0,0,0,0,0,0,0,0,0,0,0,0,0,0,0,0,0,0,0,0,0,0,0,0,0,0,0,0,0,0,0,0,0,0,0,0,
0,0,0,0,0,0,0,0,0,0,0,0,0,0,0,0,0,0,0,0,0,0,0,0,0,0,0,0,0,0,0,0,0,0,0,0,0,0,0,0,0,0,0,0,0,0,0,0,0,0,0,0,0,0,0,0,0,0,0,0,0,0,0,0,0,0,0,0,0,0,0,0,0,0,0,0,0,0,0,0,0,0,0,0,0,0,0,0,0,3432,3433,3434,0,0,0,0,0,0,0,0,
0,0,0,0,0,0,0,0,0,0,0,0,0,0,0,0,0,0,0,0,0,0,0,0,0,0,0,0,0,0,0,0,0,0,0,0,0,0,0,0,0,0,0,0,0,0,0,0,0,0,0,0,0,0,0,0,0,0,0,0,0,0,0,0,0,0,0,0,0,0,0,0,0,0,0,0,0,0,0,0,0,0,0,0,0,0,0,0,0,3457,3458,3459,0,0,0,0,0,0,0,0,
0,0,0,0,0,0,0,0,0,0,0,0,0,0,0,0,0,0,0,0,0,0,0,3439,3440,3441,0,0,0,0,0,0,0,0,0,0,0,0,0,0,0,0,0,0,0,0,0,0,0,0,0,0,0,0,0,0,0,0,0,0,0,0,0,3439,3440,3441,0,0,0,0,0,0,0,0,0,0,0,0,0,0,0,0,0,0,0,0,3845,0,0,0,0,0,0,0,0,0,0,0,0,0,
0,0,0,0,0,0,0,0,0,0,3439,3440,3441,0,0,0,0,0,0,0,0,0,0,3464,3465,3466,0,0,3517,3518,0,3442,3443,3444,0,0,0,0,0,0,3517,3518,0,3432,3433,3434,0,0,0,0,0,0,0,0,0,3429,3430,3431,0,0,0,0,0,3464,3465,3466,3442,3443,3444,0,0,0,0,0,0,0,0,0,3517,3518,0,0,0,3445,3446,3447,3448,3449,0,0,0,0,0,0,0,0,0,0,0,0,
0,0,0,0,0,0,0,0,0,0,0,0,0,0,0,0,0,0,0,0,0,0,0,0,0,0,0,0,0,0,0,0,0,0,0,0,0,0,0,0,0,0,0,0,0,0,0,0,0,0,0,0,0,0,0,0,0,0,0,0,0,0,0,0,0,0,0,0,0,0,0,0,0,0,0,0,0,0,0,0,0,0,0,0,0,0,0,0,0,0,0,0,0,0,0,0,0,0,0,0,
0,0,0,0,0,0,0,0,0,0,0,0,0,0,0,0,0,0,0,0,0,0,0,0,0,0,0,0,0,0,0,0,0,0,0,0,0,0,0,0,0,0,0,0,0,0,0,0,0,0,0,0,0,0,0,0,0,0,0,0,0,0,0,0,0,0,0,0,0,0,0,0,0,0,0,0,0,0,0,0,0,0,0,0,0,0,0,0,0,0,0,0,0,0,0,0,0,0,0,0,
0,0,0,0,0,0,0,0,0,0,0,0,0,0,0,0,0,0,0,0,0,0,0,0,0,0,0,0,0,0,0,0,0,0,0,0,0,0,0,0,0,0,0,0,0,0,0,0,0,0,0,0,0,0,0,0,0,0,0,0,0,0,0,0,0,0,0,0,0,0,0,0,0,0,0,0,0,0,0,0,0,0,0,0,0,0,0,0,0,0,0,0,0,0,0,0,0,0,0,0,
0,0,0,0,0,0,0,0,0,0,0,0,0,0,0,0,0,0,0,0,0,0,0,0,0,0,0,0,0,0,0,0,0,0,0,0,0,0,0,0,0,0,0,0,0,0,0,0,0,0,0,0,0,0,0,0,0,0,0,0,0,0,0,0,0,0,0,0,0,0,0,0,0,0,0,0,0,0,0,0,0,0,0,0,0,0,0,0,0,0,0,0,0,0,0,0,0,0,0,0,
0,0,0,0,0,0,0,0,0,0,0,0,0,0,0,0,0,0,0,0,0,0,0,0,0,0,0,0,0,0,0,0,0,0,0,0,0,0,0,0,0,0,0,0,0,0,0,0,0,0,0,0,0,0,0,0,0,0,0,0,0,0,0,0,0,0,0,0,0,0,0,0,0,0,0,0,0,0,0,0,0,0,0,0,0,0,0,0,0,0,0,0,0,0,0,0,0,0,0,0,
0,0,0,0,0,0,0,0,0,0,0,0,0,0,0,0,0,0,0,0,0,0,0,0,0,0,0,0,0,0,0,0,0,0,0,0,0,0,0,0,0,0,0,0,0,0,0,0,0,0,0,0,0,0,0,0,0,0,0,0,0,0,0,0,0,0,0,0,0,0,0,0,0,0,0,0,0,0,0,0,0,0,0,0,0,0,0,0,0,0,0,0,0,0,0,0,0,0,0,0
</data>
 </layer>
</map>
