<?xml version="1.0" encoding="UTF-8"?>
<map version="1.10" tiledversion="1.11.2" orientation="orthogonal" renderorder="right-down" compressionlevel="0" width="80" height="80" tilewidth="16" tileheight="16" infinite="0" nextlayerid="13" nextobjectid="71">
 <properties>
  <property name="AllowGrassSurviveInWinter" value="T"/>
  <property name="Outdoors" value="T"/>
  <property name="PetBowlLocation" value="49 40"/>
  <property name="Warp" value="80 15 BusStop 11 23 80 18 BusStop 11 24 80 16 BusStop 11 23 80 17 BusStop 11 23 40 65 Forest 68 0 41 65 Forest 68 0 42 65 Forest 68 0 40 -1 Backwoods 14 39 41 -1 Backwoods 14 39 30 35 FarmCave 8 11"/>
 </properties>
 <tileset firstgid="1" source="../tilesets/Paths.tsx"/>
 <tileset firstgid="65" source="../tilesets/spring_outdoorTileSheet_extra.tsx"/>
 <tileset firstgid="129" source="../tilesets/spring_outdoorsTileSheet.tsx"/>
 <tileset firstgid="2104" source="../tilesets/spring_outdoorsTileSheet2.tsx"/>
 <layer id="1" name="Back" width="80" height="80">
  <data encoding="csv">
509,509,509,509,509,509,509,509,509,509,509,509,509,509,509,509,509,509,509,509,509,509,509,509,509,285,509,509,509,509,509,509,509,509,509,509,509,509,481,691,641,692,666,509,508,509,509,509,509,509,509,285,509,509,509,509,509,509,509,509,509,509,509,509,285,509,285,481,509,509,509,509,509,509,285,509,509,509,509,509,
534,534,534,534,534,534,534,534,534,534,534,534,534,534,534,534,534,534,534,534,534,534,534,534,534,534,534,534,534,534,534,534,534,534,534,534,534,534,481,305,752,717,666,440,533,534,534,534,534,534,534,534,534,534,534,534,534,534,534,534,509,509,509,509,509,480,480,480,534,509,509,509,509,509,509,285,509,509,509,509,
458,480,482,505,505,505,505,505,505,405,406,407,505,405,406,407,405,406,407,405,407,505,505,505,505,505,405,406,407,505,505,505,405,406,407,405,406,407,506,305,305,717,666,504,505,405,406,407,505,505,505,405,406,407,505,405,405,407,405,406,534,536,509,509,486,480,480,480,405,534,458,534,534,534,534,534,534,534,458,458,
480,458,481,385,304,385,304,304,304,304,304,304,385,304,304,304,304,304,304,304,304,304,304,304,383,304,304,384,304,383,385,385,304,384,304,304,383,304,384,305,336,717,666,504,407,505,506,0,304,480,530,504,532,458,458,458,458,480,480,420,440,533,536,509,510,480,480,481,434,433,458,480,480,480,480,480,458,480,458,458,
0,304,385,304,716,716,716,716,716,716,716,716,716,716,716,716,716,716,716,716,716,716,716,716,716,716,716,716,716,716,716,716,716,716,716,716,716,304,304,305,305,717,666,304,304,383,0,0,480,480,458,530,479,480,458,480,458,458,480,458,479,480,533,534,535,480,480,481,480,480,429,433,480,480,480,480,480,480,480,480,
481,385,0,716,716,716,716,716,716,716,716,716,716,716,716,716,716,716,716,716,716,716,716,716,716,716,716,716,716,716,716,716,716,346,346,346,716,304,304,715,689,667,666,716,716,716,716,0,480,505,505,505,504,407,405,406,458,480,480,646,504,505,405,406,407,405,406,506,480,433,480,480,429,480,458,480,429,433,480,480,
304,304,716,716,716,716,716,716,716,716,716,716,716,716,716,716,716,716,716,716,716,716,716,716,716,716,716,716,716,716,716,716,716,346,346,346,716,304,304,715,617,717,666,666,666,666,666,666,666,666,666,666,666,666,666,666,666,666,666,666,406,407,505,505,505,405,406,406,407,505,505,505,532,433,458,429,433,480,480,480,
456,304,716,716,666,666,666,666,666,666,666,666,666,666,666,666,666,666,666,666,666,666,666,666,666,666,666,666,666,666,666,666,666,589,589,589,646,304,304,715,305,774,691,691,691,691,691,691,691,691,691,691,691,691,691,691,691,691,692,666,304,530,304,280,304,279,304,530,304,2095,2093,2094,2093,532,458,480,429,433,480,480,
0,304,716,666,666,720,641,967,967,967,691,691,641,691,691,691,691,691,691,691,641,691,691,691,691,641,641,691,691,691,691,691,691,641,691,692,666,304,304,747,305,714,716,335,716,716,355,716,718,282,335,716,716,355,716,718,282,716,717,666,304,404,304,404,304,404,385,385,2093,2093,2094,2093,2095,504,505,480,480,480,480,480,
0,385,666,666,740,739,716,600,601,602,716,716,716,716,716,716,739,716,716,739,716,716,716,718,716,716,716,716,716,716,716,716,716,716,716,717,666,440,460,716,716,739,716,305,716,355,617,716,282,355,305,716,355,617,716,282,355,716,717,666,666,666,75,304,385,385,385,385,385,2095,2093,2094,2093,385,385,532,480,480,480,480,
0,481,666,740,716,716,718,716,355,716,282,716,336,355,355,716,716,617,716,716,716,689,716,716,592,282,716,617,716,716,355,716,592,716,693,717,666,304,304,716,716,714,716,642,716,716,716,355,360,716,642,716,716,716,355,360,716,355,774,691,691,691,83,279,404,304,529,304,304,279,304,404,530,304,404,530,504,532,480,480,
0,481,740,718,716,714,716,716,716,355,689,716,716,716,716,355,282,716,693,716,716,716,592,716,716,716,282,716,716,689,716,355,716,716,743,717,666,304,304,716,355,716,617,716,716,282,716,716,716,282,716,716,282,716,716,716,642,716,307,358,359,333,382,304,279,454,455,456,304,404,304,280,404,304,304,304,530,479,480,480,
0,481,689,743,716,716,716,718,716,282,282,355,716,592,716,716,355,716,716,716,716,716,716,716,689,642,716,355,716,355,718,716,716,689,693,717,666,666,666,715,716,716,716,716,716,716,716,592,716,716,360,716,617,282,355,716,716,716,74,279,454,455,430,431,432,457,480,507,455,456,530,454,456,529,304,404,304,479,480,480,
481,481,716,716,592,716,716,716,716,642,716,282,716,716,716,716,355,716,716,716,689,716,716,282,716,716,355,335,716,355,716,716,642,716,739,717,666,666,666,715,716,592,716,716,716,355,716,716,716,355,716,355,336,355,716,355,716,718,90,454,457,480,429,480,480,480,429,480,482,506,454,457,507,456,530,304,304,479,480,480,
481,458,716,693,716,355,716,282,716,282,282,716,716,718,355,716,716,716,282,716,716,716,355,355,716,282,689,716,716,716,355,355,716,282,743,717,666,666,666,715,716,716,716,617,716,282,282,716,355,716,743,716,716,282,592,716,716,335,74,479,480,480,480,480,429,480,480,480,481,383,504,480,480,506,280,404,279,479,480,480,
481,458,716,743,282,716,689,716,355,716,689,355,282,716,282,716,336,716,693,716,716,716,716,716,282,716,282,716,693,716,716,716,716,716,718,717,666,666,666,715,716,716,716,716,716,355,716,716,716,716,716,718,716,617,355,716,355,642,82,479,429,480,480,429,480,480,429,482,506,304,329,603,628,332,404,404,304,504,505,505,
458,458,716,716,282,716,716,716,335,355,282,355,282,282,282,716,335,716,716,716,716,336,716,716,355,689,716,716,716,716,716,716,360,716,716,717,666,454,455,456,716,714,355,716,355,716,716,617,355,716,335,716,716,355,716,718,282,355,90,504,505,505,505,405,406,407,505,506,385,329,331,739,751,306,308,334,308,309,334,330,
458,458,716,282,716,716,617,716,716,282,335,716,336,282,718,282,716,355,716,355,282,716,716,716,282,716,716,355,716,282,355,718,716,282,716,717,666,304,480,304,716,716,592,642,716,716,355,716,716,282,305,716,355,617,716,282,355,617,306,308,334,308,334,308,309,334,308,334,330,331,716,714,753,726,702,726,702,726,702,726,
458,458,716,743,282,716,716,355,336,355,642,716,716,355,716,282,716,360,716,716,282,716,716,716,282,716,716,355,716,282,355,718,716,282,716,717,666,304,304,304,304,716,716,716,716,282,355,716,282,716,642,716,716,716,355,360,716,355,716,355,336,355,642,716,617,355,355,282,716,360,716,716,282,716,739,356,716,739,310,716,
458,458,716,718,282,716,716,689,716,716,355,282,716,716,282,716,716,716,716,716,716,716,282,335,716,716,282,716,592,716,355,716,716,716,689,717,666,304,304,304,304,304,716,355,716,355,716,282,282,716,716,716,282,716,716,716,282,716,718,716,355,716,355,282,716,716,282,716,716,716,716,716,716,716,716,356,716,724,454,455,
458,458,716,743,716,716,592,282,716,617,716,716,355,716,592,716,282,282,716,714,716,716,716,716,716,282,718,716,716,355,716,716,355,716,716,717,666,304,304,304,304,304,617,592,716,716,282,716,716,355,716,718,716,716,282,355,305,282,305,282,716,617,716,716,355,716,592,716,282,282,716,642,716,716,716,716,744,666,479,480,
481,304,716,689,335,716,716,716,282,716,716,689,716,355,716,716,716,617,716,716,716,305,716,716,282,305,282,716,282,716,716,335,689,716,716,717,666,304,304,304,304,304,716,716,716,642,282,355,716,716,716,335,716,689,355,716,336,716,716,716,282,716,716,282,355,355,716,716,716,617,716,716,716,642,716,355,717,666,479,480,
481,304,716,743,716,716,592,282,716,617,716,716,355,716,592,716,282,282,716,714,716,716,716,716,716,282,718,716,716,355,716,716,355,716,716,717,666,479,304,304,480,304,617,592,716,716,282,716,716,355,716,718,716,716,282,355,305,282,305,282,716,617,716,716,355,716,592,282,355,716,716,716,716,716,716,716,717,666,479,458,
481,304,716,689,335,716,716,716,282,716,716,689,716,355,716,716,716,617,716,716,716,305,716,716,282,305,282,716,282,716,716,335,689,716,716,717,666,304,304,304,304,304,716,716,716,642,282,355,716,716,716,335,716,689,355,716,336,716,716,716,282,716,716,282,355,355,716,716,282,282,716,716,716,592,716,716,717,666,479,458,
458,481,716,716,716,716,689,642,716,355,716,355,718,716,716,689,355,716,716,716,282,718,716,716,716,355,716,355,716,716,716,716,716,716,716,717,666,304,304,304,304,304,716,716,716,716,716,282,592,360,716,355,716,716,716,282,716,716,360,642,716,355,716,355,718,716,716,282,716,718,716,617,716,716,714,716,717,666,479,480,
458,481,716,592,716,282,716,716,355,335,716,355,716,716,642,716,282,282,716,282,716,716,592,716,282,716,689,716,282,689,716,355,716,718,716,717,666,718,282,716,716,716,335,716,716,718,716,355,355,716,716,716,355,282,716,282,592,716,282,716,355,335,716,355,716,716,642,714,716,617,355,716,282,716,716,716,717,666,479,480,
458,481,716,716,716,355,716,282,689,716,716,716,355,355,716,282,716,689,716,716,592,716,716,716,355,716,716,282,282,282,716,282,689,716,716,717,666,716,716,346,346,346,716,716,642,716,716,716,716,716,592,355,305,282,642,716,716,716,716,282,716,716,716,716,355,355,716,716,716,716,716,282,716,642,716,355,717,666,479,480,
458,481,716,355,592,716,282,716,282,716,693,716,716,716,716,716,592,716,282,355,716,716,355,716,282,282,355,716,716,355,282,689,716,716,716,717,666,716,716,346,346,346,282,355,716,716,355,716,716,716,592,355,305,282,642,716,716,716,716,282,716,716,716,716,355,355,716,716,716,716,716,282,716,642,716,355,717,666,479,480,
458,481,716,716,716,716,355,689,716,716,716,716,716,716,360,716,716,716,282,716,282,716,716,592,716,1372,1373,1373,1373,716,716,716,716,355,714,717,666,666,666,589,589,589,718,716,716,336,716,617,716,282,282,716,716,716,282,716,355,716,282,716,718,716,617,592,716,642,282,716,282,716,716,716,335,693,716,716,717,666,479,480,
458,481,716,716,355,716,282,716,716,355,716,282,355,718,716,282,716,716,716,642,716,355,716,716,716,1397,1398,1398,2955,360,716,716,617,716,716,774,691,691,691,691,691,694,307,380,381,716,716,282,355,716,716,716,718,716,716,617,355,282,282,355,716,282,716,716,716,716,335,282,716,592,716,355,716,355,714,716,717,666,479,458,
458,481,380,381,355,716,282,716,716,355,716,282,355,718,716,282,716,716,716,642,716,355,716,716,716,1375,1428,1375,1401,360,716,716,617,355,642,716,716,716,716,716,307,380,382,279,354,642,716,716,716,716,592,716,716,716,714,716,355,355,305,716,716,355,716,716,282,716,355,355,716,716,355,335,716,355,716,716,717,666,479,480,
458,481,304,379,380,358,359,333,381,716,716,716,592,716,716,282,716,689,716,716,592,716,282,716,718,716,355,360,716,355,716,355,336,716,355,716,716,716,307,380,382,454,456,304,2845,716,282,282,355,282,716,716,716,282,282,716,716,282,355,617,282,716,716,355,355,336,716,282,716,336,716,716,1372,1373,1373,1373,717,666,479,480,
480,481,304,279,304,304,304,304,354,355,282,716,716,716,716,716,592,716,282,355,716,716,282,716,716,304,454,456,282,716,718,716,716,617,716,716,617,716,357,304,454,457,481,530,2861,716,716,716,282,716,282,355,716,716,642,355,718,716,716,716,716,282,716,592,716,716,716,716,716,716,592,642,2952,1398,1398,2955,717,666,479,480,
480,481,304,304,280,304,304,279,379,381,716,716,716,282,360,716,716,716,282,716,282,716,480,716,335,716,457,355,305,282,305,282,716,716,716,716,716,716,306,332,504,505,506,279,2877,716,282,282,282,716,282,282,716,693,716,716,716,716,716,592,716,355,355,716,716,355,716,716,716,355,716,716,1375,1428,1375,1401,717,666,479,480,
279,480,456,716,304,304,304,304,304,379,716,617,716,282,716,282,716,716,716,642,716,355,480,480,716,689,716,716,336,716,716,716,282,355,716,716,716,716,718,306,308,334,330,330,331,716,336,642,356,716,716,716,716,716,716,716,716,360,716,716,716,282,716,282,716,716,592,718,716,716,716,355,716,716,716,716,717,748,479,458,
480,480,410,355,716,716,335,716,355,716,716,716,689,355,716,282,716,716,716,642,716,355,480,716,355,716,716,282,716,346,346,346,716,335,716,716,739,716,716,716,716,716,716,718,693,282,716,716,355,716,355,716,355,716,282,355,282,716,282,716,716,716,642,716,355,714,716,718,716,642,716,282,739,716,304,304,304,304,479,458,
480,480,435,480,480,480,716,716,282,716,336,716,355,282,716,355,716,716,689,480,282,336,716,282,716,282,689,282,592,346,638,346,355,716,716,689,716,716,716,716,716,716,716,716,355,282,716,717,716,282,282,718,716,716,716,592,716,716,716,642,282,716,282,480,642,282,716,282,355,716,716,716,716,592,304,304,480,480,480,480,
458,480,460,716,355,716,716,716,716,689,716,716,716,716,718,716,716,689,282,716,716,716,716,716,716,716,282,589,666,589,589,589,716,716,617,592,716,282,282,716,716,617,716,716,282,282,716,717,666,716,716,716,355,282,716,716,716,282,716,716,716,282,716,716,355,282,716,716,716,716,716,336,716,716,304,304,304,304,479,458,
458,480,506,666,740,405,406,407,355,716,874,874,874,874,716,716,355,405,406,407,716,718,592,405,406,407,282,691,690,691,691,694,718,282,716,716,716,716,335,716,716,716,716,282,689,282,716,774,666,666,666,666,642,716,716,716,642,282,355,355,716,716,617,716,282,716,716,716,642,874,874,874,874,716,304,304,304,304,479,458,
458,456,716,740,716,716,642,716,718,716,666,666,666,666,282,718,355,716,355,282,282,355,716,716,716,716,716,718,715,282,617,355,716,355,716,716,282,716,355,714,282,335,716,716,282,716,716,355,967,691,692,666,716,716,617,716,282,716,716,592,716,716,716,716,282,716,689,716,592,666,666,666,666,716,718,282,741,723,479,480,
458,481,716,716,716,716,355,716,355,716,666,666,666,666,355,356,716,718,282,716,716,282,716,716,743,716,716,716,715,355,305,716,716,716,716,355,716,336,716,282,716,592,689,716,716,716,716,355,716,716,774,666,716,716,716,716,355,355,642,716,689,282,716,282,356,355,716,716,716,666,666,666,666,716,282,716,741,748,479,480,
480,481,716,689,716,689,716,716,716,716,666,666,666,666,716,282,716,716,716,716,716,282,355,716,716,282,282,716,715,282,355,617,282,282,716,592,716,716,716,355,716,716,282,282,716,716,689,335,356,716,716,666,716,336,716,355,282,716,355,716,716,716,282,282,336,716,282,282,716,666,666,666,666,716,716,716,741,723,479,480,
458,481,666,666,666,666,666,666,666,666,666,666,666,666,666,666,666,666,666,666,666,666,666,666,666,666,589,589,666,716,716,716,716,355,282,716,282,355,716,282,716,355,282,282,355,716,282,716,617,642,716,717,666,666,666,666,666,666,666,666,666,666,666,666,666,666,666,666,666,666,666,666,666,666,666,666,666,748,479,480,
480,481,691,691,691,641,691,691,691,691,691,691,691,641,691,691,691,691,641,641,691,691,691,691,691,691,641,691,694,360,716,617,282,718,716,282,716,716,592,716,282,282,716,716,716,716,355,716,716,716,335,774,691,691,641,691,691,691,691,691,691,641,691,691,691,691,691,691,691,691,691,691,641,691,641,641,692,723,479,480,
480,481,715,716,716,716,716,617,716,282,716,716,716,716,689,355,716,716,617,689,716,282,716,336,716,693,716,716,716,716,282,282,716,716,282,304,716,716,716,282,282,716,716,716,304,304,716,716,716,716,282,355,282,282,282,716,355,716,355,716,282,716,336,642,355,716,716,617,716,716,716,282,716,716,716,716,717,748,479,480,
482,506,715,743,355,716,716,716,716,282,716,716,355,355,716,335,355,282,355,282,282,716,716,335,716,716,716,282,716,716,355,716,282,718,617,304,304,304,304,282,716,617,355,304,304,304,304,716,592,355,282,716,282,305,282,642,716,716,716,355,689,716,716,716,716,355,282,716,355,282,716,282,716,714,716,716,717,723,479,480,
481,530,715,689,716,716,689,716,355,716,282,716,356,716,716,716,282,716,716,689,282,617,282,716,355,716,282,282,355,617,716,716,716,744,666,279,304,304,304,451,451,451,451,304,304,304,530,282,716,305,282,282,716,689,355,282,716,718,716,282,282,355,716,592,716,642,355,716,305,282,355,282,716,716,716,716,717,748,479,480,
507,456,715,716,716,716,716,716,716,355,360,716,355,716,355,336,355,642,716,716,355,716,282,716,360,716,716,282,716,716,716,714,718,717,666,282,716,304,304,476,476,476,476,304,304,304,304,716,716,716,355,282,716,716,716,335,716,716,716,642,716,282,716,716,716,689,355,716,716,716,282,716,355,716,282,716,717,723,479,480,
480,481,715,716,592,716,617,282,716,716,716,282,617,718,716,716,716,355,282,716,716,282,716,716,617,689,716,282,716,282,282,716,716,717,666,360,716,454,530,476,476,476,476,530,456,355,282,716,718,716,282,355,282,282,282,716,355,716,355,716,282,716,336,642,355,716,716,617,716,716,716,282,716,716,716,716,717,748,479,480,
482,506,715,743,355,716,716,716,716,282,716,716,355,355,716,335,355,282,355,282,282,716,716,335,716,716,716,282,716,716,355,716,282,717,666,592,716,479,481,476,526,526,476,479,481,716,689,716,716,355,282,716,282,305,282,642,716,716,716,355,689,716,716,716,716,355,282,716,355,282,716,282,716,714,716,716,717,723,479,480,
481,530,715,689,716,716,689,716,355,716,282,716,356,716,716,716,282,716,716,689,282,617,282,716,355,716,282,282,355,617,716,716,716,717,666,666,666,504,506,329,716,592,332,504,506,716,716,716,282,305,282,282,716,689,355,282,716,718,716,282,282,355,716,592,716,642,355,716,305,282,355,282,716,716,716,716,717,748,479,480,
507,456,715,716,716,716,716,716,716,355,360,716,355,716,355,336,355,642,716,716,355,716,282,716,360,716,716,282,716,716,716,714,718,774,691,692,666,304,304,354,336,642,357,304,304,666,666,716,282,716,355,282,716,716,716,335,716,716,716,642,716,282,716,716,716,689,355,716,716,716,282,716,355,716,282,716,717,723,479,480,
480,481,715,716,592,716,617,282,716,716,716,282,617,718,716,716,716,355,282,716,716,282,716,716,617,689,716,282,716,282,282,716,716,355,716,717,666,304,280,379,381,307,382,279,530,690,694,689,355,716,282,716,716,592,282,716,355,282,716,282,716,716,716,716,355,716,716,716,282,282,716,642,716,716,355,716,717,748,479,480,
480,481,715,716,718,716,716,716,716,282,355,305,282,305,282,716,617,716,716,355,716,592,716,282,282,716,642,716,282,716,282,282,592,716,355,717,666,304,304,279,354,357,530,304,304,715,642,355,716,716,336,716,282,716,336,716,282,716,355,716,716,355,282,716,282,716,336,716,693,716,716,716,716,282,282,716,717,723,479,480,
480,481,715,743,716,716,716,642,689,617,716,336,716,716,716,282,716,716,282,716,355,716,716,716,282,716,716,716,282,716,282,282,716,716,716,717,666,530,304,329,331,357,280,304,304,715,716,716,355,355,282,716,282,716,716,282,282,716,335,355,282,355,282,282,642,716,335,716,716,716,282,716,716,355,716,716,717,666,479,480,
480,481,715,689,716,642,716,716,716,716,282,716,716,360,642,716,355,716,355,718,689,716,282,355,716,716,642,336,716,592,282,617,716,716,282,717,666,304,304,354,307,382,304,304,304,715,592,716,642,305,282,355,716,282,716,356,716,716,716,282,716,716,716,282,716,282,716,355,716,355,355,355,617,716,716,355,717,666,479,480,
458,481,715,716,716,716,716,716,282,716,282,592,716,617,716,355,335,716,355,716,716,642,617,282,282,282,716,716,282,716,716,716,282,689,617,717,666,330,330,331,306,330,330,330,666,715,716,716,689,716,282,282,716,355,716,716,617,716,716,716,355,716,716,282,282,355,716,282,716,282,282,716,716,716,714,716,717,666,479,480,
458,481,715,716,716,716,716,716,282,716,689,355,282,716,718,716,282,282,355,716,592,716,282,282,282,282,716,716,282,716,282,282,716,716,716,717,666,380,380,381,716,307,380,380,666,747,716,355,716,716,642,282,716,716,716,282,716,716,355,716,282,689,716,716,716,282,716,355,716,716,716,716,716,693,689,716,717,666,479,480,
458,481,715,743,716,716,716,716,282,716,716,716,335,716,716,716,642,716,282,716,716,716,617,282,282,282,716,716,282,716,716,282,716,592,716,717,666,304,280,379,381,2844,304,304,666,282,716,282,716,282,716,716,282,336,355,282,716,282,716,355,716,716,355,355,355,282,716,592,716,642,716,716,356,356,356,716,717,666,479,480,
458,481,716,716,716,716,617,716,282,282,282,282,716,355,716,355,716,282,716,336,642,355,282,716,617,716,617,716,282,716,716,617,716,716,716,717,666,454,455,456,354,2876,454,456,304,282,282,642,716,355,716,282,305,282,282,716,716,355,716,716,282,716,305,282,355,336,716,716,716,716,716,716,716,716,716,716,717,666,479,480,
480,506,715,716,716,592,716,282,716,282,716,355,716,282,716,718,716,617,592,716,282,282,642,716,617,282,716,282,716,617,282,282,716,282,336,717,454,457,480,481,2845,357,479,507,456,304,282,716,716,716,642,282,716,716,716,282,716,716,355,716,282,689,716,716,716,282,716,355,716,716,716,716,716,693,689,716,666,454,457,458,
458,715,716,743,716,718,716,716,716,716,617,617,282,282,355,716,282,716,716,716,716,335,716,716,716,282,282,282,282,716,716,336,282,716,716,480,457,480,505,506,2861,357,504,505,506,304,304,716,716,282,716,716,282,336,355,282,716,282,716,355,716,716,355,355,355,282,716,592,716,642,716,716,356,356,356,716,666,390,458,480,
480,481,716,693,716,716,716,617,716,716,716,355,355,305,716,716,355,716,642,282,716,355,716,282,716,716,716,282,282,716,716,282,716,304,455,304,304,304,304,354,2877,357,304,304,666,455,455,716,716,355,716,282,305,282,282,716,716,355,716,716,282,716,305,282,355,336,716,716,1372,1373,1373,1373,716,716,716,744,666,415,480,433,
480,481,716,716,716,355,716,716,282,282,716,716,282,355,617,282,716,716,355,716,336,716,282,716,592,689,716,716,716,335,716,282,282,304,304,304,304,304,304,716,716,2844,716,304,304,304,304,716,282,355,716,716,716,716,282,716,716,716,716,716,716,592,716,282,282,716,716,355,2952,1398,1398,2955,305,716,454,455,304,440,429,434,
480,481,716,693,716,716,617,716,716,282,355,718,716,716,716,716,282,716,592,716,716,716,355,716,716,282,282,716,282,716,716,282,282,304,304,304,304,304,304,716,354,2860,716,304,304,304,304,716,716,716,282,592,716,282,716,718,716,642,716,282,282,716,282,716,716,282,716,716,1375,1428,1375,1401,716,666,479,458,304,479,434,433,
480,481,716,716,718,716,716,716,693,716,716,716,716,716,592,716,355,355,716,716,617,716,282,716,355,282,617,355,282,282,716,716,716,304,0,0,0,0,0,0,0,2876,0,304,304,304,304,304,716,336,716,716,716,355,716,716,716,716,716,282,355,716,716,355,355,282,716,282,716,355,716,716,744,666,504,480,480,480,429,434,
509,485,456,716,718,716,716,716,716,716,716,716,716,693,1372,1373,1373,1373,1373,1373,1374,336,716,716,689,282,716,716,716,716,716,455,455,304,0,0,0,0,0,0,0,0,0,304,304,304,304,304,480,716,659,660,585,660,585,660,585,660,585,660,585,660,661,282,282,716,716,355,716,716,304,304,304,304,304,480,480,480,480,433,
509,484,485,458,455,716,716,716,716,282,355,716,3000,1372,2952,1398,1398,1398,1398,1398,2955,1374,3147,716,716,716,716,360,716,455,480,480,480,304,0,0,0,0,0,0,0,0,0,304,304,304,304,304,484,716,609,685,685,685,685,685,685,685,685,685,685,685,611,282,304,304,304,716,716,716,304,304,304,304,304,479,480,480,480,480,
509,509,510,480,458,458,455,455,455,455,716,714,2925,2926,1395,1428,1377,1375,1403,1401,1396,2956,2957,1374,718,716,455,455,480,480,484,484,484,304,0,0,0,0,0,0,0,0,0,304,304,304,304,304,304,716,684,685,685,685,685,685,685,685,685,685,685,685,686,716,304,304,304,642,716,282,304,304,304,480,454,457,433,480,480,480,
0,0,510,480,434,458,458,458,458,458,716,1372,2952,2953,1402,1375,1378,1359,1359,1375,1451,2972,2973,2955,1374,716,480,480,484,484,0,0,0,0,0,0,0,0,0,0,0,0,0,304,304,304,304,304,304,716,609,685,685,685,685,685,685,685,685,685,685,685,611,716,455,304,304,304,454,304,454,455,456,454,457,429,483,484,484,484,
0,0,509,485,480,0,458,480,458,458,716,1397,1395,1376,1451,1358,1357,1384,1384,1382,1359,1360,1428,1396,1399,716,484,484,0,0,0,0,0,0,0,0,0,0,0,0,0,0,0,304,304,304,304,304,304,716,709,710,710,710,710,710,710,710,710,710,710,710,711,716,454,455,455,455,457,507,457,458,507,457,480,433,461,285,509,509,
0,0,509,509,484,484,485,480,480,0,716,1375,1375,1359,1359,1357,1384,1356,1409,1384,1384,1385,1451,1375,1375,716,0,0,0,0,0,0,0,0,0,0,0,0,0,0,0,0,0,304,304,304,304,304,304,304,484,304,455,455,455,455,455,455,455,455,304,456,454,455,457,458,480,480,480,480,484,484,485,480,483,461,509,509,509,509,
509,509,509,509,484,509,484,484,480,0,716,1375,1383,1384,1384,1384,1381,1409,1409,1406,1409,1382,1359,1359,1360,716,0,0,0,0,0,0,0,0,0,0,0,0,0,0,0,0,0,0,0,0,0,0,0,431,431,431,431,431,431,431,431,431,431,431,431,431,457,480,483,484,484,484,484,484,509,285,511,509,509,509,509,509,509,509,
509,509,509,0,0,0,0,509,480,0,716,1375,1408,1356,1406,1409,1409,1409,1409,1409,1409,1381,1384,1384,1385,716,0,0,0,0,0,0,0,0,0,0,0,0,0,0,0,0,0,0,0,0,0,0,0,304,304,304,304,431,431,431,431,431,431,431,431,431,509,484,533,534,535,509,509,509,285,509,509,509,509,509,509,509,509,509,
509,509,509,0,0,0,0,509,510,0,716,1375,1408,1381,1409,1409,1409,1356,1409,1409,1409,1409,1409,0,1375,716,0,0,0,0,0,0,0,0,0,0,0,0,0,0,0,0,0,0,0,0,0,0,0,304,304,304,304,304,304,304,304,304,304,304,304,304,509,509,509,509,509,509,509,509,509,509,285,509,509,509,509,509,509,509,
509,509,509,0,0,0,0,509,510,480,716,1402,1408,1409,1409,1409,1356,1409,1409,1409,1409,1409,1384,1384,1385,0,0,0,0,0,0,0,0,0,0,0,0,0,0,0,0,0,0,0,0,0,0,0,0,304,304,304,304,304,304,304,304,304,304,304,304,304,509,509,509,509,509,509,509,509,509,509,509,509,509,509,509,509,509,509,
509,509,509,0,0,0,0,0,0,0,716,1375,1375,1432,1356,1409,1409,1409,1409,1356,1409,1409,1409,0,1375,0,0,0,0,0,0,0,0,0,0,0,0,0,0,0,0,0,0,0,0,0,0,0,0,304,304,304,304,304,304,304,304,304,304,304,304,304,509,509,509,509,509,509,509,509,509,509,509,509,509,509,509,509,509,509,
509,509,509,0,0,0,0,509,480,0,716,1375,1375,1375,1432,1409,1409,1409,1409,1409,1409,1409,1384,1384,1385,0,0,0,0,0,0,0,0,0,0,0,0,0,0,0,0,0,0,0,0,0,0,0,0,304,304,304,304,304,304,304,304,304,304,304,304,304,509,509,509,509,509,509,509,509,509,509,509,509,509,509,509,509,509,509,
509,509,509,0,0,0,0,0,0,0,716,1375,1408,1409,1409,1409,1409,1409,1409,1409,1409,1409,1409,0,1375,0,0,0,0,0,0,0,0,0,0,0,0,0,0,0,0,0,0,0,0,0,0,0,0,304,304,304,304,304,304,304,304,304,304,304,304,304,480,480,480,480,480,480,480,480,480,480,480,480,480,480,480,480,480,480,
0,0,0,0,0,0,0,0,0,0,0,0,0,0,0,0,0,0,0,0,0,0,0,0,0,0,0,0,0,0,0,0,0,0,0,0,0,0,0,0,0,0,0,0,0,0,0,0,0,304,304,304,304,304,304,304,304,304,304,304,304,304,304,304,304,304,304,304,304,304,304,304,304,304,304,304,304,304,304,304
</data>
 </layer>
 <layer id="2" name="Buildings" width="80" height="80">
  <data encoding="csv">
168,169,167,168,169,145,145,258,0,145,255,261,262,255,167,168,169,182,183,184,236,237,256,207,208,209,255,204,205,261,262,183,184,258,255,207,0,145,145,548,0,0,545,415,261,262,255,167,168,169,145,145,145,236,237,256,285,145,145,167,168,169,261,262,145,145,145,145,523,182,183,167,168,169,145,258,145,145,145,145,
193,194,192,193,194,145,145,145,0,145,361,286,287,534,192,193,194,145,208,145,261,262,534,145,233,145,361,145,230,286,287,208,209,534,534,361,0,145,145,523,0,0,545,361,286,287,534,192,193,194,436,145,386,261,262,534,436,145,145,192,193,194,286,287,145,145,145,145,548,207,208,192,193,194,145,145,145,145,145,145,
145,0,0,145,145,145,145,145,145,145,145,145,145,145,145,145,145,145,233,145,286,287,505,145,258,145,145,145,255,145,145,233,145,192,193,194,258,145,145,548,0,0,570,145,145,145,145,145,145,145,145,145,145,286,287,505,145,145,145,272,273,145,386,145,145,145,145,145,548,361,534,386,436,145,145,145,145,150,534,145,
143,144,145,145,384,145,383,145,145,145,145,145,361,145,145,145,383,145,258,145,145,145,361,145,145,145,145,145,145,145,145,258,145,280,304,279,145,145,145,523,0,0,595,596,597,596,597,596,597,596,597,596,597,596,597,596,597,596,419,297,298,217,218,258,145,145,145,145,523,145,258,145,433,145,145,145,145,386,272,273,
168,169,385,361,425,596,597,596,597,596,597,596,597,596,597,596,597,596,597,596,597,596,597,575,597,596,597,575,597,596,597,596,597,597,596,419,420,145,145,548,0,0,620,621,622,621,622,621,622,621,622,621,622,621,622,621,622,621,444,470,145,242,243,167,168,169,272,273,548,145,150,150,150,145,145,145,386,436,297,298,
193,194,383,425,450,576,622,2035,2036,2037,622,621,576,621,622,621,622,621,622,621,576,621,622,621,622,621,622,621,622,621,576,621,622,622,621,444,445,145,145,523,0,0,645,646,647,646,647,646,647,646,647,646,647,646,647,646,647,646,469,494,145,436,145,192,193,194,297,298,573,145,145,145,145,145,145,145,145,145,490,145,
481,145,423,450,475,577,647,2060,2061,2062,647,646,647,646,647,577,647,646,647,577,647,646,647,646,647,646,647,646,647,646,647,646,647,647,646,469,470,145,145,548,0,0,670,671,672,671,672,671,672,671,672,671,672,671,672,671,672,671,494,499,597,596,597,596,597,596,597,596,598,145,145,145,145,145,145,145,145,145,515,145,
456,523,448,475,525,671,672,2085,2086,2087,672,671,672,671,672,671,672,671,672,671,672,671,672,671,672,671,672,671,672,671,672,671,672,672,671,494,520,145,145,523,0,0,0,0,0,0,0,0,0,0,0,0,0,0,0,0,0,0,0,620,622,621,622,621,622,621,622,621,623,512,513,513,514,540,258,145,145,145,540,145,
481,548,473,500,0,0,0,0,0,0,0,0,0,0,0,0,0,0,0,0,0,0,0,0,0,0,0,0,0,0,0,0,0,0,0,0,545,145,145,548,0,0,0,0,0,0,0,0,0,0,0,0,0,0,0,0,0,0,0,645,647,646,647,646,647,646,647,646,648,0,0,0,0,565,145,145,145,145,515,233,
481,523,498,0,0,0,0,0,0,0,0,0,0,0,0,0,0,0,0,0,0,0,0,0,0,0,0,0,0,0,0,0,0,0,0,0,570,145,145,573,0,0,0,0,0,0,0,0,0,0,0,0,0,0,0,0,0,0,0,670,672,671,672,671,672,671,672,671,673,0,0,0,0,512,512,513,513,514,515,258,
481,548,523,0,0,0,0,0,0,0,0,0,0,0,0,0,0,0,0,0,0,0,0,0,0,0,0,0,0,0,0,0,0,0,0,0,595,596,597,598,0,0,0,0,0,0,0,0,0,0,0,0,0,0,0,0,0,0,0,0,0,0,0,0,0,0,0,0,0,0,0,0,0,0,0,0,0,0,515,145,
481,523,548,0,0,0,0,0,0,0,0,0,0,0,0,0,0,0,0,0,0,0,0,0,0,0,0,0,0,0,0,0,0,0,0,0,620,621,622,623,0,0,0,0,0,0,0,0,0,0,0,0,0,0,0,0,0,0,0,0,0,0,0,0,0,0,0,0,0,0,0,0,0,0,0,0,0,0,515,258,
481,548,523,0,0,0,0,0,0,0,0,0,0,0,0,0,0,0,0,0,0,0,0,0,0,0,0,0,0,0,0,0,0,0,0,0,645,646,647,648,0,0,0,0,0,0,0,0,0,0,0,0,0,0,0,0,0,0,0,0,0,0,0,0,0,0,0,0,0,0,0,0,0,0,0,0,0,0,515,386,
386,523,548,0,0,0,0,0,0,0,0,0,0,0,0,0,0,0,0,0,0,0,0,0,0,0,0,0,0,0,0,0,0,0,0,0,670,671,672,673,0,0,0,0,0,0,0,0,0,0,0,0,0,0,0,0,0,0,0,0,0,0,0,0,0,0,0,0,0,0,0,0,0,0,0,0,0,0,540,436,
145,548,523,0,0,0,0,0,0,0,0,0,0,0,0,0,0,0,0,0,0,0,0,0,0,0,0,0,0,0,0,0,0,0,0,0,0,0,0,0,0,0,0,0,0,0,0,0,0,0,0,0,0,0,0,0,0,0,0,0,0,0,0,0,0,0,0,0,0,0,0,0,0,0,0,0,0,0,565,512,
506,573,523,0,0,0,0,0,0,0,0,0,0,0,0,0,0,0,0,0,0,0,0,0,0,0,0,0,0,0,0,0,0,0,0,0,0,0,0,0,0,0,0,0,0,0,0,0,0,0,0,0,0,0,0,0,0,0,0,0,0,0,0,0,0,0,0,0,0,0,0,0,0,0,0,0,0,0,0,0,
597,598,548,0,0,0,0,0,0,0,0,0,0,0,0,0,0,0,0,0,0,0,0,0,0,0,0,0,0,0,0,0,0,0,0,0,145,479,304,304,523,0,0,0,0,0,0,0,0,0,0,0,0,0,0,0,0,0,0,0,0,0,0,0,0,0,0,0,0,0,0,0,0,0,0,0,0,0,0,0,
622,623,523,0,0,0,0,0,0,0,0,0,0,0,0,0,0,0,0,0,0,0,0,0,0,0,0,0,0,0,0,0,0,0,0,0,145,479,145,145,548,0,0,0,0,0,0,0,0,0,0,0,0,0,0,0,0,0,0,0,0,0,0,0,0,0,0,0,0,0,0,0,0,0,0,0,0,0,0,0,
647,648,548,0,0,0,0,0,0,0,0,0,0,0,0,0,0,0,0,0,0,0,0,0,0,0,0,0,0,0,0,0,0,0,0,0,145,479,145,145,304,0,0,0,0,0,0,0,0,0,0,0,0,0,0,0,0,0,0,0,0,0,0,0,0,0,0,0,0,0,0,0,0,0,0,0,0,0,0,0,
672,673,523,0,0,0,0,0,0,0,0,0,0,0,0,0,0,0,0,0,0,0,0,0,0,0,0,0,0,0,0,0,0,0,0,0,145,145,145,145,145,304,0,0,0,0,0,0,0,0,0,0,0,0,0,0,0,0,0,0,0,0,0,0,0,0,0,0,0,0,0,0,0,0,0,0,0,145,512,513,
145,145,548,0,0,0,0,0,0,0,0,0,0,0,0,0,0,0,0,0,0,0,0,0,0,0,0,0,0,0,0,0,0,0,0,0,145,479,145,145,145,145,523,0,0,0,0,0,0,0,0,0,0,0,0,0,0,0,0,0,0,0,0,0,0,0,0,0,0,0,0,0,0,0,0,0,0,145,145,145,
145,145,523,0,0,0,0,0,0,0,0,0,0,0,0,0,0,0,0,0,0,0,0,0,0,0,0,0,0,0,0,0,0,0,0,0,145,479,145,145,145,145,548,0,0,0,0,0,0,0,0,0,0,0,0,0,0,0,0,0,0,0,0,0,0,0,0,0,0,0,0,0,0,0,0,0,0,145,145,145,
145,145,548,0,0,0,0,0,0,0,0,0,0,0,0,0,0,0,0,0,0,0,0,0,0,0,0,0,0,0,0,0,0,0,0,0,145,479,145,145,0,0,523,0,0,0,0,0,0,0,0,0,0,0,0,0,0,0,0,0,0,0,0,0,0,0,0,0,0,0,0,0,0,0,0,0,0,145,145,145,
145,436,523,0,0,0,0,0,0,0,0,0,0,0,0,0,0,0,0,0,0,0,0,0,0,0,0,0,0,0,0,0,0,0,0,0,145,479,145,145,0,0,548,0,0,0,0,0,0,0,0,0,0,0,0,0,0,0,0,0,0,0,0,0,0,0,0,0,0,0,0,0,0,0,0,0,0,145,361,145,
145,145,548,0,0,0,0,0,0,0,0,0,0,0,0,0,0,0,0,0,0,0,0,0,0,0,0,0,0,0,0,0,0,0,0,0,145,0,405,406,407,506,573,0,0,0,0,0,0,0,0,0,0,0,0,0,0,0,0,0,0,0,0,0,0,0,0,0,0,0,0,0,0,0,0,0,0,145,436,297,
297,298,523,0,0,0,0,0,0,0,0,0,0,0,0,0,0,0,0,0,0,0,0,0,0,0,0,0,0,0,0,0,0,0,0,0,145,596,575,597,596,597,598,0,0,0,0,0,0,0,0,0,0,0,0,0,0,0,0,0,0,0,0,0,0,0,0,0,0,0,0,0,0,0,0,0,0,145,145,386,
436,145,548,0,0,0,0,0,0,0,0,0,0,0,0,0,0,0,0,0,0,0,0,0,0,0,0,0,0,0,0,0,0,0,0,0,620,621,622,622,576,622,623,0,0,0,0,0,0,0,0,0,0,0,0,0,0,0,0,0,0,0,0,0,0,0,0,0,0,0,0,0,0,0,0,0,0,145,145,145,
145,145,523,0,0,0,0,0,0,0,0,0,0,0,0,0,0,0,0,0,0,0,0,0,0,0,0,0,0,0,0,0,0,0,0,0,645,577,647,647,646,647,648,0,0,0,0,0,0,0,0,0,0,0,0,0,0,0,0,0,0,0,0,0,0,0,0,0,0,0,0,0,0,0,0,0,0,145,145,145,
145,145,548,0,0,0,0,0,0,0,0,0,0,0,0,0,0,0,0,0,0,0,0,0,0,312,313,313,314,0,0,0,0,0,0,0,670,671,672,672,671,672,673,0,0,0,0,0,0,0,0,0,0,0,0,0,0,0,0,0,0,0,0,0,0,0,0,0,0,0,0,0,0,0,0,0,0,145,145,145,
145,145,523,0,0,0,0,0,0,0,0,0,0,0,0,0,0,0,0,0,0,0,0,0,0,337,1422,0,364,0,0,0,0,0,0,0,0,0,0,0,0,0,0,0,0,0,0,0,0,0,0,0,0,0,0,0,0,0,0,0,0,0,0,0,0,0,0,0,0,0,0,0,0,0,0,0,0,145,145,361,
436,145,548,0,0,0,0,0,0,0,0,0,0,0,0,0,0,0,0,0,0,0,0,0,0,387,388,388,389,0,0,0,0,0,0,0,0,0,0,0,0,0,0,0,0,0,0,0,0,0,0,0,0,0,0,0,0,0,0,0,0,0,0,0,0,0,0,0,0,0,0,0,0,0,0,0,0,145,258,145,
145,258,523,0,0,0,0,0,0,0,0,0,0,0,0,0,0,0,0,0,0,0,145,304,304,304,304,304,304,304,304,304,523,0,0,0,0,0,0,0,0,0,0,0,0,0,0,145,304,304,304,0,0,0,0,0,0,0,0,0,0,0,0,0,0,0,0,0,0,0,0,0,312,313,313,314,0,145,145,145,
563,145,548,0,0,0,0,0,0,0,0,0,0,0,0,0,0,0,0,0,0,2187,304,304,304,304,145,456,145,145,145,145,548,0,0,0,0,0,0,0,0,0,0,0,0,0,0,145,145,145,145,456,304,0,0,0,0,0,0,0,0,0,0,0,0,0,0,0,0,0,0,0,337,1422,0,364,0,145,145,145,
145,145,304,0,0,0,0,0,0,0,0,0,0,0,0,0,0,0,0,0,145,145,145,145,145,145,207,145,145,145,145,145,573,0,0,0,0,0,0,0,0,0,0,0,0,0,0,145,145,145,145,145,145,446,0,0,0,0,0,0,0,0,0,0,0,0,0,0,0,0,0,0,387,388,388,389,0,145,145,145,
386,573,145,304,0,0,0,0,0,0,0,0,0,0,0,0,0,0,0,145,145,145,145,145,145,145,145,145,423,1762,1763,1764,598,0,0,0,0,0,0,0,0,0,0,0,0,0,0,145,596,569,145,145,145,0,304,304,0,0,0,0,0,0,0,0,0,0,0,0,0,0,0,0,0,0,0,0,0,145,386,230,
597,598,145,145,145,145,145,145,145,145,145,0,0,145,304,304,304,304,304,0,145,484,145,145,145,145,145,145,448,1787,0,1789,623,0,0,0,0,0,0,0,0,0,0,0,0,0,0,620,621,594,419,420,145,145,145,145,304,304,304,304,304,304,304,304,304,304,304,304,304,145,0,0,145,304,304,304,304,145,145,255,
622,623,145,145,145,145,145,145,145,145,523,0,0,145,145,145,145,145,145,145,145,509,145,145,145,145,145,145,473,1812,0,1814,648,0,0,0,0,0,0,0,0,0,0,0,0,0,0,645,646,619,444,445,145,145,145,145,145,145,145,145,145,145,145,145,145,145,145,145,145,523,0,0,145,145,145,145,145,145,145,145,
647,648,429,480,433,480,429,480,480,481,548,0,0,145,479,480,480,429,480,429,533,534,534,534,534,535,482,506,498,1837,0,1839,673,0,0,0,0,0,0,0,0,0,0,0,0,0,0,670,671,644,469,470,440,480,480,480,429,433,434,480,480,480,433,434,429,480,480,480,481,548,0,0,145,145,145,145,145,480,145,145,
672,673,505,505,505,405,406,407,505,506,573,0,0,145,504,405,406,407,505,505,505,505,505,405,406,407,506,304,573,0,0,0,0,0,0,0,0,0,0,0,0,0,0,0,0,0,0,0,964,669,671,494,504,505,405,406,407,505,505,405,406,407,505,505,405,406,407,505,506,573,0,0,145,145,145,145,145,505,145,145,
480,456,423,424,596,597,596,597,596,597,598,0,0,145,596,597,575,597,596,597,596,597,596,597,596,597,596,597,598,0,0,0,0,0,0,0,0,0,0,0,0,0,0,0,0,0,0,0,0,0,0,595,596,597,596,597,596,597,596,597,596,597,596,597,596,597,597,596,597,598,0,0,145,596,597,575,597,420,145,145,
480,145,448,449,621,576,621,622,621,622,623,0,0,620,621,622,621,622,621,622,621,622,621,622,621,622,621,622,623,0,0,0,0,0,0,0,0,0,0,0,0,0,0,0,0,0,0,0,0,0,0,620,621,622,621,622,621,576,621,622,621,622,621,622,621,576,622,621,622,623,0,0,620,621,622,621,622,445,145,145,
480,145,473,474,646,647,646,647,577,647,648,0,0,645,646,647,646,647,646,647,646,647,577,647,646,647,646,647,648,0,0,0,0,0,0,0,0,0,0,0,0,0,0,0,0,0,0,0,0,0,0,645,646,647,646,647,646,647,646,647,646,647,646,647,646,647,647,577,647,648,0,0,645,646,647,646,647,470,145,145,
361,145,498,672,671,672,671,672,671,672,673,0,0,670,671,672,671,672,671,672,671,672,671,672,671,672,671,672,673,0,0,0,0,0,0,0,0,0,0,0,0,0,0,0,0,0,0,0,0,0,0,670,671,672,671,672,671,672,671,672,671,672,671,672,671,672,672,671,672,673,0,0,670,671,672,671,672,145,145,145,
145,145,523,0,0,0,0,0,0,0,0,0,0,0,0,0,0,0,0,0,0,0,0,0,0,0,0,0,0,0,0,0,0,0,0,0,0,0,0,0,0,0,0,0,0,0,0,0,0,0,0,0,0,0,0,0,0,0,0,0,0,0,0,0,0,0,0,0,0,0,0,0,0,0,0,0,0,145,361,145,
242,243,548,0,0,0,0,0,0,0,0,0,0,0,0,0,0,0,0,0,0,0,0,0,0,0,0,0,0,0,0,0,0,0,520,304,541,0,0,0,0,0,0,544,304,304,541,0,0,0,0,0,0,0,0,0,0,0,0,0,0,0,0,0,0,0,0,0,0,0,0,0,0,0,0,0,0,145,142,143,
0,0,523,0,0,0,0,0,0,0,0,0,0,0,0,0,0,0,0,0,0,0,0,0,0,0,0,0,0,0,0,0,0,0,545,145,145,304,304,282,0,0,520,304,145,145,145,523,0,0,0,0,0,0,0,0,0,0,0,0,0,0,0,0,0,0,0,0,0,0,0,0,0,0,0,0,0,145,167,168,
0,0,548,0,0,0,0,0,0,0,0,0,0,0,0,0,0,0,0,0,0,0,0,0,0,0,0,0,0,0,0,0,0,0,570,145,145,145,145,548,0,0,520,145,145,145,145,548,0,0,0,0,0,0,0,0,0,0,0,0,0,0,0,0,0,0,0,0,0,0,0,0,0,0,0,0,0,145,192,193,
0,0,523,0,0,0,0,0,0,0,0,0,0,0,0,0,0,0,0,0,0,0,0,0,0,0,0,0,0,0,0,0,0,0,595,419,420,145,145,523,0,0,545,145,145,145,145,573,0,0,0,0,0,0,0,0,0,0,0,0,0,0,0,0,0,0,0,0,0,0,0,0,0,0,0,0,0,145,145,145,
0,0,548,0,0,0,0,0,0,0,0,0,0,0,0,0,0,0,0,0,0,0,0,0,0,0,0,0,0,0,0,0,0,0,620,621,445,145,145,548,0,0,520,145,145,423,424,598,0,0,0,0,0,0,0,0,0,0,0,0,0,0,0,0,0,0,0,0,0,0,0,0,0,0,0,0,0,145,436,143,
145,145,523,0,0,0,0,0,0,0,0,0,0,0,0,0,0,0,0,0,0,0,0,0,0,0,0,0,0,0,0,0,0,0,645,646,470,272,273,548,0,0,545,272,273,448,622,623,0,0,0,0,0,0,0,0,0,0,0,0,0,0,0,0,0,0,0,0,0,0,0,0,0,0,0,0,0,145,167,168,
144,145,548,0,0,0,0,0,0,0,0,0,0,0,0,0,0,0,0,0,0,0,0,0,0,0,0,0,0,0,0,0,0,0,670,671,495,297,298,0,0,0,0,297,298,646,647,648,0,0,0,0,0,0,0,0,0,0,0,0,0,0,0,0,0,0,0,0,0,0,0,0,0,0,0,0,0,145,192,193,
169,145,523,0,0,0,0,0,0,0,0,0,0,0,0,0,0,0,0,0,0,0,0,0,0,0,0,0,0,0,0,0,0,0,0,0,545,0,0,0,0,0,0,0,0,671,672,673,0,0,0,0,0,0,0,0,0,0,0,0,0,0,0,0,0,0,0,0,0,0,0,0,0,0,0,0,0,145,145,145,
194,145,548,0,0,0,0,0,0,0,0,0,0,0,0,0,0,0,0,0,0,0,0,0,0,0,0,0,0,0,0,0,0,0,0,0,520,0,0,0,0,0,0,0,0,573,0,0,0,0,0,0,0,0,0,0,0,0,0,0,0,0,0,0,0,0,0,0,0,0,0,0,0,0,0,0,0,145,145,145,
304,304,523,0,0,0,0,0,0,0,0,0,0,0,0,0,0,0,0,0,0,0,0,0,0,0,0,0,0,0,0,0,0,0,0,0,545,0,0,0,0,0,0,0,423,598,0,0,0,0,0,0,0,0,0,0,0,0,0,0,0,0,0,0,0,0,0,0,0,0,0,0,0,0,0,0,0,145,436,386,
304,304,548,0,0,0,0,0,0,0,0,0,0,0,0,0,0,0,0,0,0,0,0,0,0,0,0,0,0,0,0,0,0,0,0,0,520,0,0,0,0,0,0,0,448,623,0,0,0,0,0,0,0,0,0,0,0,0,0,0,0,0,0,0,0,0,0,0,0,0,0,0,0,0,0,0,0,145,145,361,
304,304,523,0,0,0,0,0,0,0,0,0,0,0,0,0,0,0,0,0,0,0,0,0,0,0,0,0,0,0,0,0,0,0,0,0,545,0,0,0,0,0,0,0,473,648,0,0,0,0,0,0,0,0,0,0,0,0,0,0,0,0,0,0,0,0,0,0,0,0,0,0,0,0,0,0,0,145,145,145,
480,145,548,0,0,0,0,0,0,0,0,0,0,0,0,0,0,0,0,0,0,0,0,0,0,0,0,0,0,0,0,0,0,0,0,0,570,512,514,0,0,0,512,514,425,673,0,0,0,0,0,0,0,0,0,0,0,0,0,0,0,0,0,0,0,0,0,0,0,0,0,0,0,0,0,0,0,145,145,386,
145,436,523,0,0,0,0,0,0,0,0,0,0,0,0,0,0,0,0,0,0,0,0,0,0,0,0,0,0,0,0,0,0,0,0,0,0,0,0,0,0,0,0,0,0,0,0,0,0,0,0,0,0,0,0,0,0,0,0,0,0,0,0,0,0,0,0,0,0,0,0,0,0,0,0,0,0,145,145,145,
145,386,548,0,0,0,0,0,0,0,0,0,0,0,0,0,0,0,0,0,0,0,0,0,0,0,0,0,0,0,0,0,0,0,0,0,520,0,0,0,0,0,0,0,548,0,0,0,0,0,0,0,0,0,0,0,0,0,0,0,0,0,0,0,0,0,0,0,0,0,0,0,0,0,0,0,0,145,145,145,
386,481,523,0,0,0,0,0,0,0,0,0,0,0,0,0,0,0,0,0,0,0,0,0,0,0,0,0,0,0,0,0,0,0,0,0,666,0,0,0,0,0,0,0,446,0,0,0,0,0,0,0,0,0,0,0,0,0,0,0,0,0,0,0,0,0,0,0,0,0,0,0,0,0,0,0,0,145,479,436,
145,481,548,0,0,0,0,0,0,0,0,0,0,0,0,0,0,0,0,0,0,0,0,0,0,0,0,0,0,0,0,0,0,0,0,666,0,0,0,0,0,0,0,0,145,304,0,0,0,0,0,0,0,0,0,0,0,0,0,0,0,0,0,0,0,0,0,0,0,0,0,0,0,0,0,0,145,145,255,145,
143,481,523,0,0,0,0,0,0,0,0,0,0,0,0,0,0,0,0,0,0,0,0,0,0,0,0,0,0,0,0,0,0,0,666,0,0,0,0,0,0,0,0,145,145,145,304,0,0,0,0,0,0,0,0,0,0,0,0,0,0,0,0,0,0,0,0,0,0,0,0,0,0,0,0,0,145,145,135,136,
168,169,548,0,0,0,0,0,0,0,0,0,0,0,0,0,0,0,0,0,0,0,0,0,0,0,0,0,0,0,0,0,0,666,304,304,304,304,304,523,0,0,520,454,145,455,455,523,0,0,0,0,0,0,0,0,0,0,0,0,0,0,0,0,0,0,0,0,312,313,313,314,0,0,0,0,145,145,160,161,
193,194,523,0,0,0,0,0,0,0,0,0,0,0,0,0,0,0,0,0,0,0,0,0,0,0,0,0,0,0,0,0,145,484,484,484,484,304,304,548,0,0,545,145,145,145,145,523,0,0,0,0,0,0,0,0,0,0,0,0,0,0,0,0,0,0,0,0,337,1422,0,364,0,145,454,361,145,145,185,186,
304,304,548,0,0,0,0,0,0,0,0,0,0,0,0,0,0,0,0,0,0,0,0,0,0,0,0,0,0,0,0,0,666,479,509,509,509,145,145,548,0,0,520,145,145,145,145,548,0,0,0,0,0,0,0,0,0,0,0,0,0,0,0,0,0,0,0,0,387,388,388,389,0,145,145,145,145,145,210,211,
509,304,541,0,0,0,0,0,0,0,0,0,0,0,0,0,0,0,0,0,0,0,0,0,0,0,0,0,0,0,0,0,666,0,145,145,145,145,145,145,0,0,145,145,145,145,145,446,0,0,0,0,0,0,0,0,0,0,0,0,0,0,0,0,0,0,0,0,0,0,0,0,0,145,145,145,145,145,235,236,
509,507,490,0,0,0,0,0,0,0,0,0,0,0,312,313,340,313,340,313,314,0,0,0,0,0,0,0,0,0,0,455,455,457,145,145,145,145,145,145,0,0,145,145,145,145,145,455,456,523,0,0,0,0,0,0,0,0,0,0,0,0,0,0,0,0,0,0,145,304,304,304,304,145,145,145,145,145,145,261,
145,145,515,507,304,304,0,0,0,0,0,0,0,3001,412,1422,338,338,338,338,413,3064,0,0,0,0,0,0,0,430,454,455,455,455,145,145,145,145,145,145,145,145,145,145,145,145,145,480,481,548,0,0,0,0,0,0,0,0,0,0,0,0,0,145,304,304,304,304,304,304,145,145,145,145,145,145,145,145,145,286,
145,145,540,145,480,480,304,304,304,304,523,0,3016,3017,0,0,0,0,0,0,0,3080,3162,314,0,520,454,430,454,455,457,480,480,480,480,145,145,145,145,145,145,145,145,145,145,145,145,505,506,523,0,0,0,0,0,0,0,0,0,0,0,0,0,145,145,142,143,304,304,304,145,145,529,304,145,145,145,145,145,145,
145,145,565,143,144,145,513,513,514,513,523,312,412,0,0,0,0,0,0,0,0,0,1422,413,314,545,479,455,457,483,484,484,484,509,145,145,145,145,145,145,145,145,145,145,145,145,145,145,145,548,0,0,0,0,0,0,0,0,0,0,0,0,0,145,304,167,168,169,454,456,145,145,145,145,145,145,145,145,145,145,
145,145,167,168,169,145,145,145,145,145,548,337,0,0,0,0,0,0,0,0,0,0,0,0,3050,520,479,483,484,461,509,509,0,0,145,145,145,145,145,145,145,145,145,145,145,145,145,145,145,541,0,0,0,0,0,0,0,0,0,0,0,0,0,145,145,192,193,194,142,143,144,145,145,145,145,145,145,145,145,145,
145,145,192,193,194,145,145,145,145,145,523,337,0,0,0,0,0,0,0,0,0,0,0,0,3066,545,479,508,509,509,0,0,0,0,145,145,145,145,145,145,145,145,145,145,145,145,145,145,145,386,484,304,304,304,304,304,304,304,304,304,304,304,304,304,145,145,145,145,167,168,169,145,145,145,145,145,145,145,145,145,
145,145,145,145,145,145,145,145,145,145,548,337,0,0,0,0,0,0,0,0,0,0,0,0,3082,520,479,508,509,509,145,145,145,145,145,145,145,145,145,145,145,145,145,145,145,145,145,145,145,145,145,145,145,145,145,145,145,145,145,145,145,145,145,145,145,145,145,145,192,193,194,145,145,145,145,145,145,145,145,145,
145,145,145,145,145,145,145,297,145,145,523,337,0,0,0,0,0,0,0,0,0,0,0,0,339,545,479,508,509,509,145,145,145,145,145,145,145,145,145,145,145,145,145,145,145,145,145,145,145,145,145,145,145,145,145,145,145,145,145,145,145,145,145,145,145,145,145,145,145,145,145,145,145,145,145,145,145,145,145,145,
145,145,145,145,145,145,145,145,510,145,548,3002,0,0,0,0,0,0,0,0,0,0,0,0,0,145,145,508,145,145,145,145,145,145,145,145,145,145,145,145,145,145,145,145,145,145,145,145,145,145,145,145,145,145,145,145,145,145,145,145,145,145,145,145,145,145,145,145,145,145,145,145,145,145,145,145,145,145,145,145,
145,145,145,145,145,145,145,145,145,145,145,3018,0,0,0,0,0,0,0,0,0,0,145,145,145,145,145,145,145,145,145,145,145,145,145,145,145,145,145,145,145,145,145,145,145,145,145,145,145,145,145,145,145,145,145,145,145,145,145,145,145,145,145,145,145,145,145,145,145,145,145,145,145,145,145,145,145,145,145,145,
145,145,145,145,145,145,145,145,145,145,145,3034,0,0,0,0,0,0,0,0,0,145,145,145,145,145,145,145,145,145,145,145,145,145,145,145,145,145,145,145,145,145,145,145,145,145,145,145,145,145,145,145,145,145,145,145,145,145,145,145,145,145,145,145,145,145,145,145,145,145,145,145,145,145,145,145,145,145,145,145,
145,145,145,145,145,145,145,145,145,145,145,0,0,0,0,0,0,0,0,0,145,145,145,145,145,145,145,145,145,145,145,145,145,145,145,145,145,145,145,145,145,145,145,145,145,145,145,145,145,145,145,145,145,145,145,145,145,145,145,145,145,145,145,145,145,145,145,145,145,145,145,145,145,145,145,145,145,145,145,145,
145,145,145,145,145,145,145,145,145,145,145,145,145,145,145,145,145,145,145,145,145,145,145,145,145,145,145,145,145,145,145,145,145,145,145,145,145,145,145,145,145,145,145,145,145,145,145,145,145,145,145,145,145,145,145,145,145,145,145,145,145,145,145,145,145,145,145,145,145,145,145,145,145,145,145,145,145,145,145,145,
145,145,145,145,145,145,145,145,145,145,145,0,0,0,0,0,0,0,0,0,0,0,0,0,0,145,145,145,145,145,145,145,145,145,145,145,145,145,145,145,145,145,145,145,145,145,145,145,145,145,145,145,145,145,145,145,145,145,145,145,145,145,145,145,145,145,145,145,145,145,145,145,145,145,145,145,145,145,145,145
</data>
 </layer>
 <layer id="4" name="Front" width="80" height="80">
  <data encoding="csv">
0,129,130,131,182,183,184,207,208,209,0,0,0,0,0,0,0,0,0,0,0,0,0,0,0,0,0,0,0,206,182,0,0,0,0,0,208,167,168,169,0,0,0,0,0,0,0,0,0,0,0,0,0,0,0,0,0,0,0,0,0,0,0,0,170,171,172,173,174,175,183,184,0,0,0,0,195,196,197,198,
0,154,155,156,207,208,209,232,233,234,0,0,0,0,0,0,0,0,0,0,0,0,0,0,0,0,0,0,0,0,207,0,0,0,0,0,233,192,193,194,0,0,0,0,0,0,0,0,0,0,0,0,0,0,0,0,0,0,0,0,0,0,0,0,195,196,197,198,199,200,208,209,0,0,0,0,220,221,222,223,
0,179,180,181,232,233,234,257,258,259,0,0,0,0,0,0,0,0,0,0,0,0,0,0,0,0,0,0,0,0,0,0,0,0,0,0,0,0,0,0,0,0,0,0,0,0,0,0,0,0,0,0,0,0,0,0,0,0,0,0,0,0,0,233,220,221,222,223,224,225,233,234,0,132,133,134,245,0,247,248,
0,204,205,206,257,258,259,0,0,0,0,0,0,0,280,0,0,0,0,0,0,0,0,0,0,0,0,0,0,0,0,0,0,0,0,0,0,0,0,0,0,0,0,0,0,0,0,0,0,0,0,0,0,0,0,0,0,0,0,0,0,0,0,142,143,144,247,248,0,0,0,0,0,157,158,159,0,0,0,0,
0,0,230,0,0,0,0,0,0,0,0,0,0,0,0,0,0,0,0,0,0,0,0,0,0,0,0,0,0,0,0,0,0,0,0,0,0,479,481,0,0,0,0,0,0,0,0,0,0,0,0,0,0,0,0,0,0,0,0,0,0,0,0,0,0,0,0,0,0,0,0,0,0,182,183,184,0,0,132,133,
0,0,255,0,0,0,0,0,0,0,0,0,0,0,0,0,0,0,0,0,0,0,0,0,0,0,0,0,0,0,0,0,0,0,0,0,0,415,410,0,0,0,0,0,0,0,0,0,0,0,0,0,0,0,0,0,0,0,0,570,0,0,0,0,0,0,0,0,0,0,0,0,0,207,208,209,0,0,157,158,
543,567,0,0,0,0,0,0,0,0,0,0,0,0,0,0,0,0,0,0,0,0,0,0,0,0,0,0,0,0,0,0,0,0,0,0,0,415,436,0,0,0,0,0,0,0,0,0,0,0,0,0,0,0,0,0,0,0,0,574,0,0,0,0,0,0,0,0,0,487,488,488,489,490,233,234,0,0,182,183,
0,0,0,0,0,0,0,0,0,0,0,0,0,0,0,0,0,0,0,0,0,0,0,0,0,0,0,0,0,0,0,0,0,0,0,0,0,415,435,0,0,0,0,0,0,0,0,0,0,0,0,0,0,0,0,0,0,0,0,0,0,0,0,0,0,0,0,0,0,0,0,0,0,0,0,0,0,0,207,208,
0,0,0,0,0,0,0,0,0,0,0,0,0,0,0,0,0,0,0,0,0,0,0,0,0,0,0,0,0,0,0,0,0,0,0,0,0,415,435,0,0,0,0,0,0,0,0,0,0,0,0,0,0,0,0,0,0,0,0,0,0,0,0,0,0,0,0,0,0,0,0,0,0,487,487,488,488,489,0,0,
0,0,0,0,0,0,0,0,0,0,0,0,0,0,0,0,0,0,0,0,0,0,0,0,0,0,0,0,0,0,0,0,0,0,0,0,0,386,361,0,0,0,0,0,0,0,0,0,0,0,0,0,0,0,0,0,0,0,0,0,0,0,0,0,0,0,0,0,0,0,0,0,0,0,0,0,0,0,0,0,
0,0,0,0,0,0,0,0,0,0,0,0,0,0,0,0,0,0,0,0,0,0,0,0,0,0,0,0,0,0,0,0,0,0,0,0,0,0,0,0,0,0,0,0,0,0,0,0,0,0,0,0,0,0,0,0,0,0,0,0,0,0,0,0,0,0,0,0,0,0,0,0,0,0,0,0,0,0,0,229,
0,0,0,0,0,0,0,0,0,0,0,0,0,0,0,0,0,0,0,0,0,0,0,0,0,0,0,0,0,0,0,0,0,0,0,0,0,0,0,0,0,0,0,0,0,0,0,0,0,0,0,0,0,0,0,0,0,0,0,0,0,0,0,0,0,0,0,0,0,0,0,0,0,0,0,0,0,0,0,0,
0,0,0,0,0,0,0,0,0,0,0,0,0,0,0,0,0,0,0,0,0,0,0,0,0,0,0,0,0,0,0,0,0,0,0,0,0,0,0,0,0,0,0,0,0,0,0,0,0,0,0,0,0,0,0,0,0,0,0,0,0,0,0,0,0,0,0,0,0,0,0,0,0,0,0,0,0,0,0,0,
0,0,0,0,0,0,0,0,0,0,0,0,0,0,0,0,0,0,0,0,0,0,0,0,0,0,0,0,0,0,0,0,0,0,0,0,0,0,0,0,0,0,0,0,0,0,0,0,0,0,0,0,0,0,0,0,0,0,0,0,0,0,0,0,0,0,0,0,0,0,0,0,0,0,0,0,0,0,0,487,
0,0,0,0,0,0,0,0,0,0,0,0,0,0,0,0,0,0,0,0,0,0,0,0,0,0,0,0,0,0,0,0,0,0,0,0,0,0,0,0,0,0,0,0,0,0,0,0,0,0,0,0,0,0,0,0,0,0,0,0,0,0,0,0,0,0,0,0,0,0,0,0,0,0,0,0,0,0,0,0,
0,0,0,0,0,0,0,0,0,0,0,0,0,0,0,0,0,0,0,0,0,0,0,0,0,0,0,0,0,0,0,0,0,0,0,0,568,542,543,542,567,0,0,0,0,0,0,0,0,0,0,0,0,0,0,0,0,0,0,0,0,0,0,0,0,0,0,0,0,0,0,0,0,0,0,0,0,0,0,0,
0,0,0,0,0,0,0,0,0,0,0,0,0,0,0,0,0,0,0,0,0,0,0,0,0,0,0,0,0,0,0,0,0,0,0,0,520,415,480,481,523,0,0,0,0,0,0,0,0,0,0,0,0,0,0,0,0,0,0,0,0,0,0,0,0,0,0,0,0,0,0,0,0,0,0,0,0,0,0,0,
0,0,0,0,0,0,0,0,0,0,0,0,0,0,0,0,0,0,0,0,0,0,0,0,0,0,0,0,0,0,0,0,0,0,0,0,545,436,230,481,548,0,0,0,0,0,0,0,0,0,0,0,0,0,0,0,0,0,0,0,0,0,0,0,0,0,0,0,0,0,0,0,0,0,0,0,0,0,0,0,
0,0,0,0,0,0,0,0,0,0,0,0,0,0,0,0,0,0,0,0,0,0,0,0,0,0,0,0,0,0,0,0,0,0,0,0,520,415,255,507,446,518,0,0,0,0,0,0,0,0,0,0,0,0,0,0,0,0,0,0,0,0,0,0,0,0,0,0,0,0,0,0,0,0,0,0,0,568,542,542,
0,0,0,0,0,0,0,0,0,0,0,0,0,0,0,0,0,0,0,0,0,0,0,0,0,0,0,0,0,0,0,0,0,0,0,0,545,415,480,480,507,446,518,0,0,0,0,0,0,0,0,0,0,0,0,0,0,0,0,0,0,0,0,0,0,0,0,0,0,0,0,0,0,0,0,0,0,520,171,172,
0,0,0,0,0,0,0,0,0,0,0,0,0,0,0,0,0,0,0,0,0,0,0,0,0,0,0,0,0,0,0,0,0,0,0,0,520,440,480,480,480,304,523,0,0,0,0,0,0,0,0,0,0,0,0,0,0,0,0,0,0,0,0,0,0,0,0,0,0,0,0,0,0,0,0,0,0,545,196,197,
0,0,0,0,0,0,0,0,0,0,0,0,0,0,0,0,0,0,0,0,0,0,0,0,0,0,0,0,0,0,0,0,0,0,0,0,545,479,480,480,480,410,548,0,0,0,0,0,0,0,0,0,0,0,0,0,0,0,0,0,0,0,0,0,0,0,0,0,0,0,0,0,0,0,0,0,0,520,221,222,
0,541,0,0,0,0,0,0,0,0,0,0,0,0,0,0,0,0,0,0,0,0,0,0,0,0,0,0,0,0,0,0,0,0,0,0,520,479,480,480,242,243,523,0,0,0,0,0,0,0,0,0,0,0,0,0,0,0,0,0,0,0,0,0,0,0,0,0,0,0,0,0,0,0,0,0,0,545,0,247,
247,248,0,0,0,0,0,0,0,0,0,0,0,0,0,0,0,0,0,0,0,0,0,0,0,0,0,0,0,0,0,0,0,0,0,0,545,440,297,480,480,460,548,0,0,0,0,0,0,0,0,0,0,0,0,0,0,0,0,0,0,0,0,0,0,0,0,0,0,0,0,0,0,0,0,0,0,520,0,272,
272,273,0,0,0,0,0,0,0,0,0,0,0,0,0,0,0,0,0,0,0,0,0,0,0,0,0,0,0,0,0,0,0,0,0,0,570,242,243,386,192,193,194,0,0,0,0,0,0,0,0,0,0,0,0,0,0,0,0,0,0,0,0,0,0,0,0,0,0,0,0,0,0,0,0,0,0,545,0,0,
0,0,0,0,0,0,0,0,0,0,0,0,0,0,0,0,0,0,0,0,0,0,0,0,0,0,0,0,0,0,0,0,0,0,0,0,595,0,0,0,0,0,598,0,0,0,0,0,0,0,0,0,0,0,0,0,0,0,0,0,0,0,0,0,0,0,0,0,0,0,0,0,0,0,0,0,0,520,133,134,
0,0,0,0,0,0,0,0,0,0,0,0,0,0,0,0,0,0,0,0,0,0,0,0,0,0,0,0,0,0,0,0,0,0,0,0,0,0,0,0,0,0,0,0,0,0,0,0,0,0,0,0,0,0,0,0,0,0,0,0,0,0,0,0,0,0,0,0,0,0,0,0,0,0,0,0,0,545,158,159,
0,0,0,0,0,0,0,0,0,0,0,0,0,0,0,0,0,0,0,0,0,0,0,0,0,0,0,0,0,0,0,0,0,0,0,0,0,0,0,0,0,0,0,0,0,0,0,0,0,0,0,0,0,0,0,0,0,0,0,0,0,0,0,0,0,0,0,0,0,0,0,0,0,0,0,0,0,520,183,184,
0,0,0,0,0,0,0,0,0,0,0,0,0,0,0,0,0,0,0,0,0,0,0,0,0,0,0,0,0,0,0,0,0,0,0,0,0,0,0,0,0,0,0,0,0,0,0,0,0,0,0,0,0,0,0,0,0,0,0,0,0,0,0,0,0,0,0,0,0,0,0,0,0,0,0,0,0,545,208,209,
0,0,0,0,0,0,0,0,0,0,0,0,0,0,0,0,0,0,0,0,0,0,0,0,0,0,0,0,0,0,0,0,0,0,0,0,0,0,0,0,0,0,0,0,0,0,0,0,0,0,0,0,0,0,0,0,0,0,0,0,0,0,0,0,0,0,0,0,0,0,0,0,0,0,0,0,0,520,233,234,
0,0,0,0,0,0,0,0,0,0,0,0,0,0,0,0,0,0,0,0,0,0,568,543,542,543,542,543,542,543,542,543,567,0,0,0,0,0,0,0,0,0,0,0,0,0,0,568,542,543,567,0,0,0,0,0,0,0,0,0,0,0,0,0,0,0,0,0,0,0,0,0,0,0,0,0,0,545,129,130,
538,489,0,0,0,0,0,0,0,0,0,0,0,0,0,0,0,0,0,0,0,566,2187,167,168,169,157,304,304,304,304,304,523,0,0,0,0,0,0,0,0,0,0,0,0,0,0,520,454,455,304,519,567,0,0,0,0,0,0,0,0,0,0,0,0,0,0,0,0,0,0,0,0,0,0,0,0,520,154,155,
0,514,548,0,0,0,0,0,0,0,0,0,0,0,0,0,0,0,0,0,566,155,156,192,193,194,182,456,304,304,304,304,548,0,0,0,0,0,0,0,0,0,0,0,0,0,0,545,479,480,455,242,304,518,0,0,0,0,0,0,0,0,0,0,0,0,0,0,0,0,0,0,0,0,0,0,0,545,179,180,
543,567,446,518,0,0,0,0,0,0,0,0,0,0,0,0,0,0,0,566,2187,180,181,483,480,455,0,481,304,304,304,304,573,0,0,0,0,0,0,0,0,0,0,0,0,0,0,570,504,505,532,480,455,304,519,567,0,0,0,0,0,0,0,0,0,0,0,0,0,0,0,0,0,0,0,0,0,520,204,205,
0,0,456,446,519,542,543,542,543,542,567,0,0,568,543,542,543,542,543,544,455,205,206,508,509,510,480,410,0,0,0,0,598,0,0,0,0,0,0,0,0,0,0,0,0,0,0,595,0,0,504,505,532,455,455,541,543,542,543,542,543,542,543,542,543,542,542,543,542,567,0,0,568,543,542,543,542,544,144,0,
0,0,507,455,455,455,455,455,455,456,523,0,0,520,454,455,455,455,455,457,483,230,485,461,509,510,480,435,0,1787,0,1789,623,0,0,0,0,0,0,0,0,0,0,0,0,0,0,0,0,0,0,0,390,480,480,455,455,455,455,455,455,455,455,455,455,304,455,455,456,523,0,0,520,454,455,455,455,168,169,0,
133,134,480,480,429,480,480,480,429,481,548,0,0,520,479,480,480,480,480,194,508,255,509,509,509,510,429,460,523,0,0,0,0,0,0,0,0,0,0,0,0,0,0,0,0,0,0,0,0,0,0,0,415,480,480,480,480,480,480,480,480,480,429,386,480,480,480,429,481,548,0,0,520,479,480,480,480,193,194,0,
158,159,232,233,234,436,0,386,217,218,548,0,0,545,0,242,243,0,436,167,168,169,0,272,273,242,243,0,548,0,0,0,0,0,0,0,0,0,0,0,0,0,0,0,0,0,0,0,939,0,0,0,272,273,242,243,0,0,0,192,193,194,0,0,0,0,386,217,218,548,0,0,545,479,480,480,429,0,429,0,
183,184,257,258,259,0,0,0,242,243,573,0,0,570,0,0,0,0,0,192,193,194,0,297,298,0,0,0,0,0,0,0,0,0,0,0,0,0,0,0,0,0,0,0,0,0,0,0,0,0,0,570,297,298,0,0,0,0,0,0,0,0,0,0,0,0,0,242,243,573,0,0,570,504,405,406,407,0,0,0,
208,209,0,0,0,0,0,0,0,0,598,0,0,595,0,0,0,0,0,0,0,0,0,0,0,0,0,0,0,0,0,0,0,0,0,0,0,0,0,0,0,0,0,0,0,0,0,0,0,0,0,0,0,0,0,0,0,0,0,0,0,0,0,0,0,0,0,0,0,598,0,0,595,0,0,0,0,0,0,0,
233,234,0,0,0,0,0,0,0,0,0,0,0,0,0,0,0,0,0,0,0,0,0,0,0,0,0,0,0,0,0,0,0,0,0,0,0,0,0,0,0,0,0,0,0,0,0,0,0,0,0,0,0,0,0,0,0,0,0,0,0,0,0,0,0,0,0,0,0,0,0,0,0,0,0,0,0,0,0,0,
258,259,523,0,0,0,0,0,0,0,0,0,0,0,0,0,0,0,0,0,0,0,0,0,0,0,0,0,0,0,0,0,0,0,0,0,0,0,0,0,0,0,0,0,0,0,0,0,0,0,0,0,0,0,0,0,0,0,0,0,0,0,0,0,0,0,0,0,0,0,0,0,0,0,0,0,0,520,0,0,
0,0,548,0,0,0,0,0,0,0,0,0,0,0,0,0,0,0,0,0,0,0,0,0,0,0,0,0,0,0,0,0,0,0,0,0,0,0,0,0,0,0,0,0,0,0,0,0,0,0,0,0,0,0,0,0,0,0,0,0,0,0,0,0,0,0,0,0,0,0,0,0,0,0,0,0,0,545,0,0,
217,218,523,0,0,0,0,0,0,0,0,0,0,0,0,0,0,0,0,0,0,0,0,0,0,0,0,0,0,0,0,0,0,0,568,542,567,0,0,0,0,0,0,568,542,543,567,0,0,0,0,0,0,0,0,0,0,0,0,0,0,0,0,0,0,0,0,0,0,0,0,0,0,0,0,0,0,520,0,0,
143,144,548,0,0,0,0,0,0,0,0,0,0,0,0,0,0,0,0,0,0,0,0,0,0,0,0,0,0,0,0,0,0,0,167,168,169,542,542,567,0,0,568,544,167,168,541,567,0,0,0,0,0,0,0,0,0,0,0,0,0,0,0,0,0,0,0,0,0,0,0,0,0,0,0,0,0,545,0,0,
168,169,523,0,0,0,0,0,0,0,0,0,0,0,0,0,0,0,0,0,0,0,0,0,0,0,0,0,0,0,0,0,0,0,192,193,194,0,0,523,0,0,0,0,192,193,194,523,0,0,0,0,0,0,0,0,0,0,0,0,0,0,0,0,0,0,0,0,0,0,0,0,0,0,0,0,0,520,0,0,
193,194,548,0,0,0,0,0,0,0,0,0,0,0,0,0,0,0,0,0,0,0,0,0,0,0,0,0,0,0,0,0,0,0,0,0,0,0,0,0,0,0,0,0,0,0,0,548,0,0,0,0,0,0,0,0,0,0,0,0,0,0,0,0,0,0,0,0,0,0,0,0,0,0,0,0,0,545,0,0,
217,218,523,0,0,0,0,0,0,0,0,0,0,0,0,0,0,0,0,0,0,0,0,0,0,0,0,0,0,0,0,0,0,0,0,0,0,0,0,0,0,0,0,0,0,0,0,573,0,0,0,0,0,0,0,0,0,0,0,0,0,0,0,0,0,0,0,0,0,0,0,0,0,0,0,0,0,520,0,0,
242,243,548,0,0,0,0,0,0,0,0,0,0,0,0,0,0,0,0,0,0,0,0,0,0,0,0,0,0,0,0,0,0,0,0,0,0,247,248,0,0,0,0,247,248,0,0,598,0,0,0,0,0,0,0,0,0,0,0,0,0,0,0,0,0,0,0,0,0,0,0,0,0,0,0,0,0,545,142,0,
0,0,523,0,0,0,0,0,0,0,0,0,0,0,0,0,0,0,0,0,0,0,0,0,0,0,0,0,0,0,0,0,0,0,0,0,0,0,0,0,0,0,0,0,0,0,0,623,0,0,0,0,0,0,0,0,0,0,0,0,0,0,0,0,0,0,0,0,0,0,0,0,0,0,0,0,0,520,0,0,
0,0,548,0,0,0,0,0,0,0,0,0,0,0,0,0,0,0,0,0,0,0,0,0,0,0,0,0,0,0,0,0,0,0,0,0,0,0,0,0,0,0,0,0,0,473,0,0,0,0,0,0,0,0,0,0,0,0,0,0,0,0,0,0,0,0,0,0,0,0,0,0,0,0,0,0,0,545,0,0,
0,0,523,0,0,0,0,0,0,0,0,0,0,0,0,0,0,0,0,0,0,0,0,0,0,0,0,0,0,0,0,0,0,0,0,0,0,0,0,0,0,0,0,0,0,498,0,0,0,0,0,0,0,0,0,0,0,0,0,0,0,0,0,0,0,0,0,0,0,0,0,0,0,0,0,0,0,520,158,159,
148,149,548,0,0,0,0,0,0,0,0,0,0,0,0,0,0,0,0,0,0,0,0,0,0,0,0,0,0,0,0,0,0,0,0,0,0,0,0,0,0,0,0,0,0,0,0,0,0,0,0,0,0,0,0,0,0,0,0,0,0,0,0,0,0,0,0,0,0,0,0,0,0,0,0,0,0,545,183,184,
173,174,523,0,0,0,0,0,0,0,0,0,0,0,0,0,0,0,0,0,0,0,0,0,0,0,0,0,0,0,0,0,0,0,0,0,0,0,0,0,0,0,0,0,0,0,0,0,0,0,0,0,0,0,0,0,0,0,0,0,0,0,0,0,0,0,0,0,0,0,0,0,0,0,0,0,0,520,208,209,
198,199,548,0,0,0,0,0,0,0,0,0,0,0,0,0,0,0,0,0,0,0,0,0,0,0,0,0,0,0,0,0,0,0,0,0,0,0,0,0,0,0,0,0,0,0,0,0,0,0,0,0,0,0,0,0,0,0,0,0,0,0,0,0,0,0,0,0,0,0,0,0,0,0,0,0,0,545,233,234,
223,224,523,0,0,0,0,0,0,0,0,0,0,0,0,0,0,0,0,0,0,0,0,0,0,0,0,0,0,0,0,0,0,0,0,0,0,487,489,0,0,0,487,489,0,0,0,0,0,0,0,0,0,0,0,0,0,0,0,0,0,0,0,0,0,0,0,0,0,0,0,0,0,0,0,0,0,520,258,259,
248,0,548,0,0,0,0,0,0,0,0,0,0,0,0,0,0,0,0,0,0,0,0,0,0,0,0,0,0,0,0,0,0,0,0,0,0,0,0,0,0,0,0,0,0,0,0,0,0,0,0,0,0,0,0,0,0,0,0,0,0,0,0,0,0,0,0,0,0,0,0,0,0,0,0,0,0,545,0,0,
273,0,523,0,0,0,0,0,0,0,0,0,0,0,0,0,0,0,0,0,0,0,0,0,0,0,0,0,0,0,0,0,0,0,0,0,0,0,0,0,0,0,0,0,0,0,0,0,0,0,0,0,0,0,0,0,0,0,0,0,0,0,0,0,0,0,0,0,0,0,0,0,0,0,0,0,0,520,0,0,
298,0,548,0,0,0,0,0,0,0,0,0,0,0,0,0,0,0,0,0,0,0,0,0,0,0,0,0,0,0,0,0,0,0,0,0,0,0,0,0,0,0,0,0,0,0,0,0,0,0,0,0,0,0,0,0,0,0,0,0,0,0,0,0,0,0,0,0,0,0,0,0,0,0,0,0,0,545,0,0,
0,0,523,0,0,0,0,0,0,0,0,0,0,0,0,0,0,0,0,0,0,0,0,0,0,0,0,0,0,0,0,0,0,0,0,566,2187,0,0,0,0,0,0,0,0,518,0,0,0,0,0,0,0,0,0,0,0,0,0,0,0,0,0,0,0,0,0,0,0,0,0,0,0,0,0,0,568,544,230,0,
0,0,548,0,0,0,0,0,0,0,0,0,0,0,0,0,0,0,0,0,0,0,0,0,0,0,0,0,0,0,0,0,0,0,566,2187,454,0,0,0,0,0,0,0,456,304,518,0,0,0,0,0,0,0,0,0,0,0,0,0,0,0,0,0,0,0,0,0,0,0,0,0,0,0,0,0,520,454,0,0,
0,144,523,0,0,0,0,0,0,0,0,0,0,0,0,0,0,0,0,0,0,0,0,0,0,0,0,0,0,0,0,0,0,566,2187,304,0,0,542,567,0,0,568,542,0,242,446,518,0,0,0,0,0,0,0,0,0,0,0,0,0,0,0,0,0,0,0,0,0,0,0,0,0,0,0,0,545,390,0,0,
0,0,548,0,0,0,0,0,0,0,0,0,0,0,0,0,0,0,0,0,0,0,0,0,0,0,0,0,0,0,0,0,566,2187,455,304,304,304,304,523,0,0,520,0,304,304,530,523,0,0,0,0,0,0,0,0,0,0,0,0,0,0,0,0,0,0,0,0,0,0,0,0,0,568,542,543,544,415,0,0,
0,0,523,0,0,0,0,0,0,0,0,0,0,0,0,0,0,0,0,0,0,0,0,0,0,0,0,0,0,0,0,0,520,479,0,0,0,0,0,0,0,0,0,197,198,199,279,548,0,0,0,0,0,0,0,0,0,0,0,0,0,0,0,0,0,0,0,0,0,0,0,0,0,520,304,304,530,0,0,0,
0,0,548,0,0,0,0,0,0,0,0,0,0,0,0,0,0,0,0,0,0,0,0,0,0,0,0,0,0,0,0,0,545,220,221,222,223,222,223,224,225,220,221,222,223,224,304,548,0,0,0,0,0,0,0,0,0,0,0,0,0,0,0,0,0,0,0,0,0,0,0,0,0,545,242,243,217,218,0,0,
0,0,304,567,0,0,0,0,0,0,0,0,0,0,0,0,0,0,0,0,0,0,0,0,0,0,0,0,0,0,568,542,544,479,0,0,0,0,0,0,0,0,0,247,248,142,304,446,519,567,0,0,0,0,0,0,0,0,0,0,0,0,0,0,0,0,0,0,568,542,543,542,542,544,143,144,242,243,0,0,
0,0,456,541,543,567,0,0,0,0,0,0,0,0,0,0,0,0,0,0,0,0,0,0,0,0,0,0,568,542,544,280,304,218,455,0,0,0,0,0,0,0,0,272,273,167,168,169,530,523,0,0,0,0,0,0,0,0,0,0,0,0,0,568,542,542,542,542,544,383,304,304,304,304,168,169,0,0,133,134,
0,0,0,0,455,304,519,542,543,542,567,0,0,0,0,0,0,0,0,0,0,0,0,0,0,568,543,542,544,304,304,455,242,243,0,0,0,0,0,0,0,0,0,297,145,192,193,194,304,548,0,0,0,0,0,0,0,0,0,0,0,0,0,520,304,304,304,280,304,0,0,0,0,192,193,194,0,157,158,159,
0,0,0,433,0,194,455,455,455,455,523,0,0,0,0,0,0,0,0,0,0,0,0,0,0,520,280,304,454,455,168,169,480,0,0,0,0,0,0,0,0,0,0,0,170,171,172,173,174,523,0,0,0,0,0,0,0,0,0,0,0,0,0,520,182,183,144,144,0,0,0,0,0,530,129,130,131,182,183,184,
509,509,142,0,0,0,0,0,0,0,548,0,0,0,0,0,0,0,0,0,0,0,0,0,0,545,167,168,169,192,193,194,0,0,509,0,0,0,0,0,0,0,0,0,195,196,197,198,199,548,0,0,0,0,0,0,0,0,0,0,0,0,0,545,207,208,0,0,0,386,232,0,234,0,154,155,156,207,208,209,
509,509,0,0,0,480,480,480,223,481,523,0,0,0,0,0,0,0,0,0,0,0,0,0,0,520,192,193,194,142,143,144,509,509,509,0,0,0,0,0,0,0,0,0,220,221,222,223,224,541,542,542,542,543,542,542,542,542,542,542,542,542,542,544,232,233,0,0,0,0,257,0,259,436,179,180,181,232,233,234,
509,509,0,0,0,217,218,247,248,481,548,0,0,0,0,0,0,0,0,0,0,0,145,146,147,545,149,217,218,167,168,169,509,509,509,0,0,0,0,0,0,0,0,0,0,0,0,0,0,304,484,304,304,304,304,304,304,304,304,304,304,304,454,455,386,258,0,436,0,0,0,386,145,146,204,205,206,150,0,0,
509,509,224,225,509,242,243,272,273,481,523,0,0,0,0,0,0,0,0,0,0,0,170,171,172,173,174,242,243,192,193,194,509,0,0,0,0,0,0,0,0,0,0,0,0,0,0,0,0,0,192,193,194,0,0,0,0,0,0,192,193,194,0,145,146,147,148,149,150,0,0,0,170,171,172,173,174,175,0,0,
247,248,285,509,509,509,509,175,298,481,548,0,0,0,0,0,0,0,0,0,0,0,195,196,197,198,199,200,217,218,509,509,509,0,0,0,0,0,0,0,0,0,0,0,0,0,0,0,0,0,0,0,0,0,0,0,0,0,0,0,0,0,0,170,171,172,173,174,175,436,0,0,195,196,197,198,199,200,0,0,
272,273,509,509,509,509,509,200,510,481,0,0,0,0,0,0,0,0,0,0,0,0,220,221,222,223,224,225,242,243,509,509,509,0,0,0,0,0,0,0,0,0,0,0,0,0,0,0,0,0,0,0,0,0,0,0,0,0,0,0,0,0,0,195,196,197,198,199,200,0,0,0,220,221,222,223,224,225,0,0,
297,298,220,221,222,223,224,225,0,247,248,0,135,136,137,138,0,0,0,0,0,0,0,0,0,0,0,0,0,0,0,0,0,0,0,0,0,0,0,0,0,0,0,0,0,0,0,0,0,0,0,0,0,0,0,0,0,0,0,0,0,0,0,220,221,222,223,224,225,0,0,0,0,0,0,0,0,0,0,0,
0,0,0,0,0,0,0,0,0,272,273,0,160,161,162,163,0,0,0,0,0,0,0,0,0,0,0,0,0,0,0,0,0,0,0,0,0,0,0,0,0,0,0,0,0,0,0,0,0,0,0,0,0,0,0,0,0,0,0,0,0,0,0,0,0,0,0,0,0,0,0,0,0,0,0,0,0,0,0,0,
0,0,0,0,0,0,0,0,0,297,298,0,185,186,187,188,0,0,0,0,0,0,0,0,0,0,0,0,0,0,0,0,0,0,0,0,0,0,0,0,0,0,0,0,0,0,0,0,0,0,0,0,0,0,0,0,0,0,0,0,0,0,0,0,0,0,0,0,0,0,0,0,0,0,0,0,0,0,0,0,
0,0,0,0,0,0,0,0,0,0,0,0,210,211,212,213,0,0,0,0,0,0,0,0,0,0,0,0,0,0,0,0,0,0,0,0,0,0,0,0,0,0,0,0,0,0,0,0,0,0,0,0,0,0,0,0,0,0,0,0,0,0,0,0,0,0,0,0,0,0,0,0,0,0,0,0,0,0,0,0,
0,0,0,0,0,0,0,0,0,0,0,0,0,0,0,0,0,0,0,0,0,0,0,0,0,0,0,0,0,0,0,0,0,0,0,0,0,0,0,0,0,0,0,0,0,0,0,0,0,0,0,0,0,0,0,0,0,0,0,0,0,0,0,0,0,0,0,0,0,0,0,0,0,0,0,0,0,0,0,0
</data>
 </layer>
 <layer id="5" name="AlwaysFront" width="80" height="80">
  <data encoding="csv">
0,0,0,0,0,0,0,0,0,0,0,0,0,0,0,0,0,0,0,0,0,0,0,0,0,0,0,0,0,0,0,0,0,142,143,144,0,209,0,0,0,0,0,0,0,0,0,0,0,0,0,0,0,0,0,0,0,220,221,222,223,224,225,183,184,0,0,0,0,0,0,0,0,0,0,0,0,0,0,0,
0,0,0,0,0,0,0,0,0,0,0,0,0,0,0,0,0,207,208,209,0,0,0,0,0,0,0,0,0,0,0,0,0,167,168,169,0,0,0,0,0,0,0,0,0,0,0,0,0,0,0,0,0,0,0,0,0,0,0,247,248,0,207,208,209,0,0,0,0,0,0,0,0,0,0,0,0,0,0,0,
0,0,0,0,0,0,0,0,0,0,0,0,0,0,0,0,0,0,0,0,0,0,0,0,0,0,0,0,0,0,0,0,0,0,0,0,135,136,137,138,0,0,0,0,0,0,0,0,0,0,0,0,0,0,0,0,0,0,0,0,0,0,0,0,0,0,0,0,0,0,0,0,0,0,0,0,0,0,0,0,
0,0,0,0,0,0,0,0,0,0,0,0,0,0,0,0,0,0,0,0,0,0,0,0,0,0,0,0,0,0,0,0,0,0,0,0,160,161,162,163,0,0,0,0,0,0,0,0,0,0,0,0,0,0,0,0,0,0,0,0,0,0,0,0,0,0,0,0,0,0,0,0,0,0,0,0,0,0,0,0,
0,0,0,0,0,0,0,0,0,0,0,0,0,0,0,0,0,0,0,0,0,0,0,0,0,0,0,0,0,0,0,0,0,0,0,0,185,186,187,188,0,0,0,0,0,0,0,0,0,0,0,0,0,0,0,0,0,0,0,0,0,0,0,0,0,0,0,0,0,0,0,0,0,0,0,0,0,0,0,0,
0,0,0,0,0,0,0,0,0,0,0,0,0,0,0,0,0,0,0,0,0,0,0,0,0,0,0,0,0,0,0,0,0,0,0,0,210,211,212,213,0,0,0,0,0,0,0,0,0,0,0,0,0,0,0,0,0,0,0,0,0,0,0,0,0,0,0,0,0,0,0,0,0,0,0,0,0,0,0,0,
148,149,150,0,0,0,0,0,0,0,0,0,0,0,0,0,0,0,0,0,0,0,0,0,0,0,0,0,0,0,0,0,0,0,0,0,0,236,237,0,0,0,0,0,0,0,0,0,0,0,0,0,0,0,0,0,0,0,0,0,0,0,0,0,0,0,0,0,0,0,0,0,0,0,0,0,0,0,0,0,
173,174,175,0,0,0,0,0,0,0,0,0,0,0,0,0,0,0,0,0,0,0,0,0,0,0,0,0,0,0,0,0,0,0,0,0,0,261,262,0,0,0,0,0,0,0,0,0,0,0,0,0,0,0,0,0,0,0,0,0,0,0,0,0,0,0,0,0,0,0,0,0,0,0,0,0,0,0,0,0,
198,199,200,0,0,0,0,0,0,0,0,0,0,0,0,0,0,0,0,0,0,0,0,0,0,0,0,0,0,0,0,0,0,0,0,0,0,286,287,0,0,0,0,0,0,0,0,0,0,0,0,0,0,0,0,0,0,0,0,0,0,0,0,0,0,0,0,0,0,0,0,0,0,0,0,0,0,0,0,0,
223,224,225,0,0,0,0,0,0,0,0,0,0,0,0,0,0,0,0,0,0,0,0,0,0,0,0,0,0,0,0,0,0,0,0,0,0,0,0,0,0,0,0,0,0,0,0,0,0,0,0,0,0,0,0,0,0,0,0,0,0,0,0,0,0,0,0,0,0,0,0,0,0,0,0,0,0,0,0,0,
248,0,0,0,0,0,0,0,0,0,0,0,0,0,0,0,0,0,0,0,0,0,0,0,0,0,0,0,0,0,0,0,0,0,0,0,0,0,0,0,0,0,0,0,0,0,0,0,0,0,0,0,0,0,0,0,0,0,0,0,0,0,0,0,0,0,0,0,0,0,0,0,0,0,0,0,0,0,0,0,
273,0,0,0,0,0,0,0,0,0,0,0,0,0,0,0,0,0,0,0,0,0,0,0,0,0,0,0,0,0,0,0,0,0,0,0,0,0,0,0,0,0,0,0,0,0,0,0,0,0,0,0,0,0,0,0,0,0,0,0,0,0,0,0,0,0,0,0,0,0,0,0,0,0,0,0,0,0,0,0,
298,0,0,0,0,0,0,0,0,0,0,0,0,0,0,0,0,0,0,0,0,0,0,0,0,0,0,0,0,0,0,0,0,0,0,0,0,0,0,0,0,0,0,0,0,0,0,0,0,0,0,0,0,0,0,0,0,0,0,0,0,0,0,0,0,0,0,0,0,0,0,0,0,0,0,0,0,0,0,0,
0,0,0,0,0,0,0,0,0,0,0,0,0,0,0,0,0,0,0,0,0,0,0,0,0,0,0,0,0,0,0,0,0,0,0,0,0,129,130,131,0,0,0,0,0,0,0,0,0,0,0,0,0,0,0,0,0,0,0,0,0,0,0,0,0,0,0,0,0,0,0,0,0,0,0,0,0,0,0,0,
0,0,0,0,0,0,0,0,0,0,0,0,0,0,0,0,0,0,0,0,0,0,0,0,0,0,0,0,0,0,0,0,0,0,0,0,0,154,155,156,0,0,0,0,0,0,0,0,0,0,0,0,0,0,0,0,0,0,0,0,0,0,0,0,0,0,0,0,0,0,0,0,0,0,0,0,0,0,0,0,
0,0,0,0,0,0,0,0,0,0,0,0,0,0,0,0,0,0,0,0,0,0,0,0,0,0,0,0,0,0,0,0,0,0,0,0,0,179,180,181,0,0,0,0,0,0,0,0,0,0,0,0,0,0,0,0,0,0,0,0,0,0,0,0,0,0,0,0,0,0,0,0,0,0,0,0,0,0,0,0,
0,0,0,0,0,0,0,0,0,0,0,0,0,0,0,0,0,0,0,0,0,0,0,0,0,0,0,0,0,0,0,0,0,0,0,0,0,204,205,206,0,0,0,0,0,0,0,0,0,0,0,0,0,0,0,0,0,0,0,0,0,0,0,0,0,0,0,0,0,0,0,0,0,0,0,0,0,0,0,0,
0,0,0,0,0,0,0,0,0,0,0,0,0,0,0,0,0,0,0,0,0,0,0,0,0,0,0,0,0,0,0,0,0,0,0,0,145,146,147,148,149,150,0,0,0,0,0,0,0,0,0,0,0,0,0,0,0,0,0,0,0,0,0,0,0,0,0,0,0,0,0,0,0,0,0,0,0,0,0,0,
0,0,0,0,0,0,0,0,0,0,0,0,0,0,0,0,0,0,0,0,0,0,0,0,0,0,0,0,0,0,0,0,0,0,0,0,170,171,172,173,174,175,0,0,0,0,0,0,0,0,0,0,0,0,0,0,0,0,0,0,0,0,0,0,0,0,0,0,0,0,0,0,0,0,0,0,0,0,146,147,
147,148,149,150,0,0,0,0,0,0,0,0,0,0,0,0,0,0,0,0,0,0,0,0,0,0,0,0,0,0,0,0,0,0,0,0,195,196,197,198,199,200,0,0,0,0,0,0,0,0,0,0,0,0,0,0,0,0,0,0,0,0,0,0,0,0,0,0,0,0,0,0,0,0,0,0,0,170,0,0,
172,173,174,175,0,0,0,0,0,0,0,0,0,0,0,0,0,0,0,0,0,0,0,0,0,0,0,0,0,0,0,0,0,0,0,0,220,221,222,223,224,225,0,0,0,0,0,0,0,0,0,0,0,0,0,0,0,0,0,0,0,0,0,0,0,0,0,0,0,0,0,0,0,0,0,0,0,195,0,0,
197,198,199,200,0,0,0,0,0,0,0,0,0,0,0,0,0,0,0,0,0,0,0,0,0,0,0,0,0,0,0,0,0,0,0,0,0,0,247,248,217,218,0,0,0,0,0,0,0,0,0,0,0,0,0,0,0,0,0,0,0,0,0,0,0,0,0,0,0,0,0,0,0,0,0,0,0,220,0,0,
222,223,224,225,0,0,0,0,0,0,0,0,0,0,0,0,0,0,0,0,0,0,0,0,0,0,0,0,0,0,0,0,0,0,0,0,0,0,272,273,142,143,144,0,0,0,0,0,0,0,0,0,0,0,0,0,0,0,0,0,0,0,0,0,0,0,0,0,0,0,0,0,0,0,0,0,0,0,0,0,
0,145,0,0,0,0,0,0,0,0,0,0,0,0,0,0,0,0,0,0,0,0,0,0,0,0,0,0,0,0,0,0,0,0,0,0,0,217,218,298,167,168,169,0,0,0,0,0,0,0,0,0,0,0,0,0,0,0,0,0,0,0,0,0,0,0,0,0,0,0,0,0,0,0,0,0,0,0,0,0,
0,0,0,0,0,0,0,0,0,0,0,0,0,0,0,0,0,0,0,0,0,0,0,0,0,0,0,0,0,0,0,0,0,0,0,0,0,0,0,0,0,0,0,0,0,0,0,0,0,0,0,0,0,0,0,0,0,0,0,0,0,0,0,0,0,0,0,0,0,0,0,0,0,0,0,0,0,0,0,0,
0,0,0,0,0,0,0,0,0,0,0,0,0,0,0,0,0,0,0,0,0,0,0,0,0,0,0,0,0,0,0,0,0,0,0,0,0,0,0,0,0,0,0,0,0,0,0,0,0,0,0,0,0,0,0,0,0,0,0,0,0,0,0,0,0,0,0,0,0,0,0,0,0,0,0,0,0,132,0,0,
132,133,134,0,0,0,0,0,0,0,0,0,0,0,0,0,0,0,0,0,0,0,0,0,0,0,0,0,0,0,0,0,0,0,0,0,0,0,0,0,0,0,0,0,0,0,0,0,0,0,0,0,0,0,0,0,0,0,0,0,0,0,0,0,0,0,0,0,0,0,0,0,0,0,0,0,0,157,0,0,
157,158,159,0,0,0,0,0,0,0,0,0,0,0,0,0,0,0,0,0,0,0,0,0,0,0,0,0,0,0,0,0,0,0,0,0,0,0,0,0,0,0,0,0,0,0,0,0,0,0,0,0,0,0,0,0,0,0,0,0,0,0,0,0,0,0,0,0,0,0,0,0,0,0,0,0,0,182,0,0,
182,183,184,0,0,0,0,0,0,0,0,0,0,0,0,0,0,0,0,0,0,0,0,0,0,0,0,0,0,0,0,0,0,0,0,0,0,0,0,0,0,0,0,0,0,0,0,0,0,0,0,0,0,0,0,0,0,0,0,0,0,0,0,0,0,0,0,0,0,0,0,0,0,0,0,0,0,207,0,0,
207,208,209,0,0,0,0,0,0,0,0,0,0,0,0,0,0,0,0,0,0,0,0,0,0,0,0,0,0,0,0,0,0,0,0,0,0,0,0,0,0,0,0,0,0,0,0,0,0,0,0,0,0,0,0,0,0,0,0,0,0,0,0,0,0,0,0,0,0,0,0,0,0,0,0,0,0,0,0,0,
232,233,234,0,0,0,0,0,0,0,0,0,0,0,0,0,0,0,0,0,0,0,0,142,143,144,132,133,134,142,143,144,0,0,0,0,0,0,0,0,0,0,0,0,0,0,0,0,142,143,144,0,0,0,0,0,0,0,0,0,0,0,0,0,0,0,0,0,0,0,0,0,0,0,0,0,0,0,0,0,
0,0,0,0,0,0,0,0,0,0,0,0,0,0,0,0,0,0,0,0,129,130,131,0,0,0,150,158,159,167,168,169,0,0,0,0,0,0,0,0,0,0,0,0,0,0,0,0,167,168,169,217,218,0,0,0,0,0,0,0,0,0,0,0,0,0,0,0,0,0,0,0,0,0,0,0,0,0,0,0,
0,0,0,0,0,0,0,0,0,0,0,0,0,0,0,0,0,0,0,0,154,2187,146,147,148,149,0,183,184,192,193,194,0,0,0,0,0,0,0,0,0,0,0,0,0,0,0,0,192,193,194,146,243,148,149,150,0,0,0,0,0,0,0,0,0,0,0,0,0,0,0,0,0,0,0,0,0,0,0,0,
0,0,132,133,134,0,0,0,0,0,0,0,0,0,0,0,0,0,0,0,179,170,171,172,173,174,175,208,209,280,304,279,0,0,0,0,0,0,0,0,0,0,0,0,0,0,0,0,0,0,170,171,172,173,174,175,0,0,0,0,0,0,0,0,0,0,0,0,0,0,0,0,0,0,0,0,0,0,0,0,
0,0,157,158,159,142,143,144,217,218,0,0,0,0,0,0,0,142,143,144,204,195,196,197,198,199,200,233,234,424,596,597,0,0,0,0,0,0,0,0,0,0,0,0,0,0,0,0,0,0,195,196,197,198,199,200,142,143,144,0,0,0,217,218,142,143,144,217,218,0,0,0,0,0,0,0,142,143,0,0,
0,0,182,183,184,167,168,169,242,243,0,0,0,0,386,0,0,167,168,169,386,220,221,222,223,224,225,258,259,0,1788,0,0,0,0,0,0,0,0,0,0,0,0,0,0,0,0,0,0,0,220,221,222,223,224,225,167,168,169,142,143,144,242,243,167,168,169,242,243,0,0,0,0,386,0,0,167,0,0,0,
0,0,207,208,209,192,193,194,0,436,0,0,0,0,0,217,218,192,193,142,143,144,436,247,248,217,218,0,0,0,0,0,0,0,0,0,0,0,0,0,0,0,0,0,0,0,0,0,0,0,0,0,247,248,217,218,192,193,194,167,168,169,0,0,192,193,194,0,436,0,0,0,0,0,217,218,192,0,0,0,
0,0,0,0,0,0,0,0,0,0,0,0,0,0,0,0,0,0,0,0,0,0,0,0,0,0,0,0,0,0,0,0,0,0,0,0,0,0,0,0,0,0,0,0,0,0,0,0,0,0,0,0,0,0,0,0,0,0,0,0,0,0,0,0,0,0,0,0,0,0,0,0,0,0,242,243,0,145,146,147,
0,0,0,0,0,0,0,0,0,0,0,0,0,0,0,0,0,0,0,0,0,0,0,0,0,0,0,0,0,0,0,0,0,0,0,0,0,0,0,0,0,0,0,0,0,0,0,0,0,0,0,0,0,0,0,0,0,0,0,0,0,0,0,0,0,0,0,0,0,0,0,0,0,0,0,0,0,170,171,172,
0,0,0,0,0,0,0,0,0,0,0,0,0,0,0,0,0,0,0,0,0,0,0,0,0,0,0,0,0,0,0,0,0,0,0,0,0,0,0,0,0,0,0,0,0,0,0,0,0,0,0,0,0,0,0,0,0,0,0,0,0,0,0,0,0,0,0,0,0,0,0,0,0,0,0,0,0,195,196,197,
0,0,0,0,0,0,0,0,0,0,0,0,0,0,0,0,0,0,0,0,0,0,0,0,0,0,0,0,0,0,0,0,0,0,0,0,0,0,0,0,0,0,0,0,0,0,0,0,0,0,0,0,0,0,0,0,0,0,0,0,0,0,0,0,0,0,0,0,0,0,0,0,0,0,0,0,0,220,221,222,
0,0,0,0,0,0,0,0,0,0,0,0,0,0,0,0,0,0,0,0,0,0,0,0,0,0,0,0,0,0,0,0,0,0,0,0,0,0,0,0,0,0,0,0,0,0,0,0,0,0,0,0,0,0,0,0,0,0,0,0,0,0,0,0,0,0,0,0,0,0,0,0,0,0,0,0,0,245,0,247,
0,0,0,0,0,0,0,0,0,0,0,0,0,0,0,0,0,0,0,0,0,0,0,0,0,0,0,0,0,0,0,0,0,0,0,0,0,0,0,0,0,0,0,0,0,0,0,0,0,0,0,0,0,0,0,0,0,0,0,0,0,0,0,0,0,0,0,0,0,0,0,0,0,0,0,0,0,0,0,272,
0,0,0,0,0,0,0,0,0,0,0,0,0,0,0,0,0,0,0,0,0,0,0,0,0,0,0,0,0,0,0,0,0,0,142,143,144,0,0,0,0,0,0,0,142,143,144,0,0,0,0,0,0,0,0,0,0,0,0,0,0,0,0,0,0,0,0,0,0,0,0,0,0,0,0,0,0,0,0,297,
0,0,0,0,0,0,0,0,0,0,0,0,0,0,0,0,0,0,0,0,0,0,0,0,0,0,0,0,0,0,0,0,0,0,0,145,146,147,148,149,150,145,146,147,148,149,169,0,0,0,0,0,0,0,0,0,0,0,0,0,0,0,0,0,0,0,0,0,0,0,0,0,0,0,0,0,0,0,0,0,
0,0,0,0,0,0,0,0,0,0,0,0,0,0,0,0,0,0,0,0,0,0,0,0,0,0,0,0,0,0,0,0,0,0,0,170,171,172,173,0,0,170,171,172,173,174,175,0,0,0,0,0,0,0,0,0,0,0,0,0,0,0,0,0,0,0,0,0,0,0,0,0,0,0,0,0,0,0,0,0,
0,0,0,0,0,0,0,0,0,0,0,0,0,0,0,0,0,0,0,0,0,0,0,0,0,0,0,0,0,0,0,0,0,0,0,195,196,197,198,199,200,195,196,197,198,199,200,0,0,0,0,0,0,0,0,0,0,0,0,0,0,0,0,0,0,0,0,0,0,0,0,0,0,0,0,0,0,0,0,0,
0,0,0,0,0,0,0,0,0,0,0,0,0,0,0,0,0,0,0,0,0,0,0,0,0,0,0,0,0,0,0,0,0,0,0,220,221,222,223,224,225,220,221,222,223,224,225,0,0,0,0,0,0,0,0,0,0,0,0,0,0,0,0,0,0,0,0,0,0,0,0,0,0,0,0,0,0,0,0,0,
0,0,0,0,0,0,0,0,0,0,0,0,0,0,0,0,0,0,0,0,0,0,0,0,0,0,0,0,0,0,0,0,0,0,0,0,0,0,0,0,0,0,0,0,0,0,0,0,0,0,0,0,0,0,0,0,0,0,0,0,0,0,0,0,0,0,0,0,0,0,0,0,0,0,0,0,0,0,0,0,
0,0,0,0,0,0,0,0,0,0,0,0,0,0,0,0,0,0,0,0,0,0,0,0,0,0,0,0,0,0,0,0,0,0,0,0,0,0,0,0,0,0,0,0,0,0,0,0,0,0,0,0,0,0,0,0,0,0,0,0,0,0,0,0,0,0,0,0,0,0,0,0,0,0,0,0,0,0,0,0,
0,0,0,0,0,0,0,0,0,0,0,0,0,0,0,0,0,0,0,0,0,0,0,0,0,0,0,0,0,0,0,0,0,0,0,0,0,0,0,0,0,0,0,0,0,0,0,0,0,0,0,0,0,0,0,0,0,0,0,0,0,0,0,0,0,0,0,0,0,0,0,0,0,0,0,0,0,132,133,134,
0,0,0,0,0,0,0,0,0,0,0,0,0,0,0,0,0,0,0,0,0,0,0,0,0,0,0,0,0,0,0,0,0,0,0,0,0,0,0,0,0,0,0,0,0,0,0,0,0,0,0,0,0,0,0,0,0,0,0,0,0,0,0,0,0,0,0,0,0,0,0,0,0,0,0,0,0,157,0,0,
0,0,0,0,0,0,0,0,0,0,0,0,0,0,0,0,0,0,0,0,0,0,0,0,0,0,0,0,0,0,0,0,0,0,0,0,0,0,0,0,0,0,0,0,0,0,0,0,0,0,0,0,0,0,0,0,0,0,0,0,0,0,0,0,0,0,0,0,0,0,0,0,0,0,0,0,0,182,0,0,
0,0,175,0,0,0,0,0,0,0,0,0,0,0,0,0,0,0,0,0,0,0,0,0,0,0,0,0,0,0,0,0,0,0,0,0,0,0,0,0,0,0,0,0,0,0,0,0,0,0,0,0,0,0,0,0,0,0,0,0,0,0,0,0,0,0,0,0,0,0,0,0,0,0,0,0,0,207,0,0,
0,0,200,0,0,0,0,0,0,0,0,0,0,0,0,0,0,0,0,0,0,0,0,0,0,0,0,0,0,0,0,0,0,0,0,0,0,0,0,0,0,0,0,0,0,0,0,0,0,0,0,0,0,0,0,0,0,0,0,0,0,0,0,0,0,0,0,0,0,0,0,0,0,0,0,0,0,0,0,0,
0,0,225,0,0,0,0,0,0,0,0,0,0,0,0,0,0,0,0,0,0,0,0,0,0,0,0,0,0,0,0,0,0,0,0,0,0,0,0,0,0,0,0,0,0,0,0,0,0,0,0,0,0,0,0,0,0,0,0,0,0,0,0,0,0,0,0,0,0,0,0,0,0,0,0,0,0,129,130,131,
0,0,0,0,0,0,0,0,0,0,0,0,0,0,0,0,0,0,0,0,0,0,0,0,0,0,0,0,0,0,0,0,0,0,0,0,0,0,0,0,0,0,0,0,0,0,0,0,0,0,0,0,0,0,0,0,0,0,0,0,0,0,0,0,0,0,0,0,0,0,0,0,0,0,0,0,0,154,155,156,
0,0,0,0,0,0,0,0,0,0,0,0,0,0,0,0,0,0,0,0,0,0,0,0,0,0,0,0,0,0,0,0,0,0,0,0,0,0,0,0,0,0,0,0,0,0,0,0,0,0,0,0,0,0,0,0,0,0,0,0,0,0,0,0,0,0,0,0,0,0,0,0,0,0,0,0,0,179,180,181,
0,0,0,0,0,0,0,0,0,0,0,0,0,0,0,0,0,0,0,0,0,0,0,0,0,0,0,0,0,0,0,0,0,0,0,0,0,0,0,0,0,0,0,0,0,0,0,0,0,0,0,0,0,0,0,0,0,0,0,0,0,0,0,0,0,0,0,0,0,0,0,0,0,0,0,0,0,204,205,206,
0,0,0,0,0,0,0,0,0,0,0,0,0,0,0,0,0,0,0,0,0,0,0,0,0,0,0,0,0,0,0,0,0,0,0,0,0,0,0,0,0,0,0,0,0,0,0,0,0,0,0,0,0,0,0,0,0,0,0,0,0,0,0,0,0,0,0,0,0,0,0,0,0,0,0,0,0,0,0,0,
0,0,0,0,0,0,0,0,0,0,0,0,0,0,0,0,0,0,0,0,0,0,0,0,0,0,0,0,0,0,0,0,0,0,0,0,0,0,0,0,0,0,0,0,0,217,218,0,0,0,0,0,0,0,0,0,0,0,0,0,0,0,0,0,0,0,0,0,0,0,0,0,0,0,0,0,0,0,0,0,
0,0,0,0,0,0,0,0,0,0,0,0,0,0,0,0,0,0,0,0,0,0,0,0,0,0,0,0,0,0,0,0,0,145,146,147,148,147,148,149,150,145,146,147,148,149,243,0,0,0,0,0,0,0,0,0,0,0,0,0,0,0,0,0,0,0,0,0,0,0,0,0,0,0,0,0,0,0,0,0,
147,148,149,150,0,0,0,0,0,0,0,0,0,0,0,0,0,0,0,0,0,0,0,0,0,0,0,0,0,0,0,0,0,170,171,172,173,172,173,174,175,170,171,172,173,174,175,0,0,0,0,0,0,0,0,0,0,0,0,0,0,0,0,0,0,0,0,0,0,0,0,0,0,0,0,0,0,0,0,0,
172,173,174,175,0,0,0,0,0,0,0,0,0,0,0,0,0,0,0,0,0,0,0,0,0,0,0,0,0,0,0,0,0,195,196,197,198,197,198,199,200,195,196,197,198,199,200,0,0,0,0,0,0,0,0,0,0,0,0,0,0,0,0,0,0,0,0,0,0,0,0,0,0,0,217,218,0,0,0,0,
197,198,199,200,0,0,0,0,0,0,0,0,0,0,0,0,0,0,0,0,0,0,0,0,0,0,0,0,0,0,0,0,0,1147,1172,1171,1172,1171,1172,1171,1172,1171,1172,1146,0,0,225,0,0,0,0,0,0,0,0,0,0,0,0,0,0,0,0,0,0,0,0,0,0,0,0,0,0,0,0,0,0,0,0,0,
222,223,224,225,0,0,0,0,0,0,0,0,0,0,0,0,0,0,0,0,0,0,0,0,0,0,0,0,0,0,0,0,0,1123,1124,1196,1197,1196,1197,1196,1197,1196,1197,1170,1146,0,143,144,0,0,0,0,0,0,0,0,0,0,0,0,0,0,0,0,0,0,0,0,0,0,129,130,131,142,0,0,0,0,0,0,
247,248,490,142,143,144,0,0,0,0,0,0,0,0,0,0,0,0,0,0,0,0,0,0,0,0,0,0,0,0,0,0,217,1148,1149,1100,1075,1125,1075,1100,1075,1194,1169,1169,1170,1146,0,0,0,0,0,0,0,0,0,0,0,0,0,0,0,0,0,0,132,133,134,0,0,0,154,155,156,167,0,0,0,0,0,0,
272,273,0,167,168,169,146,147,148,149,150,0,0,0,0,0,0,0,0,0,0,0,0,0,0,0,0,0,0,142,143,144,1147,1173,1174,1199,1125,1100,1075,1075,1125,1194,1194,1194,1169,1170,147,148,149,0,0,0,0,0,0,0,0,0,0,0,0,0,0,0,157,158,159,0,217,218,179,180,181,0,0,0,0,0,0,0,
297,298,0,192,193,170,171,172,173,174,175,0,0,0,0,0,0,0,0,0,0,0,0,0,0,0,142,143,144,167,0,1147,1173,1198,1199,1199,1075,1075,1075,1075,1075,1075,1100,1194,1169,1169,1170,1146,0,175,0,0,0,0,0,0,0,0,0,0,0,0,0,0,0,0,184,0,242,243,204,205,206,0,0,0,0,0,0,1147,
147,148,149,150,0,195,196,197,198,199,200,0,0,0,0,0,0,0,0,0,0,0,0,0,0,0,0,0,0,0,1147,1173,1198,1100,1199,1075,1075,1075,1075,1075,1075,1075,1125,1194,1194,1194,1169,1170,1146,200,0,0,0,0,0,0,0,0,0,0,0,0,0,0,0,0,209,0,0,0,0,230,0,0,0,0,0,0,1147,1173,
172,173,174,175,0,220,221,222,223,224,225,0,0,0,0,0,0,0,0,0,0,0,0,0,0,0,0,0,0,0,1173,1198,1199,1125,1199,1125,1075,1075,1075,1075,1075,1075,1075,1075,1100,1194,1169,1169,1170,225,142,143,144,0,0,0,0,0,0,142,143,144,0,0,0,0,0,0,0,0,0,255,0,0,0,0,0,1147,1173,1198,
197,198,199,200,0,0,0,145,146,147,148,149,150,0,0,0,0,0,0,0,0,0,0,0,0,148,0,0,0,1123,1124,1100,1199,1075,1075,1075,1075,1075,1075,1075,1075,1075,1075,1075,1194,1125,1194,1194,1169,1170,167,168,169,1147,1171,1172,1171,1172,1146,167,168,169,0,0,0,0,0,0,0,0,0,0,0,146,147,148,149,1123,1198,1199,
222,223,145,146,147,148,149,170,171,172,173,174,175,0,0,0,0,0,0,0,0,0,0,0,0,0,0,175,0,1148,1149,1125,1075,1199,1075,1075,1075,1075,1075,1075,1075,1075,1075,1075,1075,1194,1194,1194,1169,1169,1170,1171,1172,1173,1198,1197,1197,1197,1170,1171,1172,1171,1172,1146,0,0,0,0,0,0,0,0,0,0,0,0,1147,1173,1198,1075,
0,0,170,171,172,173,174,195,196,197,198,199,200,0,0,0,0,0,0,0,0,0,1147,1171,1172,1171,1172,1171,1172,1173,1174,1199,1075,1075,1075,1075,1075,1075,1075,1075,1075,1075,1075,1075,1075,1075,1075,1100,1194,1194,1100,1197,1197,1194,1100,1194,1195,1194,1100,1197,1197,1197,1197,1120,0,0,0,0,0,0,0,0,0,0,0,1147,1173,1198,1199,1199,
0,0,195,196,197,198,199,220,221,222,223,224,225,0,0,0,0,0,0,0,0,1147,1173,1198,1197,1196,1197,1197,1197,1198,1199,1125,1075,1075,1075,1075,1075,1075,1075,1075,1075,1075,1075,1075,1075,1075,1075,1075,1075,1075,1075,1100,1075,1075,1075,1075,1194,1075,1075,1075,1194,1195,1119,1170,1172,1171,1172,1171,1172,1171,1172,1171,1172,1171,1172,1173,1198,1198,1199,1125,
1172,1171,1172,1171,1172,1171,1172,1171,1172,1171,1172,1146,0,0,0,0,0,0,0,0,1147,1173,1198,1199,1075,1199,1194,1194,1194,1194,1075,1075,1075,1075,1075,1075,1075,1075,1075,1075,1075,1075,1075,1075,1075,1075,1075,1075,1075,1075,1075,1075,1075,1075,1075,1075,1075,1075,1075,1125,1075,1075,1100,1196,1197,1197,1197,1196,1197,1196,1197,1196,1197,1196,1197,1198,1199,1199,1100,1075,
1197,1196,1197,1197,1197,1196,1197,1197,1197,1195,1197,1170,1146,0,0,0,0,0,0,1147,1173,1198,1199,1199,1125,1075,1075,1075,1125,1075,1075,1075,1075,1075,1075,1075,1075,1075,1075,1075,1075,1075,1075,1075,1075,1075,1075,1075,1075,1075,1075,1075,1075,1075,1075,1075,1075,1075,1075,1075,1075,1075,1075,1125,1194,1195,1194,1125,1100,1125,1194,1194,1100,1194,1169,1194,1100,1075,1075,1075,
1125,1194,1194,1195,1194,1100,1194,1195,1194,1194,1195,1169,1170,1171,1172,1171,1172,1171,1172,1173,1198,1199,1125,1075,1075,1075,1075,1075,1075,1075,1075,1075,1075,1075,1075,1075,1075,1075,1075,1075,1075,1075,1075,1075,1075,1075,1075,1075,1075,1075,1075,1075,1075,1075,1075,1075,1075,1075,1075,1075,1075,1075,1075,1075,1075,1194,1075,1075,1075,1100,1075,1075,1125,1075,1075,1075,1075,1075,1075,1075,
1075,1075,1100,1194,1075,1075,1075,1194,1075,1125,1194,1194,1195,1196,1197,1196,1197,1196,1197,1198,1199,1199,1075,1075,1075,1075,1075,1075,1075,1075,1075,1075,1075,1075,1075,1075,1075,1075,1075,1075,1075,1075,1075,1075,1075,1075,1075,1075,1075,1075,1075,1075,1075,1075,1075,1075,1075,1075,1075,1075,1075,1075,1075,1075,1075,1075,1075,1125,1075,1075,1075,1075,1075,1075,1075,1075,1075,1075,1075,1075,
1075,1075,1075,1075,1075,1075,1075,1075,1075,1075,1075,1075,1075,1075,1075,1075,1075,1075,1075,1075,1075,1075,1075,1075,1075,1075,1075,1075,1075,1075,1075,1075,1075,1075,1075,1075,1075,1075,1075,1075,1075,1075,1075,1075,1075,1075,1075,1075,1075,1075,1075,1075,1075,1075,1075,1075,1075,1075,1075,1075,1075,1075,1075,1075,1075,1075,1075,1075,1075,1075,1075,1075,1075,1075,1075,1075,1075,1075,1075,1075
</data>
 </layer>
 <layer id="6" name="AlwaysFront2" width="80" height="80">
  <properties>
   <property name="Draw" value="AlwaysFront"/>
  </properties>
  <data encoding="csv">
0,0,0,0,0,0,0,0,0,0,0,0,0,0,0,0,0,0,0,0,0,0,0,0,0,0,0,0,0,0,0,0,0,0,0,0,0,0,0,0,0,0,0,0,0,0,0,0,0,0,0,0,0,0,0,0,0,0,0,0,0,0,0,0,0,0,0,0,0,0,0,0,0,0,0,0,0,0,0,0,
0,0,0,0,0,0,0,0,0,0,0,0,0,0,0,0,0,0,0,0,0,0,0,0,0,0,0,0,0,0,0,0,0,0,0,0,0,0,0,0,0,0,0,0,0,0,0,0,0,0,0,0,0,0,0,0,0,0,0,0,0,0,0,0,0,0,0,0,0,0,0,0,0,0,0,0,0,0,0,0,
0,0,0,0,0,0,0,0,0,0,0,0,0,0,0,0,0,0,0,0,0,0,0,0,0,0,0,0,0,0,0,0,0,0,0,0,0,0,0,0,0,0,0,0,0,0,0,0,0,0,0,0,0,0,0,0,0,0,0,0,0,0,0,0,0,0,0,0,0,0,0,0,0,0,0,0,0,0,0,0,
0,0,0,0,0,0,0,0,0,0,0,0,0,0,0,0,0,0,0,0,0,0,0,0,0,0,0,0,0,0,0,0,0,0,0,0,0,0,0,0,0,0,0,0,0,0,0,0,0,0,0,0,0,0,0,0,0,0,0,0,0,0,0,0,0,0,0,0,0,0,0,0,0,0,0,0,0,0,0,0,
0,0,0,0,0,0,0,0,0,0,0,0,0,0,0,0,0,0,0,0,0,0,0,0,0,0,0,0,0,0,0,0,0,0,0,0,0,0,0,0,0,0,0,0,0,0,0,0,0,0,0,0,0,0,0,0,0,0,0,0,0,0,0,0,0,0,0,0,0,0,0,0,0,0,0,0,0,0,0,0,
0,0,0,0,0,0,0,0,0,0,0,0,0,0,0,0,0,0,0,0,0,0,0,0,0,0,0,0,0,0,0,0,0,0,0,0,0,0,0,0,0,0,0,0,0,0,0,0,0,0,0,0,0,0,0,0,0,0,0,0,0,0,0,0,0,0,0,0,0,0,0,0,0,0,0,0,0,0,0,0,
0,0,0,0,0,0,0,0,0,0,0,0,0,0,0,0,0,0,0,0,0,0,0,0,0,0,0,0,0,0,0,0,0,0,0,0,0,0,0,0,0,0,0,0,0,0,0,0,0,0,0,0,0,0,0,0,0,0,0,0,0,0,0,0,0,0,0,0,0,0,0,0,0,0,0,0,0,0,0,0,
0,0,0,0,0,0,0,0,0,0,0,0,0,0,0,0,0,0,0,0,0,0,0,0,0,0,0,0,0,0,0,0,0,0,0,0,0,0,0,0,0,0,0,0,0,0,0,0,0,0,0,0,0,0,0,0,0,0,0,0,0,0,0,0,0,0,0,0,0,0,0,0,0,0,0,0,0,0,0,0,
0,0,0,0,0,0,0,0,0,0,0,0,0,0,0,0,0,0,0,0,0,0,0,0,0,0,0,0,0,0,0,0,0,0,0,0,0,0,0,0,0,0,0,0,0,0,0,0,0,0,0,0,0,0,0,0,0,0,0,0,0,0,0,0,0,0,0,0,0,0,0,0,0,0,0,0,0,0,0,0,
0,0,0,0,0,0,0,0,0,0,0,0,0,0,0,0,0,0,0,0,0,0,0,0,0,0,0,0,0,0,0,0,0,0,0,0,0,0,0,0,0,0,0,0,0,0,0,0,0,0,0,0,0,0,0,0,0,0,0,0,0,0,0,0,0,0,0,0,0,0,0,0,0,0,0,0,0,0,0,0,
0,0,0,0,0,0,0,0,0,0,0,0,0,0,0,0,0,0,0,0,0,0,0,0,0,0,0,0,0,0,0,0,0,0,0,0,0,0,0,0,0,0,0,0,0,0,0,0,0,0,0,0,0,0,0,0,0,0,0,0,0,0,0,0,0,0,0,0,0,0,0,0,0,0,0,0,0,0,0,0,
0,0,0,0,0,0,0,0,0,0,0,0,0,0,0,0,0,0,0,0,0,0,0,0,0,0,0,0,0,0,0,0,0,0,0,0,0,0,0,0,0,0,0,0,0,0,0,0,0,0,0,0,0,0,0,0,0,0,0,0,0,0,0,0,0,0,0,0,0,0,0,0,0,0,0,0,0,0,0,0,
0,0,0,0,0,0,0,0,0,0,0,0,0,0,0,0,0,0,0,0,0,0,0,0,0,0,0,0,0,0,0,0,0,0,0,0,0,0,0,0,0,0,0,0,0,0,0,0,0,0,0,0,0,0,0,0,0,0,0,0,0,0,0,0,0,0,0,0,0,0,0,0,0,0,0,0,0,0,0,0,
0,0,0,0,0,0,0,0,0,0,0,0,0,0,0,0,0,0,0,0,0,0,0,0,0,0,0,0,0,0,0,0,0,0,0,0,0,0,0,0,0,0,0,0,0,0,0,0,0,0,0,0,0,0,0,0,0,0,0,0,0,0,0,0,0,0,0,0,0,0,0,0,0,0,0,0,0,0,0,0,
0,0,0,0,0,0,0,0,0,0,0,0,0,0,0,0,0,0,0,0,0,0,0,0,0,0,0,0,0,0,0,0,0,0,0,0,0,0,0,0,0,0,0,0,0,0,0,0,0,0,0,0,0,0,0,0,0,0,0,0,0,0,0,0,0,0,0,0,0,0,0,0,0,0,0,0,0,0,0,0,
0,0,0,0,0,0,0,0,0,0,0,0,0,0,0,0,0,0,0,0,0,0,0,0,0,0,0,0,0,0,0,0,0,0,0,0,0,0,0,0,0,0,0,0,0,0,0,0,0,0,0,0,0,0,0,0,0,0,0,0,0,0,0,0,0,0,0,0,0,0,0,0,0,0,0,0,0,0,0,0,
0,0,0,0,0,0,0,0,0,0,0,0,0,0,0,0,0,0,0,0,0,0,0,0,0,0,0,0,0,0,0,0,0,0,0,0,0,0,0,0,0,0,0,0,0,0,0,0,0,0,0,0,0,0,0,0,0,0,0,0,0,0,0,0,0,0,0,0,0,0,0,0,0,0,0,0,0,0,0,0,
0,0,0,0,0,0,0,0,0,0,0,0,0,0,0,0,0,0,0,0,0,0,0,0,0,0,0,0,0,0,0,0,0,0,0,0,0,0,0,0,0,0,0,0,0,0,0,0,0,0,0,0,0,0,0,0,0,0,0,0,0,0,0,0,0,0,0,0,0,0,0,0,0,0,0,0,0,0,0,0,
0,0,0,0,0,0,0,0,0,0,0,0,0,0,0,0,0,0,0,0,0,0,0,0,0,0,0,0,0,0,0,0,0,0,0,0,0,0,0,0,0,0,0,0,0,0,0,0,0,0,0,0,0,0,0,0,0,0,0,0,0,0,0,0,0,0,0,0,0,0,0,0,0,0,0,0,0,0,0,0,
0,0,0,0,0,0,0,0,0,0,0,0,0,0,0,0,0,0,0,0,0,0,0,0,0,0,0,0,0,0,0,0,0,0,0,0,0,0,0,0,0,0,0,0,0,0,0,0,0,0,0,0,0,0,0,0,0,0,0,0,0,0,0,0,0,0,0,0,0,0,0,0,0,0,0,0,0,0,0,0,
0,0,0,0,0,0,0,0,0,0,0,0,0,0,0,0,0,0,0,0,0,0,0,0,0,0,0,0,0,0,0,0,0,0,0,0,0,0,0,0,0,0,0,0,0,0,0,0,0,0,0,0,0,0,0,0,0,0,0,0,0,0,0,0,0,0,0,0,0,0,0,0,0,0,0,0,0,0,0,0,
0,0,0,0,0,0,0,0,0,0,0,0,0,0,0,0,0,0,0,0,0,0,0,0,0,0,0,0,0,0,0,0,0,0,0,0,0,0,0,0,0,0,0,0,0,0,0,0,0,0,0,0,0,0,0,0,0,0,0,0,0,0,0,0,0,0,0,0,0,0,0,0,0,0,0,0,0,0,0,0,
0,0,0,0,0,0,0,0,0,0,0,0,0,0,0,0,0,0,0,0,0,0,0,0,0,0,0,0,0,0,0,0,0,0,0,0,0,0,0,0,0,0,0,0,0,0,0,0,0,0,0,0,0,0,0,0,0,0,0,0,0,0,0,0,0,0,0,0,0,0,0,0,0,0,0,0,0,0,0,0,
0,0,0,0,0,0,0,0,0,0,0,0,0,0,0,0,0,0,0,0,0,0,0,0,0,0,0,0,0,0,0,0,0,0,0,0,0,0,0,0,0,0,0,0,0,0,0,0,0,0,0,0,0,0,0,0,0,0,0,0,0,0,0,0,0,0,0,0,0,0,0,0,0,0,0,0,0,0,0,0,
0,0,0,0,0,0,0,0,0,0,0,0,0,0,0,0,0,0,0,0,0,0,0,0,0,0,0,0,0,0,0,0,0,0,0,0,0,0,0,0,0,0,0,0,0,0,0,0,0,0,0,0,0,0,0,0,0,0,0,0,0,0,0,0,0,0,0,0,0,0,0,0,0,0,0,0,0,0,0,0,
0,0,0,0,0,0,0,0,0,0,0,0,0,0,0,0,0,0,0,0,0,0,0,0,0,0,0,0,0,0,0,0,0,0,0,0,0,0,0,0,0,0,0,0,0,0,0,0,0,0,0,0,0,0,0,0,0,0,0,0,0,0,0,0,0,0,0,0,0,0,0,0,0,0,0,0,0,0,0,0,
0,0,0,0,0,0,0,0,0,0,0,0,0,0,0,0,0,0,0,0,0,0,0,0,0,0,0,0,0,0,0,0,0,0,0,0,0,0,0,0,0,0,0,0,0,0,0,0,0,0,0,0,0,0,0,0,0,0,0,0,0,0,0,0,0,0,0,0,0,0,0,0,0,0,0,0,0,0,0,0,
0,0,0,0,0,0,0,0,0,0,0,0,0,0,0,0,0,0,0,0,0,0,0,0,0,0,0,0,0,0,0,0,0,0,0,0,0,0,0,0,0,0,0,0,0,0,0,0,0,0,0,0,0,0,0,0,0,0,0,0,0,0,0,0,0,0,0,0,0,0,0,0,0,0,0,0,0,0,0,0,
0,0,0,0,0,0,0,0,0,0,0,0,0,0,0,0,0,0,0,0,0,0,0,0,0,0,0,0,0,0,0,0,0,0,0,0,0,0,0,0,0,0,0,0,0,0,0,0,0,0,0,0,0,0,0,0,0,0,0,0,0,0,0,0,0,0,0,0,0,0,0,0,0,0,0,0,0,0,0,0,
0,0,0,0,0,0,0,0,0,0,0,0,0,0,0,0,0,0,0,0,0,0,0,0,0,0,0,0,0,0,0,0,0,0,0,0,0,0,0,0,0,0,0,0,0,0,0,0,0,0,0,0,0,0,0,0,0,0,0,0,0,0,0,0,0,0,0,0,0,0,0,0,0,0,0,0,0,0,0,0,
0,0,0,0,0,0,0,0,0,0,0,0,0,0,0,0,0,0,0,0,0,0,0,0,0,0,0,0,0,0,0,0,0,0,0,0,0,0,0,0,0,0,0,0,0,0,0,0,0,0,0,0,0,0,0,0,0,0,0,0,0,0,0,0,0,0,0,0,0,0,0,0,0,0,0,0,0,0,0,0,
0,0,0,0,0,0,0,0,0,0,0,0,0,0,0,0,0,0,0,0,0,0,0,0,0,0,0,0,0,0,0,0,0,0,0,0,0,0,0,0,0,0,0,0,0,0,0,0,0,0,0,0,0,0,0,0,0,0,0,0,0,0,0,0,0,0,0,0,0,0,0,0,0,0,0,0,0,0,0,0,
0,0,0,0,0,0,0,0,0,0,0,0,0,0,0,0,0,0,0,0,0,155,0,0,0,0,0,0,0,0,0,0,0,0,0,0,0,0,0,0,0,0,0,0,0,0,0,0,0,0,0,0,147,0,0,0,0,0,0,0,0,0,0,0,0,0,0,0,0,0,0,0,0,0,0,0,0,0,0,0,
0,0,0,0,0,0,0,0,0,0,0,0,0,0,0,0,0,0,0,0,0,0,0,0,0,0,0,0,0,0,0,0,0,0,0,0,0,0,0,0,0,0,0,0,0,0,0,0,0,0,0,0,0,0,0,0,0,0,0,0,0,0,0,0,0,0,0,0,0,0,0,0,0,0,0,0,0,0,0,0,
0,0,0,0,0,0,0,0,0,0,0,0,0,0,0,0,0,0,0,0,0,0,0,0,0,0,0,0,0,0,0,0,0,0,0,0,0,0,0,0,0,0,0,0,0,0,0,0,0,0,0,0,0,0,0,0,0,0,0,0,0,0,0,0,0,0,0,0,0,0,0,0,0,0,0,0,0,0,0,0,
0,0,0,0,0,0,0,0,0,0,0,0,0,0,0,0,0,0,0,0,0,0,0,0,0,0,0,0,0,0,0,0,0,0,0,0,0,0,0,0,0,0,0,0,0,0,0,0,0,0,0,0,0,0,0,0,0,0,0,0,0,0,0,0,0,0,0,0,0,0,0,0,0,0,0,0,0,0,0,0,
0,0,0,0,0,0,0,0,0,0,0,0,0,0,0,0,0,0,0,0,0,0,0,0,0,0,0,0,0,0,0,0,0,0,0,0,0,0,0,0,0,0,0,0,0,0,0,0,0,0,0,0,0,0,0,0,0,0,0,0,0,0,0,0,0,0,0,0,0,0,0,0,0,0,0,0,0,0,0,0,
0,0,0,0,0,0,0,0,0,0,0,0,0,0,0,0,0,0,0,0,0,0,0,0,0,0,0,0,0,0,0,0,0,0,0,0,0,0,0,0,0,0,0,0,0,0,0,0,0,0,0,0,0,0,0,0,0,0,0,0,0,0,0,0,0,0,0,0,0,0,0,0,0,0,0,0,0,0,0,0,
0,0,0,0,0,0,0,0,0,0,0,0,0,0,0,0,0,0,0,0,0,0,0,0,0,0,0,0,0,0,0,0,0,0,0,0,0,0,0,0,0,0,0,0,0,0,0,0,0,0,0,0,0,0,0,0,0,0,0,0,0,0,0,0,0,0,0,0,0,0,0,0,0,0,0,0,0,0,0,0,
0,0,0,0,0,0,0,0,0,0,0,0,0,0,0,0,0,0,0,0,0,0,0,0,0,0,0,0,0,0,0,0,0,0,0,0,0,0,0,0,0,0,0,0,0,0,0,0,0,0,0,0,0,0,0,0,0,0,0,0,0,0,0,0,0,0,0,0,0,0,0,0,0,0,0,0,0,0,0,0,
0,0,0,0,0,0,0,0,0,0,0,0,0,0,0,0,0,0,0,0,0,0,0,0,0,0,0,0,0,0,0,0,0,0,0,0,0,0,0,0,0,0,0,0,0,0,0,0,0,0,0,0,0,0,0,0,0,0,0,0,0,0,0,0,0,0,0,0,0,0,0,0,0,0,0,0,0,0,0,0,
0,0,0,0,0,0,0,0,0,0,0,0,0,0,0,0,0,0,0,0,0,0,0,0,0,0,0,0,0,0,0,0,0,0,0,0,0,0,0,0,0,0,0,0,0,0,0,0,0,0,0,0,0,0,0,0,0,0,0,0,0,0,0,0,0,0,0,0,0,0,0,0,0,0,0,0,0,0,0,0,
0,0,0,0,0,0,0,0,0,0,0,0,0,0,0,0,0,0,0,0,0,0,0,0,0,0,0,0,0,0,0,0,0,0,0,0,0,0,0,0,0,0,0,0,0,0,0,0,0,0,0,0,0,0,0,0,0,0,0,0,0,0,0,0,0,0,0,0,0,0,0,0,0,0,0,0,0,0,0,0,
0,0,0,0,0,0,0,0,0,0,0,0,0,0,0,0,0,0,0,0,0,0,0,0,0,0,0,0,0,0,0,0,0,0,0,0,0,0,0,0,0,0,0,0,0,0,0,0,0,0,0,0,0,0,0,0,0,0,0,0,0,0,0,0,0,0,0,0,0,0,0,0,0,0,0,0,0,0,0,0,
0,0,0,0,0,0,0,0,0,0,0,0,0,0,0,0,0,0,0,0,0,0,0,0,0,0,0,0,0,0,0,0,0,0,0,0,0,0,0,0,0,0,0,0,0,0,0,0,0,0,0,0,0,0,0,0,0,0,0,0,0,0,0,0,0,0,0,0,0,0,0,0,0,0,0,0,0,0,0,0,
0,0,0,0,0,0,0,0,0,0,0,0,0,0,0,0,0,0,0,0,0,0,0,0,0,0,0,0,0,0,0,0,0,0,0,0,0,0,0,174,175,0,0,0,0,0,0,0,0,0,0,0,0,0,0,0,0,0,0,0,0,0,0,0,0,0,0,0,0,0,0,0,0,0,0,0,0,0,0,0,
0,0,0,0,0,0,0,0,0,0,0,0,0,0,0,0,0,0,0,0,0,0,0,0,0,0,0,0,0,0,0,0,0,0,0,0,0,0,0,0,0,0,0,0,0,0,0,0,0,0,0,0,0,0,0,0,0,0,0,0,0,0,0,0,0,0,0,0,0,0,0,0,0,0,0,0,0,0,0,0,
0,0,0,0,0,0,0,0,0,0,0,0,0,0,0,0,0,0,0,0,0,0,0,0,0,0,0,0,0,0,0,0,0,0,0,0,0,0,0,0,0,0,0,0,0,0,0,0,0,0,0,0,0,0,0,0,0,0,0,0,0,0,0,0,0,0,0,0,0,0,0,0,0,0,0,0,0,0,0,0,
0,0,0,0,0,0,0,0,0,0,0,0,0,0,0,0,0,0,0,0,0,0,0,0,0,0,0,0,0,0,0,0,0,0,0,0,0,0,0,0,0,0,0,0,0,0,0,0,0,0,0,0,0,0,0,0,0,0,0,0,0,0,0,0,0,0,0,0,0,0,0,0,0,0,0,0,0,0,0,0,
0,0,0,0,0,0,0,0,0,0,0,0,0,0,0,0,0,0,0,0,0,0,0,0,0,0,0,0,0,0,0,0,0,0,0,0,0,0,0,0,0,0,0,0,0,0,0,0,0,0,0,0,0,0,0,0,0,0,0,0,0,0,0,0,0,0,0,0,0,0,0,0,0,0,0,0,0,0,0,0,
0,0,0,0,0,0,0,0,0,0,0,0,0,0,0,0,0,0,0,0,0,0,0,0,0,0,0,0,0,0,0,0,0,0,0,0,0,0,0,0,0,0,0,0,0,0,0,0,0,0,0,0,0,0,0,0,0,0,0,0,0,0,0,0,0,0,0,0,0,0,0,0,0,0,0,0,0,0,0,0,
0,0,0,0,0,0,0,0,0,0,0,0,0,0,0,0,0,0,0,0,0,0,0,0,0,0,0,0,0,0,0,0,0,0,0,0,0,0,0,0,0,0,0,0,0,0,0,0,0,0,0,0,0,0,0,0,0,0,0,0,0,0,0,0,0,0,0,0,0,0,0,0,0,0,0,0,0,0,0,0,
0,0,0,0,0,0,0,0,0,0,0,0,0,0,0,0,0,0,0,0,0,0,0,0,0,0,0,0,0,0,0,0,0,0,0,0,0,0,0,0,0,0,0,0,0,0,0,0,0,0,0,0,0,0,0,0,0,0,0,0,0,0,0,0,0,0,0,0,0,0,0,0,0,0,0,0,0,0,0,0,
0,0,0,0,0,0,0,0,0,0,0,0,0,0,0,0,0,0,0,0,0,0,0,0,0,0,0,0,0,0,0,0,0,0,0,0,0,0,0,0,0,0,0,0,0,0,0,0,0,0,0,0,0,0,0,0,0,0,0,0,0,0,0,0,0,0,0,0,0,0,0,0,0,0,0,0,0,0,0,0,
0,0,0,0,0,0,0,0,0,0,0,0,0,0,0,0,0,0,0,0,0,0,0,0,0,0,0,0,0,0,0,0,0,0,0,0,0,0,0,0,0,0,0,0,0,0,0,0,0,0,0,0,0,0,0,0,0,0,0,0,0,0,0,0,0,0,0,0,0,0,0,0,0,0,0,0,0,0,0,0,
0,0,0,0,0,0,0,0,0,0,0,0,0,0,0,0,0,0,0,0,0,0,0,0,0,0,0,0,0,0,0,0,0,0,0,0,0,0,0,0,0,0,0,0,0,0,0,0,0,0,0,0,0,0,0,0,0,0,0,0,0,0,0,0,0,0,0,0,0,0,0,0,0,0,0,0,0,0,0,0,
0,0,0,0,0,0,0,0,0,0,0,0,0,0,0,0,0,0,0,0,0,0,0,0,0,0,0,0,0,0,0,0,0,0,0,0,0,0,0,0,0,0,0,0,0,0,0,0,0,0,0,0,0,0,0,0,0,0,0,0,0,0,0,0,0,0,0,0,0,0,0,0,0,0,0,0,0,0,0,0,
0,0,0,0,0,0,0,0,0,0,0,0,0,0,0,0,0,0,0,0,0,0,0,0,0,0,0,0,0,0,0,0,0,0,0,0,0,0,0,0,0,0,0,0,0,0,0,0,0,0,0,0,0,0,0,0,0,0,0,0,0,0,0,0,0,0,0,0,0,0,0,0,0,0,0,0,0,0,0,0,
0,0,0,0,0,0,0,0,0,0,0,0,0,0,0,0,0,0,0,0,0,0,0,0,0,0,0,0,0,0,0,0,0,0,0,0,0,0,0,0,0,0,0,0,0,0,0,0,0,0,0,0,0,0,0,0,0,0,0,0,0,0,0,0,0,0,0,0,0,0,0,0,0,0,0,0,0,0,0,0,
0,0,0,0,0,0,0,0,0,0,0,0,0,0,0,0,0,0,0,0,0,0,0,0,0,0,0,0,0,0,0,0,0,0,0,0,0,0,0,0,0,0,0,0,0,0,0,0,0,0,0,0,0,0,0,0,0,0,0,0,0,0,0,0,0,0,0,0,0,0,0,0,0,0,0,0,0,0,0,0,
0,0,0,0,0,0,0,0,0,0,0,0,0,0,0,0,0,0,0,0,0,0,0,0,0,0,0,0,0,0,0,0,0,0,0,0,0,0,0,0,0,0,0,0,0,0,0,0,0,0,0,0,0,0,0,0,0,0,0,0,0,0,0,0,0,0,0,0,0,0,0,0,0,0,0,0,0,0,0,0,
0,0,0,0,0,0,0,0,0,0,0,0,0,0,0,0,0,0,0,0,0,0,0,0,0,0,0,0,0,0,0,0,0,0,0,0,0,0,0,0,0,0,0,0,0,0,0,0,0,0,0,0,0,0,0,0,0,0,0,0,0,0,0,0,0,0,0,0,0,0,0,0,0,0,0,0,0,0,0,0,
0,0,0,0,0,0,0,0,0,0,0,0,0,0,0,0,0,0,0,0,0,0,0,0,0,0,0,0,0,0,0,0,0,0,0,0,0,0,0,0,0,0,0,0,0,0,0,0,0,0,0,0,0,0,0,0,0,0,0,0,0,0,0,0,0,0,0,0,0,0,0,0,0,0,0,0,0,0,0,0,
0,0,0,0,0,0,0,0,0,0,0,0,0,0,0,0,0,0,0,0,0,0,0,0,0,0,0,0,0,0,0,0,0,0,0,0,0,0,0,0,0,0,0,0,0,0,0,0,0,0,0,0,0,0,0,0,0,0,0,0,0,0,0,0,0,0,0,0,0,0,0,0,0,0,0,0,0,0,0,0,
0,0,0,0,0,0,0,0,0,0,0,0,0,0,0,0,0,0,0,0,0,0,0,0,0,0,0,0,0,0,0,0,0,0,0,0,0,0,0,0,0,0,0,0,0,0,0,0,0,0,0,0,0,0,0,0,0,0,0,0,0,0,0,0,0,0,0,0,0,0,0,0,0,0,0,0,0,0,0,0,
0,0,0,0,0,0,0,0,0,0,0,0,0,0,0,0,0,0,0,0,0,0,0,0,0,0,0,0,0,0,0,0,0,0,0,0,0,0,0,0,0,0,0,0,0,0,0,0,0,0,0,0,0,0,0,0,0,0,0,0,0,0,0,0,0,0,0,0,0,0,0,0,0,0,0,0,0,0,0,0,
0,0,0,0,0,0,0,0,0,0,0,0,0,0,0,0,0,0,0,0,0,0,0,0,0,0,0,0,0,0,0,0,0,0,0,0,0,0,0,0,0,0,0,0,0,0,0,0,0,0,0,0,0,0,0,0,0,0,0,0,0,0,0,0,0,0,0,0,0,0,0,0,0,0,0,0,0,0,0,0,
0,0,0,0,0,0,0,0,0,0,0,0,0,0,0,0,0,0,0,0,0,0,0,0,0,0,0,0,0,0,0,0,0,0,0,0,0,0,0,0,0,0,0,0,0,0,0,0,0,0,0,0,0,0,0,0,0,0,0,0,0,0,0,0,0,0,0,0,0,0,0,0,0,0,0,0,0,0,0,0,
0,0,0,0,0,0,0,0,0,0,0,0,0,0,0,0,0,0,0,0,0,0,0,0,0,0,0,0,0,0,0,0,0,0,0,0,0,0,0,0,0,0,0,0,0,0,0,0,0,0,0,0,0,0,0,0,0,0,0,0,0,0,0,0,0,0,0,0,0,0,0,0,0,0,0,0,0,0,0,0,
0,0,0,0,0,0,0,0,0,0,0,0,0,0,0,0,0,0,0,0,0,0,0,0,0,0,0,0,0,0,0,0,0,0,0,0,0,0,0,0,0,0,0,0,0,0,0,0,0,0,0,0,0,0,0,0,0,0,0,0,0,0,0,0,0,0,0,0,0,0,0,0,0,0,0,0,0,0,0,0,
0,0,0,0,0,0,0,0,0,0,0,0,0,0,0,0,0,0,0,0,0,0,0,0,0,0,0,0,0,0,0,0,0,0,0,0,0,0,0,0,0,0,0,0,0,0,0,0,0,1146,0,0,0,0,0,0,0,0,0,0,0,0,0,0,0,0,0,0,0,0,0,0,0,0,0,0,0,0,0,0,
0,0,0,0,0,0,0,0,0,0,0,0,0,0,0,0,0,0,0,0,0,0,0,0,0,0,0,0,0,0,0,0,0,0,0,0,0,0,0,0,0,0,0,0,0,0,0,0,0,0,1146,0,0,0,0,0,0,0,0,0,0,0,0,0,0,0,0,0,0,0,0,0,0,0,0,0,0,0,0,0,
0,0,0,0,0,0,0,0,0,0,0,0,0,0,0,0,0,0,0,0,0,0,0,0,0,0,0,0,0,0,0,0,0,0,0,0,0,0,0,0,0,0,0,0,0,0,0,0,0,0,0,0,0,0,0,0,0,0,0,0,0,0,0,0,0,0,0,0,0,0,0,0,0,0,0,0,0,0,0,0,
0,0,0,0,0,0,0,0,0,0,0,0,0,0,0,0,0,0,0,0,0,0,0,0,0,0,0,0,0,0,0,0,0,0,0,0,0,0,0,0,0,0,0,0,0,0,0,0,0,0,0,0,0,0,0,0,0,0,0,0,0,0,0,0,0,0,0,0,0,0,0,0,0,0,0,0,0,0,0,0,
0,0,0,0,0,0,0,0,0,0,0,0,0,0,0,0,0,0,0,0,0,0,0,0,0,0,0,0,0,0,0,0,0,0,0,0,0,0,0,0,0,0,0,0,0,0,0,0,0,0,0,0,0,0,0,0,0,0,0,0,0,0,0,0,0,0,0,0,0,0,0,0,0,0,0,0,0,0,0,0,
0,0,0,0,0,0,0,0,0,0,0,0,0,0,0,0,0,0,0,0,0,0,0,0,0,0,0,0,0,0,0,0,0,0,0,0,0,0,0,0,0,0,0,0,0,0,0,0,0,0,0,0,0,0,0,0,0,0,0,0,0,0,0,0,0,0,0,0,0,0,0,0,0,0,0,0,0,0,0,0,
0,0,0,0,0,0,0,0,0,0,0,0,0,0,0,0,0,0,0,0,0,0,0,0,0,0,0,0,0,0,0,0,0,0,0,0,0,0,0,0,0,0,0,0,0,0,0,0,0,0,0,0,0,0,0,0,0,0,0,0,0,0,0,0,0,0,0,0,0,0,0,0,0,0,0,0,0,0,0,0,
0,0,0,0,0,0,0,0,0,0,0,0,0,0,0,0,0,0,0,0,0,0,0,0,0,0,0,0,0,0,0,0,0,0,0,0,0,0,0,0,0,0,0,0,0,0,0,0,0,0,0,0,0,0,0,0,0,0,0,0,0,0,0,0,0,0,0,0,0,0,0,0,0,0,0,0,0,0,0,0,
0,0,0,0,0,0,0,0,0,0,0,0,0,0,0,0,0,0,0,0,0,0,0,0,0,0,0,0,0,0,0,0,0,0,0,0,0,0,0,0,0,0,0,0,0,0,0,0,0,0,0,0,0,0,0,0,0,0,0,0,0,0,0,0,0,0,0,0,0,0,0,0,0,0,0,0,0,0,0,0,
0,0,0,0,0,0,0,0,0,0,0,0,0,0,0,0,0,0,0,0,0,0,0,0,0,0,0,0,0,0,0,0,0,0,0,0,0,0,0,0,0,0,0,0,0,0,0,0,0,0,0,0,0,0,0,0,0,0,0,0,0,0,0,0,0,0,0,0,0,0,0,0,0,0,0,0,0,0,0,0
</data>
 </layer>
</map>
