<?xml version="1.0" encoding="UTF-8"?>
<map version="1.10" tiledversion="1.11.2" orientation="orthogonal" renderorder="right-down" compressionlevel="0" width="80" height="65" tilewidth="16" tileheight="16" infinite="0" nextlayerid="15" nextobjectid="86">
 <properties>
  <property name="AllowGrassSurviveInWinter" value="T"/>
  <property name="Outdoors" value="T"/>
  <property name="Warp" value="80 15 BusStop 11 23 80 18 BusStop 11 24 80 16 BusStop 11 23 80 17 BusStop 11 23 40 65 Forest 68 0 41 65 Forest 68 0 42 65 Forest 68 0 40 -1 Backwoods 14 39 41 -1 Backwoods 14 39 34 5 FarmCave 8 11"/>
 </properties>
 <tileset firstgid="1" source="../tilesets/Paths.tsx"/>
 <tileset firstgid="65" source="../tilesets/spring_outdoorTileSheet_extra.tsx"/>
 <tileset firstgid="129" source="../tilesets/spring_outdoorsTileSheet.tsx"/>
 <tileset firstgid="2104" source="../tilesets/spring_outdoorsTileSheet2.tsx"/>
 <tileset firstgid="3224" source="../tilesets/Building/HouseBuilding.tsx"/>
 <tileset firstgid="3683" source="../tilesets/Building/GreenHouseBuilding.tsx"/>
 <layer id="1" name="Back" width="80" height="65">
  <data encoding="csv">
509,509,509,509,509,509,509,509,509,510,481,479,481,666,665,1375,1375,1371,1374,666,479,509,479,508,509,285,509,509,509,509,509,509,509,509,509,509,509,535,481,691,641,692,666,479,480,480,458,480,480,480,480,480,482,505,505,505,505,532,458,458,458,458,509,509,509,509,509,509,509,509,509,509,509,509,285,509,509,509,509,509,
534,534,534,534,534,534,534,534,534,535,481,479,481,666,715,1375,1375,1396,1399,666,479,534,479,533,534,534,534,534,534,534,534,534,534,534,534,534,534,480,481,305,752,717,666,479,480,480,482,505,505,505,505,505,506,458,458,458,458,390,458,458,458,458,509,509,509,509,509,509,509,509,509,509,509,509,509,285,509,509,509,509,
458,480,482,505,505,505,505,505,505,505,506,479,410,666,665,2971,1375,1451,1375,666,504,506,504,505,505,505,405,406,407,505,505,505,405,406,407,405,406,407,506,305,305,717,666,504,407,505,506,0,304,507,530,304,454,458,458,458,458,415,480,480,480,480,534,534,534,534,534,534,534,534,458,534,534,534,534,534,534,534,458,458,
480,505,506,385,304,385,304,304,304,304,304,457,435,666,747,2987,1375,1375,1375,666,329,332,304,304,383,304,304,384,304,383,385,385,304,384,304,304,383,304,384,305,336,717,666,304,304,383,0,0,480,480,458,530,479,480,458,480,458,440,480,480,480,480,433,480,480,482,505,505,405,407,505,505,405,406,407,505,458,480,458,458,
0,481,385,304,716,716,716,716,716,716,716,480,460,685,1372,2937,1375,1375,1375,666,2845,716,716,716,716,716,716,716,716,716,716,716,716,716,716,716,716,716,716,305,305,667,666,716,716,716,716,0,480,480,480,480,457,480,480,480,458,479,480,458,458,480,480,434,482,506,304,454,455,455,429,433,455,455,456,304,504,505,532,480,
510,481,0,716,716,716,716,716,716,716,716,482,506,685,1397,1395,1375,1375,2970,666,2861,717,716,716,716,716,716,716,716,716,716,716,716,346,346,346,716,716,716,715,689,717,666,385,385,716,380,480,480,480,385,505,505,505,505,505,506,504,505,405,406,407,505,505,506,458,455,429,480,433,480,480,429,480,458,455,429,304,479,480,
510,481,716,480,480,480,480,480,480,480,480,481,410,685,1375,1375,1375,1375,2986,666,2877,717,666,666,666,666,666,666,716,716,716,716,716,346,638,346,716,716,716,715,617,717,666,385,385,454,457,482,505,505,506,329,697,578,578,698,279,304,304,405,406,407,304,304,304,405,406,406,407,505,505,505,532,433,458,429,433,455,552,532,
456,479,480,480,509,509,509,509,509,509,510,481,622,685,1375,1375,1428,1375,1375,666,354,774,691,691,691,692,666,666,666,666,666,666,666,589,663,589,666,666,666,715,305,717,666,385,666,457,480,481,1102,530,304,379,381,716,741,723,530,404,304,279,304,530,304,280,304,279,304,406,406,406,406,406,406,532,406,480,429,433,481,479,
0,479,480,534,534,534,534,967,967,967,535,481,647,685,2971,1378,1375,1375,689,666,354,356,356,356,356,774,641,691,691,691,691,691,691,641,691,641,641,695,666,747,305,717,666,691,691,480,433,507,456,304,304,329,331,716,741,748,479,280,455,455,455,404,455,404,455,404,385,385,2093,2093,2094,2093,2095,504,532,480,480,480,481,479,
0,385,480,429,482,505,405,1128,1128,1128,407,506,666,685,2987,1375,1375,1375,666,329,331,716,716,718,716,716,716,716,716,716,716,716,360,716,716,716,716,716,602,716,716,717,666,716,716,480,480,482,506,530,304,354,355,716,66,304,479,480,480,480,480,480,480,480,480,481,385,385,385,2095,2093,2094,2093,385,504,532,480,480,481,479,
0,481,480,482,506,329,330,308,309,334,330,332,666,1372,2937,1375,1378,2970,666,354,336,356,716,716,716,716,335,716,307,380,380,380,380,381,693,716,355,716,617,716,716,717,666,716,716,480,482,506,329,330,330,331,355,716,67,65,504,505,405,406,407,505,405,406,407,506,529,304,304,279,304,404,530,304,404,504,505,532,481,479,
0,481,480,507,456,379,358,716,716,355,689,382,685,1397,2953,1375,1375,2986,666,379,381,356,592,716,716,716,716,307,382,454,455,456,279,2845,689,335,716,716,716,716,355,717,666,666,666,482,506,329,331,716,716,642,716,739,282,306,332,280,304,279,304,304,279,304,304,304,279,304,304,404,304,280,404,304,304,304,530,479,481,504,
0,481,480,433,507,455,456,716,2840,2841,716,304,685,1375,1375,1375,1375,727,666,666,2845,356,716,716,716,716,716,357,304,479,480,481,304,2861,693,716,617,716,335,716,716,774,691,691,699,330,330,331,356,716,360,716,617,282,355,642,306,332,304,304,304,304,304,279,304,454,455,455,455,456,530,454,456,529,304,404,304,390,507,455,
481,481,480,480,433,429,481,467,468,467,467,282,685,1375,1451,1375,2970,685,666,666,2861,356,716,693,716,617,716,306,332,504,532,481,530,2877,743,716,716,716,716,716,716,592,716,716,716,356,356,356,716,355,716,355,336,355,716,716,335,306,332,304,279,304,304,304,454,457,480,480,482,506,454,457,507,456,530,304,304,415,480,480,
481,481,480,482,505,505,506,467,467,468,467,716,685,2971,1375,1375,2969,1374,666,666,2877,336,355,718,716,716,716,716,306,332,504,506,279,354,689,355,716,355,716,716,716,716,716,617,716,282,282,716,355,716,743,716,716,282,592,360,282,714,357,454,455,430,431,432,457,480,429,480,481,383,504,480,480,506,280,404,279,440,480,480,
481,481,480,481,282,716,689,467,468,467,467,467,666,2987,1375,1375,2985,1399,666,666,379,381,716,714,716,716,716,718,716,306,330,330,330,331,693,592,642,716,360,716,716,716,716,716,716,355,716,716,716,716,716,718,716,617,355,716,355,642,357,479,480,480,429,480,480,480,480,482,506,304,329,603,628,332,404,404,304,504,505,505,
480,481,480,481,282,716,716,2858,2856,2857,2859,355,666,695,1375,1451,1375,1375,666,666,304,379,381,356,716,739,716,716,716,716,716,716,718,693,716,716,716,716,716,716,716,714,355,716,355,716,716,617,355,716,335,716,716,355,716,718,356,307,382,479,480,480,480,480,429,480,480,481,385,329,331,739,751,306,308,334,308,309,334,330,
480,481,480,481,716,716,617,666,690,691,692,666,666,740,1375,1375,1375,1375,719,666,282,716,379,381,689,716,716,716,716,716,716,716,716,355,716,716,282,716,716,714,716,716,592,642,716,716,355,716,716,282,305,716,355,617,716,282,356,357,304,504,532,429,480,480,480,480,429,481,329,331,716,714,753,726,702,726,702,726,702,726,
480,481,480,481,666,666,666,666,747,355,774,691,694,355,1375,1375,1378,1375,717,666,282,716,279,2845,282,282,282,716,716,716,282,716,716,718,716,716,716,716,282,355,716,716,716,716,716,282,355,716,282,716,642,716,716,716,355,360,356,306,332,530,504,505,505,405,406,407,505,506,379,358,359,333,380,380,381,356,716,739,310,716,
481,385,480,481,666,691,691,694,716,716,360,282,716,336,1375,1375,1375,2970,717,666,666,716,304,2877,716,716,282,716,592,716,355,716,356,356,689,716,642,716,716,307,380,380,380,358,359,333,380,380,381,716,716,716,282,716,716,716,356,307,382,304,279,530,304,279,530,304,304,530,454,455,455,456,304,304,379,381,310,307,454,455,
481,479,480,481,716,716,592,282,716,617,716,716,355,716,2971,1428,1375,2986,717,666,666,666,279,379,380,380,381,336,307,358,381,356,356,307,380,380,358,359,333,382,279,304,304,304,279,304,304,304,379,380,380,358,359,333,380,380,380,382,304,304,304,304,329,330,330,332,304,304,504,532,480,481,304,304,304,379,381,357,479,480,
481,479,480,481,335,716,716,716,282,716,716,689,716,355,2987,1378,1375,1375,774,691,692,666,304,304,304,304,379,380,382,304,716,2840,2841,716,279,304,304,279,304,304,716,716,716,716,716,642,282,355,304,304,304,279,304,304,304,304,304,304,304,279,304,530,716,2840,2841,716,279,304,530,504,505,506,530,304,304,304,379,382,479,480,
481,504,716,481,716,716,689,642,716,355,716,355,718,716,1375,1375,1375,1375,716,716,717,666,716,716,716,355,304,304,279,304,467,468,467,467,304,716,716,716,716,716,716,355,716,716,716,716,716,282,592,360,716,355,716,716,716,282,716,716,360,530,279,304,467,468,467,467,304,282,355,716,716,716,716,716,716,716,741,748,479,458,
481,304,716,481,304,716,716,716,355,335,716,355,716,716,1375,1375,1378,1371,1374,282,717,666,716,716,282,716,689,716,282,335,467,467,468,467,642,716,716,718,282,716,716,716,335,716,716,718,716,355,355,716,716,716,355,282,716,282,592,716,282,716,355,335,467,467,468,467,642,716,282,282,716,716,716,592,716,716,741,723,479,458,
458,455,455,481,455,456,716,282,689,716,716,716,355,355,1375,1375,1375,1396,1399,716,717,666,716,666,666,666,666,282,282,716,467,468,467,467,716,355,716,716,716,355,666,666,666,666,666,666,666,716,716,716,592,355,305,282,642,716,716,716,716,282,716,716,467,468,467,467,716,282,716,718,716,617,716,716,714,716,741,748,479,480,
458,458,480,480,480,481,716,716,282,716,693,716,716,716,716,1375,1451,1375,2970,355,717,666,666,666,666,666,666,666,666,716,2858,2856,2857,2859,282,666,666,666,666,666,666,691,691,641,691,691,692,666,666,666,666,666,666,666,666,666,666,666,282,716,718,716,2858,2856,2857,2859,282,666,666,666,666,666,666,666,666,666,666,723,479,480,
480,458,480,480,480,481,716,689,716,716,716,716,716,716,360,1375,1375,1375,2969,1374,774,691,691,691,691,692,666,666,666,666,720,691,691,691,666,666,641,691,691,691,694,716,718,716,716,336,774,691,691,641,641,691,691,691,691,691,691,692,666,666,666,666,720,691,691,691,666,666,691,691,641,641,691,691,691,691,692,748,479,480,
458,480,458,458,480,481,716,716,716,355,716,282,355,718,716,1375,1375,1375,2985,2955,1374,3065,716,716,336,774,691,691,641,694,356,356,356,356,799,694,716,716,716,716,716,718,716,716,716,716,716,716,716,716,592,716,716,716,714,716,355,774,691,691,691,694,356,356,356,356,799,694,716,716,716,716,335,693,716,716,741,723,479,480,
458,480,480,480,481,481,716,716,335,716,716,716,592,716,716,716,1375,1375,1428,1396,2956,2957,282,716,718,716,355,360,716,355,716,355,336,355,642,716,716,355,716,282,716,360,716,716,282,642,716,282,355,282,716,716,716,282,282,716,716,282,355,617,282,716,716,355,355,336,716,282,716,716,642,355,718,716,716,716,741,748,479,480,
458,458,458,482,506,506,716,689,716,355,282,716,716,716,282,716,2971,1378,1375,1375,2954,2955,1373,1374,3146,716,716,716,282,716,718,716,716,716,355,282,716,716,282,716,716,716,716,716,716,716,282,716,282,716,282,355,716,716,642,355,718,716,716,716,716,282,716,592,716,716,716,355,716,693,716,716,716,716,716,592,741,723,479,458,
458,458,482,506,304,304,716,689,282,307,358,359,333,380,380,381,2987,1375,1375,1378,1375,1396,1398,2956,2957,1373,1373,1373,1373,1373,1373,1373,1373,1373,1373,1373,1374,3146,592,716,282,282,716,642,642,716,716,282,282,716,282,282,716,693,716,716,716,716,716,592,716,355,355,716,716,355,716,282,716,716,716,716,716,360,716,716,741,748,479,480,
458,458,506,304,716,304,379,380,380,382,304,454,455,456,304,379,380,381,1375,1375,1375,1375,1375,2972,2973,1398,1398,1398,1398,1398,1398,1398,1398,1398,1398,1398,2955,2957,1373,1373,1374,3147,716,716,716,716,282,642,356,716,716,716,716,716,716,716,716,360,716,716,716,282,716,282,716,716,592,716,355,716,282,355,282,716,282,716,741,723,479,480,
480,481,304,716,716,304,304,304,454,455,455,457,433,507,455,456,304,2845,335,1375,1375,1375,1375,1375,1375,1375,1375,1375,1378,1375,1375,1375,1375,1451,1375,1375,1396,1398,1398,1398,2955,2957,1373,1374,716,716,336,716,355,716,355,716,355,716,282,355,282,716,282,716,716,716,642,716,355,714,716,716,716,716,716,592,716,716,716,642,741,748,479,480,
480,481,716,454,456,304,304,304,479,480,480,480,480,480,480,481,304,2877,336,716,716,1428,1375,1375,1451,1375,1375,1375,1375,1375,1375,1375,1375,1375,1375,1375,1378,1375,1375,1375,1396,1398,1398,1399,1374,282,716,716,716,282,282,718,716,716,716,592,716,716,716,642,282,716,282,716,642,282,716,718,355,282,716,716,716,282,716,716,741,723,479,480,
385,481,716,457,507,456,304,304,504,505,505,505,505,505,505,506,304,379,382,304,304,304,304,304,304,304,304,354,356,716,718,282,716,716,716,716,1375,1375,1451,1375,1375,1375,1375,1396,2955,1374,3065,592,716,716,716,716,355,282,716,716,716,282,716,716,716,282,716,716,355,282,716,718,716,642,716,282,739,716,714,716,741,748,479,458,
480,456,716,480,482,506,530,304,304,304,304,304,530,530,304,304,304,304,304,304,304,304,304,304,304,304,304,379,355,716,282,716,718,716,617,592,716,282,282,1375,1375,1428,1375,1375,1396,2956,2957,714,716,716,642,355,642,716,716,716,642,282,355,355,716,716,617,716,716,282,716,282,355,716,716,716,716,592,716,355,741,454,457,458,
480,481,480,482,506,783,784,784,784,784,784,784,784,784,784,784,784,784,784,784,784,784,784,784,784,784,786,304,716,282,617,355,716,282,716,716,716,716,335,716,716,1375,1378,1375,1375,2954,2974,355,282,716,716,282,716,716,617,716,282,716,716,592,716,451,451,451,451,451,689,716,716,716,716,336,716,716,716,716,741,479,480,480,
458,456,480,481,783,785,764,810,810,810,814,810,810,810,810,810,810,810,810,810,810,810,810,810,814,810,760,786,304,304,304,716,716,355,716,716,282,716,355,714,282,335,1375,1375,1451,1375,1371,1374,716,716,282,355,716,716,716,716,355,304,304,304,304,476,476,476,476,476,304,304,304,304,304,304,304,304,304,304,454,457,480,458,
458,481,480,410,2875,764,810,736,685,685,685,685,737,685,685,685,685,735,685,685,685,685,737,685,685,810,764,2874,304,304,304,617,282,716,716,355,716,336,716,282,716,592,689,1375,1375,1375,1396,1399,356,716,355,282,716,336,716,744,666,304,329,330,330,330,526,526,526,699,330,330,330,330,330,330,330,330,332,304,479,480,480,458,
458,506,480,435,2907,810,810,685,685,685,685,685,685,685,685,814,685,685,685,685,687,685,685,685,814,810,810,2890,304,304,304,716,716,282,716,592,716,716,716,355,716,716,282,2971,1375,1375,1375,1396,617,642,716,716,716,716,716,717,666,329,331,310,716,716,716,716,716,716,716,716,716,716,716,716,716,310,306,332,390,480,480,480,
507,456,480,435,2875,810,810,685,814,685,685,685,685,685,685,685,685,685,685,814,685,685,685,685,712,810,810,2906,304,716,716,592,716,355,282,716,282,355,716,282,716,355,282,2987,1375,1378,1375,1375,716,716,716,355,716,642,689,717,666,354,310,355,716,642,716,642,716,592,716,282,716,716,716,716,282,716,716,2844,415,480,480,480,
480,481,480,460,2891,810,810,687,685,685,685,685,687,685,685,685,685,685,685,685,685,685,685,685,685,810,814,2874,716,360,716,617,282,718,716,282,716,716,592,716,282,282,716,716,1375,1375,1375,2970,716,716,335,718,716,355,716,717,666,354,282,355,716,355,282,282,355,716,716,716,282,355,355,716,642,716,714,2860,440,480,433,480,
505,506,480,481,2907,814,810,685,735,685,687,685,685,685,685,814,685,685,685,685,687,685,685,735,685,810,810,2890,282,716,666,716,716,716,642,716,355,716,716,716,282,716,716,716,1375,1451,1375,2986,335,716,355,355,716,355,716,717,666,379,381,716,718,282,716,716,282,716,716,743,716,355,718,716,716,716,718,2876,479,480,480,480,
482,482,482,506,808,810,810,810,810,810,810,810,810,810,810,810,810,810,810,810,810,810,810,810,810,810,764,2906,642,666,666,747,282,716,716,716,642,282,336,716,716,718,360,716,1375,1375,1375,1375,716,716,716,716,716,689,335,717,666,304,379,380,381,310,716,716,689,355,333,381,716,716,716,592,716,716,282,2844,390,480,480,480,
505,505,506,304,833,835,764,810,810,814,810,810,761,812,635,635,635,635,635,787,810,810,810,810,764,761,834,836,666,666,740,282,716,716,282,716,282,716,716,282,282,716,716,716,1375,1375,1375,1375,716,716,282,355,282,282,282,717,666,304,304,304,530,716,2840,2873,2841,716,304,354,356,716,716,282,716,716,716,2860,415,480,480,480,
304,530,304,304,530,833,834,812,813,787,812,787,836,304,716,2840,2873,2841,282,304,833,812,813,787,834,836,530,304,691,694,355,716,282,718,617,716,592,716,716,282,716,716,355,716,2971,1375,1375,1375,592,355,282,716,282,305,282,717,666,716,716,304,304,467,468,467,467,467,304,379,380,380,381,282,716,714,716,2876,440,480,480,480,
304,304,304,304,304,530,304,304,304,304,304,304,304,304,467,468,467,467,466,304,304,304,304,304,530,304,282,282,355,617,716,716,716,716,716,716,716,716,716,617,716,716,716,282,2987,1375,1428,1375,716,305,282,282,716,689,355,717,666,718,716,282,335,467,467,468,467,467,467,716,305,282,379,380,381,310,716,357,479,480,480,480,
507,552,716,716,716,716,716,716,716,355,360,716,355,716,467,467,468,467,467,716,355,716,282,716,360,716,716,282,716,716,716,714,718,282,716,282,716,282,716,716,282,716,716,282,1375,1375,1375,2970,716,716,355,282,716,716,716,717,666,716,716,642,716,467,468,467,468,467,466,716,716,716,282,716,379,380,380,382,504,505,480,480,
480,481,716,716,592,716,617,282,716,716,716,282,617,718,467,468,467,467,466,716,716,282,716,716,617,689,716,282,716,282,282,716,716,716,716,360,716,617,718,716,689,716,716,716,1375,1451,1375,2986,718,716,282,716,716,592,282,717,666,666,282,282,716,2858,2856,2872,2857,2859,466,716,282,282,716,642,716,716,355,716,741,748,505,480,
480,481,716,716,718,716,310,716,716,282,355,305,282,305,2858,2856,2872,2857,2859,355,716,592,716,282,282,716,642,666,747,716,282,282,592,716,716,282,716,716,617,689,716,282,360,716,1375,1375,1375,1371,1374,716,336,716,282,716,336,774,691,692,666,666,666,720,691,691,691,692,666,666,666,282,716,716,716,282,282,716,741,723,479,480,
480,481,666,666,666,666,666,666,666,666,666,666,666,666,720,691,691,691,692,666,666,666,666,666,666,666,666,740,282,716,282,282,716,355,716,592,716,282,282,716,642,716,716,282,2971,1375,1375,1396,1399,355,282,716,282,716,716,282,355,774,691,641,694,356,356,356,356,774,691,691,692,666,666,282,716,355,716,716,741,748,479,480,
480,481,691,691,641,691,691,691,691,641,691,691,691,694,642,716,355,716,774,691,691,641,691,691,691,691,694,336,716,592,282,617,716,716,355,716,716,282,716,716,617,689,716,716,2987,1378,1375,1375,1371,1374,3065,355,716,282,716,356,716,716,716,282,716,716,716,282,716,282,716,355,774,691,692,666,666,666,666,666,666,723,479,480,
458,481,716,716,716,716,716,716,282,716,282,592,716,617,716,355,335,716,355,716,716,642,617,282,282,282,716,716,282,716,716,716,282,718,689,355,716,592,716,282,282,716,642,716,716,1375,1375,1375,1396,2956,2958,282,716,355,716,716,617,716,716,716,355,716,716,282,282,355,716,282,716,355,774,641,691,691,691,691,692,748,479,480,
458,481,716,716,716,716,716,335,693,716,716,716,716,716,282,716,716,716,716,355,355,716,282,716,617,716,617,716,282,716,282,282,716,716,716,716,355,716,716,716,282,716,716,716,716,282,1375,1375,1375,2954,2955,1373,1373,1373,1373,1373,1373,1373,1374,3147,282,689,716,716,716,282,716,355,716,716,716,716,716,693,689,716,741,723,479,480,
458,481,716,743,592,1372,1373,1373,1373,1374,693,355,716,282,716,718,716,617,592,716,282,282,642,716,617,282,716,282,282,716,716,307,380,381,355,718,689,716,282,355,716,716,642,617,716,355,716,1375,1375,1375,1396,1398,1398,1398,1398,1398,1398,1398,2956,2957,1373,1373,1374,3146,355,282,716,592,716,642,716,716,356,356,356,716,741,748,479,480,
458,481,716,716,716,1397,1398,1398,1398,2955,1374,617,282,282,355,716,282,716,716,716,716,335,716,716,716,282,282,356,356,356,307,382,304,354,356,716,716,642,617,282,282,282,716,716,617,716,716,1375,1375,1378,1375,1452,1375,1375,1375,1375,1375,1428,2972,2973,1398,1398,2956,2957,1373,1374,3147,716,716,716,716,716,716,716,716,716,741,723,479,480,
480,506,716,716,336,1375,1428,1375,1401,1396,1399,355,355,305,716,716,355,716,642,282,716,355,716,282,716,716,716,356,356,356,357,304,279,379,381,355,355,716,282,716,617,716,617,282,716,716,714,356,1375,1375,1375,1375,1451,1375,1375,1375,1378,1375,1375,1378,1375,1375,2972,2973,1398,2956,2957,1374,355,716,693,716,716,716,454,455,455,455,457,458,
458,481,716,743,714,2971,1451,1375,1375,1375,1378,716,282,355,617,282,716,716,355,716,336,716,282,716,592,356,356,356,307,380,382,454,455,456,379,381,282,282,642,716,617,282,716,716,282,282,716,718,356,356,356,1375,1375,1375,1375,1375,1375,1375,1375,1375,1451,1375,1375,1375,1375,2972,2973,2955,1374,356,356,716,716,716,479,458,458,480,458,480,
480,481,716,693,716,2987,1378,1400,1400,1400,1400,718,716,716,716,716,282,716,592,716,716,716,355,716,716,356,356,307,382,454,455,457,480,481,304,2845,716,335,716,716,716,282,282,282,716,282,282,718,355,716,716,716,716,355,716,716,716,716,716,1375,1375,1375,1378,1375,1375,1375,1375,1396,2955,1374,716,716,716,716,504,505,505,532,480,480,
480,481,716,716,716,716,1400,1377,1428,1400,355,716,716,716,592,716,355,355,716,716,617,716,282,716,355,307,380,382,454,457,480,480,480,507,456,2877,282,716,689,642,716,716,716,716,282,336,282,716,282,282,716,716,355,282,716,355,282,282,716,282,355,716,716,1375,1428,1451,1375,1375,1396,1399,716,454,455,455,430,431,432,457,480,480,
480,481,716,693,718,716,716,716,716,716,716,716,360,716,716,716,282,716,282,716,716,592,716,307,380,382,454,455,457,480,480,480,480,480,481,379,716,716,716,718,282,716,716,282,716,716,716,689,716,716,716,693,716,716,355,716,716,716,716,716,282,716,716,716,716,1375,1375,1451,1375,1375,716,457,480,480,480,480,480,480,480,480,
480,481,716,716,718,716,716,716,716,282,355,282,716,282,716,716,716,642,716,355,716,716,716,357,304,304,479,480,480,480,480,480,480,480,481,304,354,716,716,716,716,716,716,716,716,716,716,716,716,716,716,716,716,716,716,716,716,716,716,716,716,716,716,716,716,716,1375,1375,1375,1375,693,480,480,480,480,480,480,480,480,480,
509,485,455,455,455,455,455,455,455,455,455,455,455,455,455,455,455,455,455,455,455,455,455,455,455,455,457,480,480,480,480,480,480,480,507,304,379,382,304,716,714,716,716,454,455,455,455,455,455,455,455,455,455,455,455,455,455,455,455,455,455,455,455,455,455,355,1375,1375,1451,2970,356,480,480,480,480,480,480,480,480,480,
509,511,485,458,458,458,458,458,458,458,458,458,480,458,484,484,484,484,484,484,480,480,480,480,480,480,480,480,480,480,480,480,480,458,304,304,304,304,304,716,716,716,716,479,480,480,480,480,480,480,480,480,480,480,480,480,480,480,480,480,480,480,480,480,456,282,2971,1452,1375,2986,716,480,480,480,480,480,480,480,480,480,
509,509,510,480,480,458,458,458,458,458,458,458,480,480,509,509,285,509,509,509,480,480,483,484,484,484,484,484,484,484,484,484,484,484,304,304,304,304,304,716,716,716,716,479,458,458,484,484,484,484,484,484,484,484,484,484,484,484,484,484,484,484,484,485,481,355,2971,1375,1375,1375,716,433,480,480,480,480,480,480,480,480
</data>
 </layer>
 <layer id="2" name="Buildings" width="80" height="65">
  <data encoding="csv">
168,169,167,168,169,145,145,258,145,145,255,548,145,548,145,3002,0,733,839,520,243,470,214,215,216,145,145,167,168,169,145,183,0,0,0,0,167,168,169,548,0,0,545,145,145,145,145,286,287,145,145,265,145,145,145,145,145,145,574,593,569,279,471,497,597,598,0,0,0,182,183,145,265,145,145,258,145,145,145,145,
193,194,192,193,194,145,145,145,145,145,145,523,145,523,145,3018,0,0,889,520,145,495,145,240,145,145,145,192,193,194,145,208,209,0,534,361,192,193,194,523,0,0,520,217,218,145,145,145,145,145,145,145,145,471,497,419,420,145,620,618,594,575,496,522,622,623,0,0,0,207,208,145,145,145,145,145,145,145,145,145,
145,145,145,145,145,145,145,145,145,145,145,548,145,548,145,3034,0,0,889,545,145,570,145,265,145,145,145,145,145,145,145,233,145,145,145,145,258,217,218,548,0,0,545,242,243,145,145,471,497,575,597,596,597,496,522,444,445,145,645,643,619,621,521,547,647,648,145,265,145,361,534,145,145,145,145,145,145,145,534,145,
143,144,145,145,361,145,145,280,145,279,383,573,145,523,145,362,0,0,3054,520,0,595,596,597,596,593,569,145,145,145,145,258,145,145,145,145,145,242,243,573,0,0,520,361,279,423,424,496,522,621,622,621,622,521,547,469,470,145,670,668,644,577,546,572,672,673,145,145,145,145,258,145,145,145,145,145,145,386,272,273,
168,169,385,280,471,497,597,596,597,596,597,598,145,548,312,412,0,0,3070,520,0,620,621,622,621,618,594,597,575,597,596,597,597,1762,1763,1764,597,575,597,598,0,0,545,304,404,448,449,521,547,577,647,646,647,546,572,494,495,145,145,145,669,671,571,145,145,145,145,471,497,596,597,575,597,593,569,145,386,436,297,298,
193,194,383,425,496,522,622,2035,2036,2037,622,623,145,573,887,0,0,0,3086,545,0,645,577,647,646,643,619,622,621,622,621,622,622,1787,0,1789,576,621,622,623,0,0,545,272,273,473,474,546,572,671,672,671,672,571,489,254,570,145,145,145,145,145,145,145,145,471,497,496,522,621,622,621,622,618,594,593,569,145,504,532,
510,145,423,450,521,547,647,2060,2061,2062,647,648,423,598,3006,0,1422,0,889,520,0,670,671,672,671,668,644,647,646,647,577,647,647,1812,0,1814,647,646,647,648,0,0,545,297,298,498,499,571,964,0,512,513,512,513,514,515,574,596,597,596,597,575,597,596,597,496,522,521,547,577,647,646,647,643,619,618,594,419,420,504,
456,523,448,475,546,572,672,2085,2086,2087,672,673,523,623,3022,0,0,0,914,545,0,0,0,0,0,0,669,672,671,672,671,672,672,1837,0,1839,672,671,672,673,0,0,570,145,304,573,0,0,0,0,0,0,0,0,0,540,620,621,622,621,622,621,622,621,622,521,547,546,572,671,672,671,672,668,644,643,619,444,445,145,
481,548,473,572,571,0,0,0,0,0,0,0,548,648,3038,0,0,2991,687,544,0,0,0,0,0,0,0,0,0,0,0,0,0,0,0,0,0,0,0,0,0,0,574,575,597,598,0,0,0,0,0,0,0,0,0,565,645,577,647,646,647,646,647,646,647,546,572,571,0,0,0,0,0,0,669,668,644,469,470,233,
481,523,498,0,0,0,0,0,0,0,0,0,672,673,887,0,0,3070,520,0,0,0,0,0,0,0,0,3713,3714,3715,3716,3717,3718,3719,0,0,0,0,0,0,0,0,620,621,622,623,0,0,0,0,0,0,0,0,0,0,670,671,672,671,672,671,672,671,672,571,0,0,0,0,0,0,0,0,0,0,669,494,495,258,
481,548,523,0,0,0,0,0,0,0,0,0,548,837,732,0,0,3086,545,0,0,0,0,0,0,0,0,3728,3729,3730,3731,3732,3733,3734,0,0,0,0,0,0,0,0,645,646,647,648,0,0,0,0,0,0,0,0,0,0,0,0,0,0,0,0,0,0,0,0,0,0,0,0,0,0,0,0,0,0,0,0,545,145,
481,523,548,0,0,0,0,567,0,0,568,0,523,887,0,0,0,914,570,0,0,0,0,0,0,0,0,3743,3744,3745,3746,3747,3748,3749,0,0,0,0,0,0,0,0,670,671,672,673,0,0,0,0,0,0,0,0,0,0,0,0,0,0,3429,3430,3431,3432,3433,3434,3435,3436,3437,0,0,0,0,0,0,0,0,0,570,258,
481,548,523,0,0,0,0,523,0,0,520,0,548,3006,0,0,2991,687,595,420,0,0,0,0,0,0,0,3758,3759,3760,3761,3762,3763,3764,0,0,0,0,0,0,0,0,0,0,0,0,0,0,0,0,0,0,0,0,0,0,0,0,0,0,3446,3447,3448,3449,3450,3451,3452,3453,3454,0,0,0,0,0,0,0,0,0,574,596,
386,523,548,0,0,0,0,548,0,0,570,304,573,3022,0,0,3086,736,620,445,0,0,0,0,0,0,0,3773,3774,3775,3776,3777,3778,3779,0,0,0,0,0,0,0,0,0,0,0,0,0,0,0,0,0,0,0,0,0,0,0,0,0,0,3463,3464,3465,3466,3467,3468,3469,3470,3471,0,0,516,517,0,0,0,0,0,620,621,
145,548,523,0,0,0,0,573,0,0,595,596,598,3038,0,0,733,839,645,470,0,0,0,0,0,0,0,3788,3789,3790,3791,3792,3793,3794,0,0,0,0,0,0,0,0,0,0,0,0,0,0,0,0,0,0,0,0,0,0,0,0,0,0,3480,3481,3482,3483,3484,3485,3486,3487,3488,0,0,0,0,0,0,0,0,0,645,646,
145,573,523,145,423,424,597,598,0,0,620,621,623,912,0,0,0,889,670,495,0,0,0,0,0,0,0,3803,3804,3805,3806,3807,3808,3809,0,0,0,0,0,0,0,0,0,0,0,0,0,0,0,0,0,0,0,0,0,0,0,0,0,0,3497,3498,3499,3500,3501,3502,3503,3504,3505,0,0,0,0,0,0,0,0,0,670,671,
597,598,548,145,448,449,576,623,0,0,645,647,648,824,885,0,0,889,0,570,0,0,0,0,0,0,0,3818,3819,3820,3821,3822,3823,3824,0,0,0,0,0,0,0,0,0,0,0,0,0,0,0,0,0,0,0,0,0,0,0,0,0,0,3514,3515,3516,3517,3518,3519,3520,3521,3522,0,0,0,0,0,0,0,0,0,0,0,
622,623,523,145,473,474,647,648,0,0,670,652,673,0,362,0,0,3050,0,595,419,420,0,0,0,0,0,0,0,0,0,0,0,0,0,0,0,0,0,0,0,0,0,0,0,0,0,0,0,0,0,0,0,0,0,0,0,0,0,0,0,0,0,0,0,0,0,0,0,0,0,0,0,0,0,0,0,0,0,0,
647,648,548,145,498,499,672,673,0,0,0,0,0,0,362,0,0,3066,0,620,621,445,0,0,0,0,0,0,0,0,0,0,0,0,0,0,0,0,0,0,0,0,0,0,0,0,0,0,0,0,0,0,0,0,0,0,0,0,0,0,0,0,0,0,0,0,0,0,0,0,0,0,0,0,0,0,0,0,0,0,
672,673,523,145,523,0,0,0,0,0,0,0,0,0,3002,1422,0,3082,0,645,646,470,0,0,0,0,0,0,0,0,0,0,0,0,0,0,0,0,0,0,0,0,0,0,0,0,0,0,0,0,0,0,0,0,0,0,0,0,0,0,0,0,0,0,0,0,0,0,0,0,0,0,0,0,0,0,0,515,512,513,
145,145,548,145,548,0,0,0,0,0,0,0,0,0,3034,0,0,364,0,670,671,495,0,0,0,0,0,0,0,0,567,0,0,568,567,0,0,0,0,0,0,0,0,0,0,0,0,0,0,0,0,0,0,0,0,0,0,0,0,0,0,568,567,0,0,568,567,0,0,0,0,0,0,0,0,0,0,515,145,145,
145,145,523,145,523,0,0,0,0,0,0,0,0,0,362,145,145,364,0,0,0,570,0,0,0,0,0,0,0,0,523,0,0,520,0,0,0,0,0,0,471,497,596,597,596,597,593,569,0,0,0,0,0,0,0,0,0,0,0,0,0,0,523,0,0,520,0,0,0,0,0,0,0,0,0,0,0,515,145,145,
145,145,541,145,548,0,0,0,0,0,0,0,0,0,908,909,910,911,0,0,0,574,596,597,596,593,569,0,0,0,573,0,0,570,0,471,497,597,596,597,496,522,621,576,621,622,618,594,596,597,596,597,575,597,596,597,596,593,569,0,0,0,573,0,0,570,0,471,497,597,575,597,596,597,596,597,419,420,145,145,
145,436,383,304,386,383,523,0,0,0,0,0,0,0,362,145,145,413,314,0,0,620,621,576,621,618,594,597,596,597,598,0,0,595,596,496,522,622,621,576,521,547,646,647,646,647,643,619,621,622,621,576,621,622,621,622,621,618,594,597,596,597,598,0,0,574,596,496,522,622,621,622,576,622,621,622,622,445,361,145,
145,145,145,145,145,145,548,0,0,0,0,0,0,0,387,0,0,0,3050,0,0,645,646,647,646,643,619,622,621,622,623,0,0,620,621,521,547,647,646,647,546,572,671,672,671,672,668,644,646,647,646,647,646,647,577,647,646,643,619,622,621,622,623,0,0,620,621,521,547,647,577,647,646,647,646,647,647,470,436,297,
297,298,145,145,145,145,523,0,0,0,0,0,0,0,0,366,0,0,3082,0,0,670,671,672,671,668,644,647,646,647,648,0,0,645,646,546,572,672,671,672,571,0,0,0,0,0,0,669,671,672,671,672,671,672,671,672,671,668,644,647,646,647,648,0,0,645,646,546,572,672,671,672,671,672,671,672,672,495,145,386,
436,145,145,145,145,145,548,0,0,0,0,0,0,0,0,362,0,0,413,314,0,0,0,0,0,0,669,672,671,672,673,0,0,670,671,571,0,0,0,0,0,0,0,0,0,0,0,0,0,0,0,0,0,0,0,0,0,0,669,672,671,672,673,0,0,670,671,571,0,0,0,0,0,0,0,0,0,520,145,145,
145,145,145,436,541,567,523,0,0,0,0,0,0,0,0,387,0,0,1422,413,3064,0,0,0,0,0,0,0,0,0,0,0,0,0,0,0,0,0,0,0,0,0,0,0,0,0,0,0,0,0,0,0,0,0,0,0,0,0,0,0,0,0,0,0,0,0,0,0,0,0,0,0,0,0,0,0,0,545,145,145,
145,145,361,145,145,523,548,0,0,0,0,0,0,0,0,0,2988,0,0,0,3080,3081,0,0,0,0,0,0,0,0,0,0,0,0,0,0,0,0,0,0,0,0,0,0,0,0,0,0,0,0,0,0,0,0,0,0,0,0,0,0,0,0,0,0,0,0,0,0,0,0,0,0,0,0,0,0,0,520,145,145,
145,145,145,297,298,548,493,0,0,0,0,0,0,0,0,0,3034,0,0,0,0,413,313,3064,0,0,0,0,0,0,0,0,0,0,0,0,0,0,0,0,0,0,0,0,0,0,0,0,0,0,0,0,0,0,0,0,0,0,0,0,0,0,0,0,0,0,0,0,0,0,0,0,0,0,0,0,0,545,145,361,
436,145,145,386,145,573,304,0,0,0,0,0,0,0,0,0,387,388,0,0,0,0,0,3080,3162,340,313,340,313,340,313,938,938,340,313,340,3064,0,0,0,0,0,0,0,0,0,0,0,0,0,0,0,0,0,0,0,0,0,0,0,0,0,0,0,0,0,0,0,0,0,0,0,0,0,0,0,0,520,258,145,
145,258,145,145,425,598,523,304,0,0,0,0,0,0,0,0,0,0,341,0,0,0,0,0,0,0,0,0,0,0,145,1039,1014,145,0,0,3080,3162,340,313,3064,0,0,0,0,0,0,0,0,0,0,0,0,0,0,0,0,0,0,0,0,0,0,0,0,0,0,0,0,0,0,0,0,0,0,0,0,545,145,145,
563,254,383,425,450,623,548,456,304,0,0,0,0,0,0,0,0,0,0,3099,388,1422,0,0,0,0,0,0,0,0,145,988,989,145,0,0,0,0,0,0,3080,3162,313,314,0,0,0,0,0,0,0,0,0,0,0,0,0,0,0,0,0,0,0,0,0,0,0,0,0,0,0,0,0,0,0,0,0,520,145,145,
0,145,423,450,475,648,504,507,145,304,0,0,0,0,0,0,0,0,0,0,0,341,3128,3130,388,3128,3129,3130,388,388,388,1013,1013,3128,3129,3130,0,0,0,0,0,0,0,413,314,0,0,0,0,0,0,0,0,0,0,0,0,0,0,0,0,0,0,0,0,0,0,0,0,0,0,0,0,0,0,0,0,723,145,145,
0,573,448,475,525,673,145,145,145,404,304,304,304,304,304,304,304,304,304,304,304,304,304,304,304,304,304,530,548,0,0,0,0,0,0,0,341,3128,3130,0,0,1422,0,0,413,3064,0,0,0,0,0,0,0,0,0,0,0,0,0,0,0,0,0,0,0,0,0,0,0,0,0,0,0,0,0,0,0,520,386,230,
0,598,473,500,0,540,145,0,0,0,0,0,304,304,0,0,0,0,0,0,0,0,304,530,0,0,0,530,548,0,0,0,0,0,0,0,0,0,0,341,388,0,0,0,0,3080,3081,0,0,0,0,0,0,0,0,0,0,0,0,0,0,0,0,0,0,0,0,0,0,0,0,0,0,0,544,304,304,145,386,255,
0,623,498,0,0,565,512,513,513,513,513,513,512,513,513,513,513,513,513,512,513,513,513,513,513,513,513,514,548,0,0,0,0,0,0,0,0,0,0,0,0,341,0,0,0,0,364,0,0,0,0,0,0,0,0,0,520,304,304,304,379,380,0,0,0,380,380,304,304,304,304,304,304,304,304,304,304,145,436,386,
0,648,523,0,0,0,0,0,0,0,0,0,0,0,0,0,0,0,0,0,0,0,0,0,0,0,0,0,0,304,304,523,0,0,0,0,0,0,0,0,0,0,3099,0,0,0,413,314,0,0,0,0,0,0,0,0,545,279,145,145,145,548,0,0,0,545,145,145,145,145,145,145,145,145,145,145,304,145,145,361,
672,673,548,0,0,0,0,0,0,0,0,0,0,0,0,0,0,0,0,0,0,0,0,0,0,0,0,0,0,0,0,548,0,0,0,0,0,0,0,0,0,0,0,2988,0,0,0,364,0,0,0,0,0,0,0,0,520,512,513,513,513,514,0,0,0,512,513,513,513,513,513,513,513,513,513,513,514,515,361,145,
361,145,573,0,0,0,0,0,0,0,0,0,0,0,0,0,0,0,0,0,0,0,0,0,0,0,0,0,0,0,0,573,0,0,0,0,0,0,0,0,0,0,0,3034,0,0,0,3050,0,0,0,0,0,0,0,0,545,0,0,0,0,0,0,0,0,0,0,0,0,0,0,0,0,0,0,0,0,540,145,0,
596,597,598,0,0,0,0,0,0,0,0,0,0,0,0,0,0,0,0,0,0,0,0,0,0,0,0,0,0,471,497,598,0,0,0,0,0,0,0,0,0,0,0,387,0,0,0,3066,0,0,0,0,0,0,0,0,545,0,0,0,0,0,0,0,0,0,0,0,0,0,0,0,0,0,0,0,0,540,145,0,
621,622,623,0,0,0,0,0,0,0,0,0,0,0,0,0,0,0,0,0,0,0,0,0,0,0,0,0,423,496,522,623,0,0,0,0,0,0,0,0,0,0,0,0,366,0,0,3082,0,0,0,0,0,0,0,0,545,0,0,0,0,0,0,0,0,0,0,0,0,0,0,0,0,0,0,0,0,540,145,0,
646,647,648,0,0,0,0,0,0,0,0,0,0,0,0,0,0,0,0,0,0,0,0,0,0,0,0,0,448,521,547,648,0,0,0,0,0,0,0,0,0,0,0,0,362,145,145,364,0,0,0,0,0,0,0,0,520,0,0,0,0,0,0,0,0,0,0,0,0,0,0,0,0,0,0,0,0,540,145,0,
671,672,673,0,0,0,0,0,0,0,0,0,0,0,0,0,0,0,0,0,0,0,0,0,0,0,0,0,473,546,572,673,0,0,0,0,0,0,0,0,0,0,0,0,908,909,910,911,0,0,0,0,0,0,0,0,545,0,0,0,568,567,0,0,0,568,0,0,0,0,0,0,0,0,0,0,0,540,361,0,
0,0,0,0,0,0,0,0,0,0,0,0,0,0,567,0,0,0,568,0,0,0,0,0,0,0,0,0,498,571,0,0,0,0,0,0,0,0,0,0,0,0,0,0,3002,145,145,364,0,0,0,0,0,0,0,0,570,0,0,0,0,523,0,0,0,520,0,0,0,0,0,0,0,0,0,0,0,540,436,143,
0,0,0,0,0,0,0,0,0,0,0,0,0,0,523,0,0,0,520,0,0,0,0,0,0,0,0,0,573,0,0,0,0,0,0,0,0,0,0,0,0,0,0,0,3034,0,1422,3050,0,0,0,0,0,0,0,0,595,419,569,304,304,573,0,0,0,570,0,0,0,0,0,0,0,0,0,0,0,540,167,168,
0,0,0,0,0,0,0,0,0,0,0,0,0,0,573,0,0,0,570,0,0,0,0,0,0,0,471,497,598,0,0,0,0,0,0,0,0,0,0,0,0,0,0,0,362,0,0,3066,0,0,0,0,0,0,0,0,620,621,594,419,596,598,0,0,0,595,575,597,419,569,0,0,0,0,0,0,0,540,192,193,
169,456,423,424,596,597,575,597,596,597,596,597,596,596,598,0,0,0,595,596,596,597,575,597,596,597,496,522,623,0,0,0,0,0,0,0,0,0,0,0,0,0,0,0,362,0,0,3082,0,0,0,0,0,0,0,0,645,646,619,621,622,623,0,0,0,620,621,576,444,594,593,569,0,0,0,0,0,565,532,145,
194,145,448,622,621,622,621,622,621,576,621,622,621,621,623,0,0,0,620,621,621,622,621,622,576,622,521,547,648,0,0,0,0,0,0,0,0,0,0,0,0,0,0,0,3002,0,0,364,0,0,0,0,0,0,0,0,670,671,644,646,647,648,0,0,0,645,646,647,469,619,618,594,575,597,596,597,419,420,504,145,
304,304,473,647,646,647,646,647,646,647,646,647,646,646,648,0,0,0,645,646,646,647,646,647,646,647,546,572,673,0,0,0,0,0,0,0,0,0,0,0,0,0,0,0,3018,0,0,413,314,0,0,0,0,0,0,0,0,0,669,671,672,673,0,0,0,670,671,672,494,644,643,619,621,622,621,576,621,445,436,386,
304,304,498,672,671,672,671,672,671,672,671,672,671,671,673,0,0,0,670,671,671,672,671,672,671,672,571,0,0,0,0,0,0,0,0,0,0,0,0,0,0,0,0,0,3034,0,0,0,364,0,0,0,0,0,0,0,0,0,0,0,0,0,0,0,0,0,0,0,0,669,668,644,646,647,646,647,646,470,145,361,
304,304,523,0,0,0,0,0,0,0,0,0,0,0,0,0,0,0,0,0,0,0,0,0,0,0,0,0,0,0,0,0,0,0,0,0,0,0,0,0,0,0,0,0,387,0,0,0,413,3064,0,0,0,0,0,0,0,0,0,0,0,0,0,0,0,0,0,0,0,0,0,669,671,672,671,672,494,495,145,145,
480,145,548,0,0,0,0,0,0,0,0,0,0,0,0,0,0,0,0,0,0,0,0,0,0,0,0,0,0,0,0,0,0,0,0,0,0,0,0,0,0,0,0,0,0,3099,0,0,0,3080,3081,0,0,0,0,0,0,0,0,0,0,0,0,0,0,0,0,0,0,0,0,0,0,0,0,0,0,520,145,386,
145,436,523,0,0,0,0,0,0,0,0,0,0,0,0,0,0,0,0,0,0,0,0,0,0,0,0,0,0,0,0,0,0,0,0,0,0,0,0,0,0,0,0,0,0,0,341,0,0,0,413,313,340,938,938,313,340,313,3064,0,0,0,0,0,0,0,0,0,0,0,0,0,0,0,0,0,0,545,145,145,
145,386,548,0,0,312,313,340,313,314,0,0,0,0,0,0,0,0,0,0,0,0,0,0,0,0,0,0,0,0,0,0,0,0,0,0,0,0,0,0,0,0,0,0,0,0,0,366,0,0,0,0,145,1039,1014,145,0,1422,3080,3162,340,313,3064,0,0,0,0,0,0,0,0,0,0,0,0,0,0,520,145,145,
386,481,523,0,0,337,1422,338,338,413,314,0,0,0,0,0,0,0,0,0,0,0,0,0,0,0,0,0,0,0,0,0,0,0,0,0,0,0,0,0,0,0,0,0,0,0,0,387,0,0,0,0,145,988,989,145,0,0,0,0,0,0,3080,3162,313,3064,0,0,0,0,0,0,0,0,0,0,0,545,543,436,
0,481,548,0,0,3002,0,0,0,0,339,0,0,0,0,0,0,0,0,0,0,0,0,0,0,0,0,0,0,0,0,0,0,0,0,0,0,0,0,0,0,0,0,0,0,0,0,0,3099,3128,3130,0,145,1039,1014,145,0,0,0,0,0,0,0,0,0,3080,3162,314,0,0,0,0,0,520,479,361,436,145,255,145,
0,481,523,0,0,3034,0,0,0,0,364,0,0,0,0,0,0,0,0,0,0,0,0,0,0,0,0,0,0,0,0,0,0,0,0,0,0,0,0,0,0,0,0,0,0,0,0,0,0,0,0,341,388,1013,1013,388,3128,3129,3130,0,0,0,0,0,0,0,0,413,314,0,0,0,0,545,386,436,386,145,361,386,
0,169,548,0,0,387,437,0,1422,438,389,0,0,0,0,0,0,0,0,0,0,0,0,0,0,0,0,0,0,0,0,0,0,0,0,0,0,0,0,0,0,0,0,0,0,0,0,0,0,0,0,0,0,0,0,0,0,0,0,341,388,3128,3130,0,1422,0,0,0,413,314,0,0,0,544,145,145,145,386,145,145,
0,194,523,0,0,0,387,388,388,389,0,0,0,0,0,0,0,0,0,0,0,0,0,0,0,0,0,0,0,0,0,0,0,0,0,0,0,0,0,0,0,0,0,0,0,0,0,0,0,0,0,0,0,0,0,0,0,0,0,0,0,0,0,3099,388,0,0,0,0,364,520,304,455,145,145,142,143,144,145,145,
0,304,548,0,0,0,0,0,0,0,0,0,0,0,0,0,0,0,0,0,0,0,0,0,0,0,0,0,0,0,0,0,0,0,0,0,0,0,0,0,0,0,0,0,0,0,0,0,0,0,0,0,0,0,0,0,0,0,0,0,0,0,0,0,0,341,0,0,0,3050,545,145,480,480,145,167,168,169,145,145,
0,304,541,0,0,0,0,0,0,0,0,0,0,0,0,0,0,0,0,0,0,0,0,0,0,0,0,0,0,0,0,0,0,0,0,0,0,0,0,0,0,0,0,0,0,0,0,0,0,0,0,0,0,0,0,0,0,0,0,0,0,0,0,0,0,0,366,0,0,3066,520,145,480,480,145,192,193,194,145,145,
0,507,490,304,304,304,304,304,304,304,304,490,304,304,304,304,386,304,304,304,304,361,304,304,436,386,304,361,304,304,304,304,304,361,304,304,304,304,304,523,0,0,520,454,455,455,455,455,455,455,455,361,386,304,304,304,304,304,304,386,361,304,304,304,304,523,3002,0,0,3082,545,145,480,480,145,145,145,217,218,145,
145,145,515,512,513,513,513,513,514,513,514,515,483,361,484,484,484,484,484,484,484,484,484,484,484,484,484,484,484,484,484,484,484,484,484,484,484,304,304,548,0,0,545,145,145,145,145,386,145,145,145,436,145,145,145,145,145,145,145,142,143,144,145,145,145,548,3018,0,0,364,545,145,145,145,145,145,145,242,243,145,
145,145,540,145,145,145,145,145,145,145,145,540,509,509,509,509,509,509,509,509,509,509,509,509,509,509,509,509,509,509,509,509,509,509,509,509,509,145,145,548,0,0,520,145,145,145,145,145,145,386,145,145,145,436,145,145,145,145,436,167,168,169,145,145,145,523,3034,0,0,3050,545,433,304,145,145,145,145,145,145,145
</data>
 </layer>
 <layer id="3" name="Buildings2" width="80" height="65">
  <properties>
   <property name="Draw" value="Buildings"/>
  </properties>
  <data encoding="csv">
0,0,0,0,0,0,0,0,0,0,0,0,0,0,0,0,0,0,0,0,0,0,0,0,0,0,0,0,0,0,0,0,0,0,0,0,0,0,0,0,0,0,0,0,0,0,0,0,0,0,0,0,0,0,0,0,0,0,0,0,0,0,0,0,0,0,0,0,0,0,0,0,0,0,0,0,0,0,0,0,
0,0,0,0,0,0,0,0,0,0,0,0,0,0,0,0,0,0,0,0,0,0,0,0,0,0,0,0,0,0,0,0,0,0,0,0,0,0,0,0,0,0,0,0,0,0,0,0,0,0,0,0,0,0,0,0,0,0,0,0,0,0,0,0,0,0,0,0,0,0,0,0,0,0,0,0,0,0,0,0,
0,0,0,0,0,0,0,0,0,0,0,0,0,0,0,0,0,0,0,0,0,0,0,0,0,0,0,0,0,0,0,0,0,0,0,0,0,0,0,0,0,0,0,0,0,0,0,0,0,0,0,0,0,0,0,0,0,0,0,0,0,0,0,0,0,0,0,0,0,0,0,0,0,0,0,0,0,0,0,0,
0,0,0,0,0,0,0,0,0,0,0,0,0,0,0,0,0,0,0,0,0,0,0,0,0,0,0,0,0,0,0,0,0,0,0,0,0,0,0,0,0,0,0,0,0,0,0,0,0,0,0,0,0,0,0,0,0,0,0,0,0,0,0,0,0,0,0,0,0,0,0,0,0,0,0,0,0,0,0,0,
0,0,0,0,0,0,0,0,0,0,0,0,0,0,0,0,0,0,0,0,0,0,0,0,0,0,0,0,0,0,0,0,0,0,0,0,0,0,0,0,0,0,0,0,0,0,0,0,0,0,0,0,0,0,0,0,0,0,0,0,0,0,0,0,0,0,0,0,0,0,0,0,0,0,0,0,0,0,0,0,
0,0,0,0,0,0,0,0,0,0,0,0,0,0,0,0,0,0,0,0,0,0,0,0,0,0,0,0,0,0,0,0,0,0,0,0,0,0,0,0,0,0,0,0,0,0,0,0,0,0,0,0,0,0,0,0,0,0,0,0,0,0,0,0,0,0,0,0,0,0,0,0,0,0,0,0,0,0,0,0,
0,0,0,0,0,0,0,0,0,0,0,0,0,0,0,0,0,0,0,0,0,0,0,0,0,0,0,0,0,0,0,0,0,0,0,0,0,0,0,0,0,0,0,0,0,0,0,0,0,0,0,0,0,0,0,0,0,0,0,0,0,0,0,0,0,0,0,0,0,0,0,0,0,0,0,0,0,0,0,0,
0,0,0,0,0,0,0,0,0,0,0,0,0,0,0,0,0,0,0,0,0,0,0,0,0,0,0,0,0,0,0,0,0,0,0,0,0,0,0,0,0,0,0,0,0,0,0,0,0,0,0,0,0,0,0,0,0,0,0,0,0,0,0,0,0,0,0,0,0,0,0,0,0,0,0,0,0,0,0,0,
0,0,0,0,0,0,0,0,0,0,0,0,0,0,0,0,0,0,0,0,0,0,0,0,0,0,0,0,0,0,0,0,0,0,0,0,0,0,0,0,0,0,0,0,0,0,0,0,0,0,0,0,0,0,0,0,0,0,0,0,0,0,0,0,0,0,0,0,0,0,0,0,0,0,0,0,0,0,0,0,
0,0,0,0,0,0,0,0,0,0,0,0,523,0,0,0,0,0,0,0,0,0,0,0,0,0,0,0,0,0,0,0,0,0,0,0,0,0,0,0,0,0,0,0,0,0,0,0,0,0,0,0,0,0,0,0,0,0,0,0,0,0,0,0,0,0,0,0,0,0,0,0,0,0,0,0,0,0,0,0,
0,0,0,0,0,0,0,0,0,0,0,0,0,0,0,0,0,0,0,0,0,0,0,0,0,0,0,0,0,0,0,0,0,0,0,0,0,0,0,0,0,0,0,0,0,0,0,0,0,0,0,0,0,0,0,0,0,0,0,0,0,0,0,0,0,0,0,0,0,0,0,0,0,0,0,0,0,0,0,0,
0,0,0,0,0,0,0,0,0,0,0,0,0,0,0,0,0,0,0,0,0,0,0,0,0,0,0,0,0,0,0,0,0,0,0,0,0,0,0,0,0,0,0,0,0,0,0,0,0,0,0,0,0,0,0,0,0,0,0,0,0,0,0,0,0,0,0,0,0,0,0,0,0,0,0,0,0,0,0,0,
0,0,0,0,0,0,0,0,0,0,0,0,0,0,0,0,0,0,0,0,0,0,0,0,0,0,0,0,0,0,0,0,0,0,0,0,0,0,0,0,0,0,0,0,0,0,0,0,0,0,0,0,0,0,0,0,0,0,0,0,0,0,0,0,0,0,0,0,0,0,0,0,0,0,0,0,0,0,0,0,
0,0,0,0,0,0,0,0,0,0,0,0,0,0,0,0,0,0,0,0,0,0,0,0,0,0,0,0,0,0,0,0,0,0,0,0,0,0,0,0,0,0,0,0,0,0,0,0,0,0,0,0,0,0,0,0,0,0,0,0,0,0,0,0,0,0,0,0,0,0,0,0,0,0,0,0,0,0,0,0,
0,0,0,0,0,0,0,0,0,0,0,0,0,0,0,0,0,0,0,0,0,0,0,0,0,0,0,0,0,0,0,0,0,0,0,0,0,0,0,0,0,0,0,0,0,0,0,0,0,0,0,0,0,0,0,0,0,0,0,0,0,0,0,0,0,0,0,0,0,0,0,0,0,0,0,0,0,0,0,0,
0,0,0,0,0,0,0,0,0,0,0,0,0,0,0,0,0,0,0,0,0,0,0,0,0,0,0,0,0,0,0,0,0,0,0,0,0,0,0,0,0,0,0,0,0,0,0,0,0,0,0,0,0,0,0,0,0,0,0,0,0,0,0,0,0,0,0,0,0,0,0,0,0,0,0,0,0,0,0,0,
0,0,0,0,0,0,0,0,0,0,0,0,0,0,0,0,0,0,0,0,0,0,0,0,0,0,0,0,0,0,0,0,0,0,0,0,0,0,0,0,0,0,0,0,0,0,0,0,0,0,0,0,0,0,0,0,0,0,0,0,0,0,0,0,0,0,0,0,0,0,0,0,0,0,0,0,0,0,0,0,
0,0,0,0,0,0,0,0,0,0,0,0,0,0,0,0,0,0,0,0,0,0,0,0,0,0,0,0,0,0,0,0,0,0,0,0,0,0,0,0,0,0,0,0,0,0,0,0,0,0,0,0,0,0,0,0,0,0,0,0,0,0,0,0,0,0,0,0,0,0,0,0,0,0,0,0,0,0,0,0,
0,0,0,0,0,0,0,0,0,0,0,0,0,0,0,0,0,0,0,0,0,0,0,0,0,0,0,0,0,0,0,0,0,0,0,0,0,0,0,0,0,0,0,0,0,0,0,0,0,0,0,0,0,0,0,0,0,0,0,0,0,0,0,0,0,0,0,0,0,0,0,0,0,0,0,0,0,0,0,0,
0,0,0,0,0,0,0,0,0,0,0,0,0,0,0,0,0,0,0,0,0,0,0,0,0,0,0,0,0,0,0,0,0,0,0,0,0,0,0,0,0,0,0,0,0,0,0,0,0,0,0,0,0,0,0,0,0,0,0,0,0,0,0,0,0,0,0,0,0,0,0,0,0,0,0,0,0,0,0,0,
0,0,0,0,0,0,0,0,0,0,0,0,0,0,0,0,0,0,0,0,0,0,0,0,0,0,0,0,0,0,0,0,0,0,0,0,0,0,0,0,0,0,0,0,0,0,0,0,0,0,0,0,0,0,0,0,0,0,0,0,0,0,0,0,0,0,0,0,0,0,0,0,0,0,0,0,0,0,0,0,
0,0,0,0,0,0,0,0,0,0,0,0,0,0,0,0,0,0,0,0,0,0,0,0,0,0,0,0,0,0,0,0,0,0,0,0,0,0,0,0,0,0,0,0,0,0,0,0,0,0,0,0,0,0,0,0,0,0,0,0,0,0,0,0,0,0,0,0,0,0,0,0,0,0,0,0,0,0,0,0,
0,0,0,0,0,0,0,0,0,0,0,0,0,0,0,0,0,0,0,0,0,0,0,0,0,0,0,0,0,0,0,0,0,0,0,0,0,0,0,0,0,0,0,0,0,0,0,0,0,0,0,0,0,0,0,0,0,0,0,0,0,0,0,0,0,0,0,0,0,0,0,0,0,0,0,0,0,0,0,0,
0,0,0,0,0,0,0,0,0,0,0,0,0,0,0,0,0,0,0,0,0,0,0,0,0,0,0,0,0,0,0,0,0,0,0,0,0,0,0,0,0,0,0,0,0,0,0,0,0,0,0,0,0,0,0,0,0,0,0,0,0,0,0,0,0,0,0,0,0,0,0,0,0,0,0,0,0,0,0,0,
0,0,0,0,0,0,0,0,0,0,0,0,0,0,0,0,0,0,0,0,0,0,0,0,0,0,0,0,0,0,0,0,0,0,0,0,0,0,0,0,0,0,0,0,0,0,0,0,0,0,0,0,0,0,0,0,0,0,0,0,0,0,0,0,0,0,0,0,0,0,0,0,0,0,0,0,0,0,0,0,
0,0,0,0,0,0,0,0,0,0,0,0,0,0,0,0,0,0,0,0,0,0,0,0,0,0,0,0,0,0,0,0,0,0,0,0,0,0,0,0,0,0,0,0,0,0,0,0,0,0,0,0,0,0,0,0,0,0,0,0,0,0,0,0,0,0,0,0,0,0,0,0,0,0,0,0,0,0,0,0,
0,0,0,0,0,0,0,0,0,0,0,0,0,0,0,0,0,0,0,0,0,0,0,0,0,0,0,0,0,0,0,0,0,0,0,0,0,0,0,0,0,0,0,0,0,0,0,0,0,0,0,0,0,0,0,0,0,0,0,0,0,0,0,0,0,0,0,0,0,0,0,0,0,0,0,0,0,0,0,0,
0,0,0,0,0,0,0,0,0,0,0,0,0,0,0,0,0,0,0,0,0,0,0,0,0,0,0,0,0,0,0,0,0,0,0,0,0,0,0,0,0,0,0,0,0,0,0,0,0,0,0,0,0,0,0,0,0,0,0,0,0,0,0,0,0,0,0,0,0,0,0,0,0,0,0,0,0,0,0,0,
0,0,0,0,0,0,0,0,0,0,0,0,0,0,0,0,0,0,0,0,0,0,0,0,0,0,0,0,0,0,0,0,0,0,0,0,0,0,0,0,0,0,0,0,0,0,0,0,0,0,0,0,0,0,0,0,0,0,0,0,0,0,0,0,0,0,0,0,0,0,0,0,0,0,0,0,0,0,0,0,
0,0,0,0,0,0,0,0,0,0,0,0,0,0,0,0,0,0,0,0,0,0,0,0,0,0,0,0,0,0,0,0,0,0,0,0,0,0,0,0,0,0,0,0,0,0,0,0,0,0,0,0,0,0,0,0,0,0,0,0,0,0,0,0,0,0,0,0,0,0,0,0,0,0,0,0,0,0,0,0,
0,0,0,0,0,0,0,0,0,0,0,0,0,0,0,0,0,0,0,0,0,0,0,0,0,0,0,0,0,0,0,0,0,0,0,0,0,0,0,0,0,0,0,0,0,0,0,0,0,0,0,0,0,0,0,0,0,0,0,0,0,0,0,0,0,0,0,0,0,0,0,0,0,0,0,0,0,0,0,0,
0,0,0,0,0,0,0,0,0,0,0,0,0,0,0,0,0,0,0,0,0,0,0,0,0,0,338,0,338,0,338,0,0,0,338,0,0,0,0,0,0,0,0,0,0,0,0,0,0,0,0,0,0,0,0,0,0,0,0,0,0,0,0,0,0,0,0,0,0,0,0,0,0,0,0,0,0,0,0,0,
0,0,0,0,0,0,0,0,0,0,0,0,0,0,0,0,0,0,0,0,0,0,0,0,0,0,0,0,0,0,0,0,0,0,0,0,0,0,0,338,0,0,0,0,0,0,0,0,0,0,0,0,0,0,0,0,0,0,0,0,0,0,0,0,0,0,0,0,0,0,0,0,0,0,0,0,0,0,0,0,
0,0,0,0,0,0,0,0,0,0,0,0,0,0,0,0,0,0,0,0,0,0,0,0,0,0,0,0,0,0,0,0,0,0,0,0,0,0,0,0,0,0,338,0,0,0,0,0,0,0,0,0,0,0,0,0,0,0,0,0,0,0,0,0,0,0,0,0,0,0,0,0,0,0,0,0,0,0,0,0,
0,0,0,0,0,0,0,0,0,0,0,0,0,0,0,0,0,0,0,0,0,0,0,0,0,0,0,0,0,0,0,0,0,0,0,0,0,0,0,0,0,0,0,0,0,0,0,0,0,0,0,0,0,0,0,0,0,0,0,0,0,0,0,0,0,0,0,0,0,0,0,0,0,0,0,0,0,0,0,0,
0,0,0,0,0,0,0,0,0,0,0,0,0,0,0,0,0,0,0,0,0,0,0,0,0,0,0,0,0,0,0,0,0,0,0,0,0,0,0,0,0,0,0,0,0,0,0,0,0,0,0,0,0,0,0,0,0,0,0,0,0,0,0,0,0,0,0,0,0,0,0,0,0,0,0,0,0,0,0,0,
0,0,0,0,0,0,0,0,0,0,0,0,0,0,0,0,0,0,0,0,0,0,0,0,0,0,0,0,0,0,0,0,0,0,0,0,0,0,0,0,0,0,0,0,0,0,0,0,0,0,0,0,0,0,0,0,0,0,0,0,0,0,0,0,0,0,0,0,0,0,0,0,0,0,0,0,0,0,0,0,
0,0,0,0,0,0,0,0,0,0,0,0,0,0,0,0,0,0,0,0,0,0,0,0,0,0,0,0,0,0,0,0,0,0,0,0,0,0,0,0,0,0,0,0,0,0,0,0,0,0,0,0,0,0,0,0,0,0,0,0,0,0,0,0,0,0,0,0,0,0,0,0,0,0,0,0,0,0,0,0,
0,0,0,0,0,0,0,0,0,0,0,0,0,0,0,0,0,0,0,0,0,0,0,0,0,0,0,0,0,0,0,0,0,0,0,0,0,0,0,0,0,0,0,0,0,0,0,0,0,0,0,0,0,0,0,0,0,0,0,0,0,0,0,0,0,0,0,0,0,0,0,0,0,0,0,0,0,0,0,0,
0,0,0,0,0,0,0,0,0,0,0,0,0,0,0,0,0,0,0,0,0,0,0,0,0,0,0,0,0,0,0,0,0,0,0,0,0,0,0,0,0,0,0,0,0,0,0,0,0,0,0,0,0,0,0,0,0,0,0,0,0,0,0,0,0,0,0,0,0,0,0,0,0,0,0,0,0,0,0,0,
0,0,0,0,0,0,0,0,0,0,0,0,0,0,0,0,0,0,0,0,0,0,0,0,0,0,0,0,0,0,0,0,0,0,0,0,0,0,0,0,0,0,0,0,0,0,0,0,0,0,0,0,0,0,0,0,0,0,0,0,0,0,0,0,0,0,0,0,0,0,0,0,0,0,0,0,0,0,0,0,
0,0,0,0,0,0,0,0,0,0,0,0,0,0,0,0,0,0,0,0,0,0,0,0,0,0,0,0,0,0,0,0,0,0,0,0,0,0,0,0,0,0,0,0,0,0,0,0,0,0,0,0,0,0,0,0,0,0,0,0,0,0,0,0,0,0,0,0,0,0,0,0,0,0,0,0,0,0,0,0,
0,0,0,0,0,0,0,0,0,0,0,0,0,0,0,0,0,0,0,0,0,0,0,0,0,0,0,0,0,0,0,0,0,0,0,0,0,0,0,0,0,0,0,0,0,0,0,0,0,0,0,0,0,0,0,0,0,0,0,0,0,0,0,0,0,0,0,0,0,0,0,0,0,0,0,0,0,0,0,0,
0,0,0,0,0,0,0,0,0,0,0,0,0,0,0,0,0,0,0,0,0,0,0,0,0,0,0,0,0,0,0,0,0,0,0,0,0,0,0,0,0,0,0,0,0,0,0,0,0,0,0,0,0,0,0,0,0,0,0,0,0,0,0,0,0,0,0,0,0,0,0,0,0,0,0,0,0,0,0,0,
0,0,0,0,0,0,0,0,0,0,0,0,0,0,0,0,0,0,0,0,0,0,0,0,0,0,0,0,0,0,0,0,0,0,0,0,0,0,0,0,0,0,0,0,0,0,0,0,0,0,0,0,0,0,0,0,0,0,0,0,0,0,0,0,0,0,0,0,0,0,0,0,0,0,0,0,0,0,0,0,
0,0,0,0,0,0,0,0,0,0,0,0,0,0,0,0,0,0,0,0,0,0,0,0,0,0,0,0,0,0,0,0,0,0,0,0,0,0,0,0,0,0,0,0,0,0,0,0,0,0,0,0,0,0,0,0,0,0,0,0,0,0,0,0,0,0,0,0,0,0,0,0,0,0,0,0,0,0,0,0,
0,0,0,0,0,0,0,0,0,0,0,0,0,0,0,0,0,0,0,0,0,0,0,0,0,0,0,0,0,0,0,0,0,0,0,0,0,0,0,0,0,0,0,0,0,0,0,0,0,0,0,0,0,0,0,0,0,0,0,0,0,0,0,0,0,0,0,0,0,0,0,0,0,0,0,0,0,0,0,0,
0,0,0,0,0,0,0,0,0,0,0,0,0,0,0,0,0,0,0,0,0,0,0,0,0,0,0,0,0,0,0,0,0,0,0,0,0,0,0,0,0,0,0,0,0,0,0,0,0,0,0,0,0,0,0,0,0,0,0,0,0,0,0,0,0,0,0,0,0,0,0,0,0,0,0,0,0,0,0,0,
0,0,0,0,0,0,0,0,0,0,0,0,0,0,0,0,0,0,0,0,0,0,0,0,0,0,0,0,0,0,0,0,0,0,0,0,0,0,0,0,0,0,0,0,0,0,0,0,0,0,0,0,0,0,0,0,0,0,0,0,0,0,0,0,0,0,0,0,0,0,0,0,0,0,0,0,0,0,0,0,
0,0,0,0,0,0,0,0,0,0,0,0,0,0,0,0,0,0,0,0,0,0,0,0,0,0,0,0,0,0,0,0,0,0,0,0,0,0,0,0,0,0,0,0,0,0,0,0,0,0,0,0,0,0,0,0,0,0,0,0,0,0,0,0,0,0,0,0,0,0,0,0,0,0,0,0,0,0,0,0,
0,0,0,0,0,0,0,0,0,0,0,0,0,0,0,0,0,0,0,0,0,0,0,0,0,0,0,0,0,0,0,0,0,0,0,0,0,0,0,0,0,0,0,0,0,0,0,0,0,0,0,0,0,0,0,0,0,0,0,0,0,0,0,0,0,0,0,0,0,0,0,0,0,0,0,0,0,0,0,0,
0,0,0,0,0,0,0,0,0,0,0,0,0,0,0,0,0,0,0,0,0,0,0,0,0,0,0,0,0,0,0,0,0,0,0,0,0,0,0,0,0,0,0,0,0,0,0,0,0,0,0,0,0,0,0,0,0,0,0,0,0,0,0,0,0,0,0,0,0,0,0,0,0,0,0,0,0,0,0,0,
0,0,0,0,0,0,0,0,0,0,0,0,0,0,0,0,0,0,0,0,0,0,0,0,0,0,0,0,0,0,0,0,0,0,0,0,0,0,0,0,0,0,0,0,0,0,0,0,0,0,0,0,0,0,0,0,0,0,0,0,0,0,0,0,0,0,0,0,0,0,0,0,0,0,0,0,0,0,0,0,
0,0,0,0,0,0,0,0,0,0,0,0,0,0,0,0,0,0,0,0,0,0,0,0,0,0,0,0,0,0,0,0,0,0,0,0,0,0,0,0,0,0,0,0,0,0,0,0,0,0,0,0,0,0,0,0,0,0,0,0,0,0,0,0,0,0,0,0,0,0,0,0,0,0,0,0,0,0,0,0,
0,0,0,0,0,0,0,0,0,0,0,0,0,0,0,0,0,0,0,0,0,0,0,0,0,0,0,0,0,0,0,0,0,0,0,0,0,0,0,0,0,0,0,0,0,0,0,0,0,0,0,338,0,0,0,338,0,338,0,0,0,0,0,0,0,0,0,0,0,0,0,0,0,0,0,0,0,0,0,0,
0,0,0,0,0,0,0,0,0,0,0,0,0,0,0,0,0,0,0,0,0,0,0,0,0,0,0,0,0,0,0,0,0,0,0,0,0,0,0,0,0,0,0,0,0,0,0,0,0,0,0,0,0,0,0,0,0,0,0,0,0,338,0,0,0,0,0,0,0,0,0,0,0,0,0,0,0,0,0,0,
0,0,0,0,0,0,0,0,0,0,0,0,0,0,0,0,0,0,0,0,0,0,0,0,0,0,0,0,0,0,0,0,0,0,0,0,0,0,0,0,0,0,0,0,0,0,0,0,0,0,0,0,0,0,0,0,0,0,0,0,0,0,0,0,338,0,0,0,0,0,0,0,0,0,0,0,0,0,0,0,
0,0,0,0,0,0,0,0,0,0,0,0,0,0,0,0,0,0,0,0,0,0,0,0,0,0,0,0,0,0,0,0,0,0,0,0,0,0,0,0,0,0,0,0,0,0,0,0,0,0,0,0,0,0,0,0,0,0,0,0,0,0,0,0,0,0,0,0,0,0,0,0,0,0,0,0,0,0,0,0,
0,0,0,0,0,0,0,0,0,0,0,0,0,0,0,0,0,0,0,0,0,0,0,0,0,0,0,0,0,0,0,0,0,0,0,0,0,0,0,0,0,0,0,0,0,0,0,0,0,0,0,0,0,0,0,0,0,0,0,0,0,0,0,0,0,0,0,0,0,0,0,0,0,0,0,0,0,0,0,0,
0,0,0,0,0,0,0,0,0,0,0,0,0,0,0,0,0,0,0,0,0,0,0,0,0,0,0,0,0,0,0,0,0,0,0,0,0,0,0,0,0,0,0,0,0,0,0,0,0,0,0,0,0,0,0,0,0,0,0,0,0,0,0,0,0,0,0,0,0,0,0,0,0,0,0,0,0,0,0,0,
0,0,0,0,0,0,0,0,0,0,0,0,0,0,0,0,0,0,0,0,0,0,0,0,0,0,0,0,0,0,0,0,0,0,0,0,0,0,0,0,0,0,0,0,0,0,0,0,0,0,0,0,0,0,0,0,0,0,0,0,0,0,0,0,0,0,0,0,0,0,0,0,0,0,0,0,0,0,0,0,
0,0,0,0,0,0,0,0,0,0,0,0,0,0,0,0,0,0,0,0,0,0,0,0,0,0,0,0,0,0,0,0,0,0,0,0,0,0,0,0,0,0,0,0,0,0,0,0,0,0,0,0,0,0,0,0,0,0,0,0,0,0,0,0,0,0,0,0,0,0,0,0,0,0,0,0,0,0,0,0,
0,0,0,0,0,0,0,0,0,0,0,0,0,0,0,0,0,0,0,0,0,0,0,0,0,0,0,0,0,0,0,0,0,0,0,0,0,0,0,0,0,0,0,0,0,0,0,0,0,0,0,0,0,0,0,0,0,0,0,0,0,0,0,0,0,0,0,0,0,0,0,0,0,0,0,0,0,0,0,0,
0,0,0,0,0,0,0,0,0,0,0,0,0,0,0,0,0,0,0,0,0,0,0,0,0,0,0,0,0,0,0,0,0,0,0,0,0,0,0,0,0,0,0,0,0,0,0,0,0,0,0,0,0,0,0,0,0,0,0,0,0,0,0,0,0,0,0,0,0,0,0,0,0,0,0,0,0,0,0,0,
0,0,0,0,0,0,0,0,0,0,0,0,0,0,0,0,0,0,0,0,0,0,0,0,0,0,0,0,0,0,0,0,0,0,0,0,0,0,0,0,0,0,0,0,0,0,0,0,0,0,0,0,0,0,0,0,0,0,0,0,0,0,0,0,0,0,0,0,0,0,0,0,0,0,0,0,0,0,0,0
</data>
 </layer>
 <layer id="5" name="Front" width="80" height="65">
  <data encoding="csv">
0,129,130,131,182,183,184,207,208,209,0,0,0,0,0,0,0,0,0,242,0,0,0,0,0,0,0,0,0,0,182,0,0,0,0,0,208,209,0,0,0,0,0,0,207,208,209,0,0,230,0,0,0,0,0,0,242,243,0,0,0,0,0,0,0,0,0,0,0,189,190,191,0,217,218,0,195,196,197,198,
0,154,155,156,207,208,209,232,233,234,0,0,0,0,0,0,0,0,0,0,0,0,0,0,0,0,0,0,0,0,207,0,0,0,0,0,233,234,0,0,0,0,0,0,232,233,234,0,0,255,0,0,0,0,0,0,0,0,0,0,0,0,0,0,0,0,0,0,0,214,215,216,0,242,243,0,220,221,222,223,
0,179,180,181,232,233,234,257,258,259,0,0,0,0,0,0,0,0,0,0,0,0,0,0,0,0,0,0,0,0,0,0,0,0,0,0,0,0,0,0,0,0,0,0,257,258,259,0,0,0,0,0,0,0,0,0,0,0,0,0,0,0,0,0,142,143,144,0,0,0,240,241,0,0,0,217,218,0,247,248,
0,204,205,206,257,258,259,0,0,0,0,0,0,0,0,0,0,0,0,0,0,0,0,0,0,0,0,0,0,0,0,0,0,0,0,0,0,0,0,0,0,0,0,0,0,0,0,0,245,0,0,0,0,0,0,0,0,0,217,218,0,0,0,0,167,168,169,0,0,264,265,266,0,0,0,242,243,0,0,0,
0,0,230,0,0,0,0,0,0,0,0,0,0,0,0,0,0,0,0,0,0,0,0,0,0,0,0,0,0,0,0,0,0,0,0,0,0,0,0,0,0,0,0,247,248,0,0,0,0,0,0,0,0,0,0,0,0,0,242,243,0,0,0,0,192,193,194,0,0,0,0,0,0,0,0,0,0,0,132,133,
0,0,255,0,0,0,0,0,0,0,0,0,0,0,0,0,0,0,0,0,0,0,0,0,0,0,0,0,0,0,0,0,0,1787,0,1789,0,0,0,0,0,0,0,0,0,0,0,0,939,0,487,488,487,488,0,490,0,0,0,0,0,0,0,0,0,0,0,0,0,0,0,0,0,0,0,0,0,0,157,158,
543,567,0,0,0,0,0,0,0,0,0,0,0,0,0,0,0,0,0,0,0,0,0,0,0,0,0,0,0,0,0,0,0,0,0,0,0,0,0,0,0,0,0,0,0,0,0,0,0,0,0,0,0,0,0,0,0,0,0,0,0,0,0,0,0,0,0,0,0,0,0,0,0,0,0,0,0,0,182,183,
0,0,0,0,0,0,0,0,0,0,0,0,0,0,0,0,0,0,0,0,0,0,0,0,0,0,0,0,0,0,0,0,0,0,0,0,0,0,0,0,0,0,0,0,0,0,0,0,0,0,0,0,0,0,0,232,0,234,0,0,0,0,0,0,0,0,0,0,0,0,0,0,0,0,0,0,0,0,207,208,
0,0,0,0,0,0,0,0,0,0,0,0,0,0,0,0,0,0,568,0,0,0,0,0,0,0,0,0,0,0,0,0,0,0,0,0,0,0,0,0,0,0,0,0,0,0,0,0,0,0,0,0,0,0,0,0,0,0,0,0,0,0,0,0,0,0,0,0,0,0,0,0,0,0,0,0,0,0,0,0,
0,0,0,0,0,0,0,0,0,0,0,0,0,0,0,0,0,0,0,0,0,0,0,0,0,0,0,0,0,0,0,0,0,0,0,0,0,0,0,0,0,0,0,0,0,0,0,0,0,0,0,0,0,0,0,0,0,0,0,0,0,0,0,0,0,0,0,0,0,0,0,0,0,0,0,0,0,0,0,0,
0,0,0,0,0,0,0,0,0,0,0,0,0,0,0,0,0,0,0,0,0,0,0,0,0,0,0,0,0,0,0,0,0,0,0,0,0,0,0,0,0,0,0,0,0,0,0,0,0,0,0,0,0,0,0,0,0,0,0,0,0,0,0,0,0,0,0,0,0,0,0,0,0,0,0,0,0,0,0,229,
0,0,0,0,0,0,0,0,0,0,0,0,0,0,0,0,0,0,0,0,0,0,0,0,0,0,0,0,0,0,0,0,0,0,0,0,0,0,0,0,0,0,0,0,0,0,0,0,0,0,0,0,0,0,0,0,0,0,0,0,0,0,0,0,0,0,0,0,0,0,0,0,0,0,0,0,0,0,0,0,
0,0,0,0,0,0,0,0,0,0,0,0,0,0,0,0,0,0,0,0,0,0,0,0,0,0,0,0,0,0,0,0,0,0,0,0,0,0,0,0,0,0,0,0,0,0,0,0,0,0,0,0,0,0,0,0,0,0,0,0,0,0,0,0,0,0,0,0,0,0,0,491,492,0,0,0,0,0,0,0,
0,0,0,0,0,0,0,0,0,0,0,0,0,0,0,0,0,0,0,0,0,0,0,0,0,0,0,0,0,0,0,0,0,0,0,0,0,0,0,0,0,0,0,0,0,0,0,0,0,0,0,0,0,0,0,0,0,0,0,0,0,0,0,0,0,0,0,0,0,0,0,0,0,0,0,0,0,0,0,0,
0,0,0,0,0,0,0,0,0,0,0,0,0,0,0,0,0,0,0,0,0,0,0,0,0,0,0,0,0,0,0,0,0,0,0,0,0,0,0,0,0,0,0,0,0,0,0,0,0,0,0,0,0,0,0,0,0,0,0,0,0,0,0,0,0,0,0,0,0,0,0,0,0,0,0,0,0,0,0,0,
0,0,0,0,0,0,0,0,0,0,0,0,0,0,0,0,0,0,0,0,0,0,0,0,0,0,0,0,0,0,0,0,0,0,0,0,0,0,0,0,0,0,0,0,0,0,0,0,0,0,0,0,0,0,0,0,0,0,0,0,0,0,0,0,0,0,0,0,0,0,0,0,0,0,0,0,0,0,0,0,
0,0,0,0,0,0,0,0,0,0,0,0,0,0,0,0,0,0,0,0,0,0,0,0,0,0,0,0,0,0,0,0,0,0,0,0,0,0,0,0,0,0,0,0,0,0,0,0,0,0,0,0,0,0,0,0,0,0,0,0,0,0,0,0,0,0,0,0,0,0,0,0,0,0,0,0,0,0,0,0,
0,0,0,0,0,0,0,0,0,0,0,0,0,0,0,0,0,0,0,0,0,0,0,0,0,0,0,0,0,0,0,0,0,0,0,0,0,0,0,0,0,0,0,0,0,0,0,0,0,0,0,0,0,0,0,0,0,0,0,0,0,0,0,0,0,0,0,0,0,0,0,0,0,0,0,0,0,0,0,0,
0,0,0,0,0,0,0,0,0,0,0,0,0,0,0,0,0,0,0,0,0,0,0,0,0,0,0,0,0,0,0,0,0,0,0,0,0,0,0,0,0,0,0,0,0,0,0,0,0,0,0,0,0,0,0,0,0,0,0,0,0,0,0,0,0,0,0,0,0,0,0,0,0,0,0,0,0,490,487,488,
0,0,0,0,0,0,0,0,0,0,0,0,0,0,0,0,0,0,0,0,0,0,0,0,0,0,0,0,0,0,0,0,0,0,0,0,0,0,0,0,0,0,0,0,0,0,0,0,0,0,0,0,0,0,0,0,0,0,0,0,0,0,0,0,0,0,0,0,0,0,0,0,0,0,0,0,0,170,171,172,
0,0,0,0,0,0,0,0,0,0,0,0,0,0,0,0,0,0,0,0,0,0,0,0,0,0,0,0,0,0,0,0,0,0,0,0,0,0,0,0,0,0,0,0,0,0,0,0,0,0,0,0,0,0,0,0,0,0,0,0,0,0,0,0,0,0,0,0,0,0,0,0,0,0,0,0,0,195,196,197,
0,0,0,0,0,0,0,0,0,0,0,0,0,0,0,0,0,0,0,0,0,0,0,0,0,0,0,0,0,0,0,0,0,0,0,0,0,0,0,0,0,0,0,0,0,0,0,0,0,0,0,0,0,0,0,0,0,0,0,0,0,0,0,0,0,0,0,0,0,0,0,0,0,0,0,0,0,220,221,222,
0,541,542,543,542,543,567,0,0,0,0,0,0,0,0,0,0,0,0,0,0,0,0,0,575,0,0,0,0,0,0,0,0,0,0,0,0,0,0,0,0,0,0,0,0,0,0,0,0,0,0,0,0,0,0,0,0,0,0,0,0,0,0,0,0,0,0,0,0,0,0,0,0,0,0,0,0,540,0,247,
247,248,383,304,304,383,523,0,0,0,0,0,0,0,0,0,0,0,0,0,0,0,0,0,0,0,0,0,0,0,0,0,0,0,0,0,0,0,0,0,0,0,0,0,0,0,0,0,0,0,0,0,0,0,0,0,0,0,0,0,0,0,0,0,0,0,0,0,0,0,0,0,0,0,0,0,0,565,0,272,
272,273,304,304,304,304,548,0,0,0,0,0,0,0,0,0,0,0,0,0,0,0,0,0,0,0,0,0,0,0,0,0,0,0,0,0,0,0,0,0,0,0,0,0,0,0,0,0,0,0,0,0,0,0,0,0,0,0,0,0,0,0,0,0,0,0,0,0,0,0,0,0,0,0,0,0,0,0,0,0,
0,0,0,0,0,304,523,0,0,0,0,0,0,0,0,0,0,0,0,0,0,0,0,0,0,0,0,0,0,0,0,0,0,0,0,0,0,0,0,0,0,0,0,0,0,0,0,0,0,0,0,0,0,0,0,0,0,0,0,0,0,0,0,0,0,0,0,0,0,0,0,0,0,0,0,0,0,132,133,134,
0,220,221,0,0,0,548,0,0,0,0,0,0,0,0,0,0,0,0,0,0,0,0,0,0,0,0,0,0,0,0,0,0,0,0,0,0,0,0,0,0,0,0,0,0,0,0,0,0,0,0,0,0,0,0,0,0,0,0,0,0,0,0,0,0,0,0,0,0,0,0,0,0,0,0,0,0,157,158,159,
0,0,0,247,248,0,523,0,0,0,0,0,0,0,0,0,0,0,0,0,0,0,0,0,0,0,0,0,0,0,0,0,0,0,0,0,0,0,0,0,0,0,0,0,0,0,0,0,0,0,0,0,0,0,0,0,0,0,0,0,0,0,0,0,0,0,0,0,0,0,0,0,0,0,0,0,0,182,183,184,
0,0,0,272,273,0,548,0,0,0,0,0,0,0,0,0,0,0,0,0,0,0,0,0,0,0,0,0,0,0,0,0,0,0,0,0,0,0,0,0,0,0,0,0,0,0,0,0,0,0,0,0,0,0,0,0,0,0,0,0,0,0,0,0,0,0,0,0,0,0,0,0,0,0,0,0,0,207,208,209,
0,0,0,0,0,0,493,0,0,0,0,0,0,0,0,0,0,0,0,0,0,0,0,0,0,0,0,0,0,0,0,0,0,0,0,0,0,0,0,0,0,0,0,0,0,0,0,0,0,0,0,0,0,0,0,0,0,0,0,0,0,0,0,0,0,0,0,0,0,0,0,0,0,0,0,0,0,232,233,234,
0,0,0,0,0,0,304,518,0,0,0,0,0,0,0,0,0,0,0,0,0,0,0,0,0,0,0,0,0,0,0,0,0,0,0,0,0,0,0,0,0,0,0,0,0,0,0,0,0,0,0,0,0,0,0,0,0,0,0,0,0,0,0,0,0,0,0,0,0,0,0,0,0,0,0,0,0,0,129,130,
538,489,0,0,0,0,304,304,518,0,0,0,0,0,0,0,0,0,0,0,0,0,0,0,0,0,0,0,0,0,0,0,0,0,0,0,0,0,0,0,0,0,0,0,0,0,0,0,0,0,0,0,0,0,0,0,0,0,0,0,0,0,0,0,0,0,0,0,0,0,0,0,0,0,0,0,0,0,154,155,
0,514,0,0,0,0,454,456,304,518,0,0,0,0,0,0,0,0,0,0,0,0,0,0,0,0,0,0,0,0,0,0,0,0,0,0,0,0,0,0,0,0,0,0,0,0,0,0,0,0,0,0,0,0,0,0,0,0,0,0,0,0,0,0,0,0,0,0,0,0,0,0,0,0,0,0,0,0,179,180,
0,567,0,0,0,490,479,0,456,304,519,543,542,543,542,543,542,543,542,543,542,543,542,543,542,543,542,543,567,0,0,0,0,0,0,0,0,0,0,0,0,0,0,0,0,0,0,0,0,0,0,0,0,0,0,0,0,0,0,0,0,0,0,0,0,0,0,0,0,0,0,0,0,0,0,0,0,545,204,205,
0,0,0,0,0,515,504,505,506,304,304,304,304,304,304,304,304,304,304,304,304,304,304,304,304,304,304,304,523,0,0,0,0,0,0,0,0,0,0,0,0,0,0,0,0,0,0,0,0,0,0,0,0,0,0,0,0,0,0,0,0,0,0,0,0,0,0,0,0,0,0,0,0,0,568,542,543,544,0,0,
0,0,0,0,0,0,487,488,488,488,488,488,487,488,488,488,488,488,488,487,488,488,488,488,488,488,488,489,0,0,0,0,0,0,0,0,0,0,0,0,0,0,0,0,0,0,0,0,0,0,0,0,0,0,0,0,568,542,542,543,542,567,0,0,0,568,543,542,543,542,543,542,543,542,544,304,304,454,0,0,
0,0,0,0,0,0,0,0,0,0,0,0,0,0,0,0,0,0,0,0,0,0,0,0,0,0,0,0,541,542,543,567,0,0,0,0,0,0,0,0,0,0,0,0,0,0,0,0,0,0,0,0,0,0,0,0,520,530,279,304,530,523,0,0,0,520,279,304,304,530,304,304,304,304,279,304,530,0,0,0,
0,0,0,0,0,0,0,0,0,0,0,0,0,0,0,0,0,0,0,0,0,0,0,0,0,0,0,0,0,0,304,523,0,0,0,0,0,0,0,0,0,0,0,0,0,0,0,0,0,0,0,0,0,0,0,0,0,487,488,488,488,489,0,0,0,487,488,488,488,488,488,488,488,488,488,488,489,490,0,0,
0,0,0,0,0,0,0,0,0,0,0,0,0,0,0,0,0,0,0,0,0,0,0,0,0,0,0,0,0,0,0,0,0,0,0,0,0,0,0,0,0,0,0,0,0,0,0,0,0,0,0,0,0,0,0,0,0,0,0,0,0,0,0,0,0,0,0,0,0,0,0,0,0,0,0,0,0,0,0,0,
0,0,0,0,0,0,0,0,0,0,0,0,0,0,0,0,0,0,0,0,0,0,0,0,0,0,0,0,0,0,0,0,0,0,0,0,0,0,0,0,0,0,0,0,0,0,0,0,0,0,0,0,0,0,0,0,0,0,0,0,0,0,0,0,0,0,0,0,0,0,0,0,0,0,0,0,0,0,0,0,
0,234,0,0,0,0,0,0,0,0,0,0,0,0,0,0,0,0,0,0,0,0,0,0,0,0,0,0,0,0,0,0,0,0,0,0,0,0,0,0,0,0,0,0,0,0,0,0,0,0,0,0,0,0,0,0,0,0,0,0,0,0,0,0,0,0,0,0,0,0,0,0,0,0,0,0,0,0,0,0,
0,259,0,0,0,0,0,0,0,0,0,0,0,0,0,0,0,0,0,0,0,0,0,0,0,0,0,0,0,0,0,0,0,0,0,0,0,0,0,0,0,0,0,0,0,0,0,0,0,0,0,0,0,0,0,0,0,0,0,0,0,0,0,0,0,0,0,0,0,0,0,0,0,0,0,0,0,0,0,0,
0,0,0,0,0,0,0,0,0,0,0,0,0,0,0,0,0,0,0,0,0,0,0,0,0,0,0,0,0,0,0,0,0,0,0,0,0,0,0,0,0,0,0,0,0,0,0,0,0,0,0,0,0,0,0,0,0,0,0,0,0,0,0,0,0,0,0,0,0,0,0,0,0,0,0,0,0,0,0,0,
0,0,0,0,0,0,0,0,0,0,0,0,0,0,0,0,0,0,0,0,0,0,0,0,0,0,0,0,0,0,0,0,0,0,0,0,0,0,0,0,0,0,0,0,0,0,0,0,0,0,0,0,0,0,0,0,0,0,0,0,0,0,0,0,0,0,0,0,0,0,0,0,0,0,0,0,0,0,0,0,
0,0,0,0,0,0,0,0,0,0,0,0,0,0,0,0,0,0,0,0,0,0,0,0,0,0,0,0,0,0,0,0,0,0,0,0,0,0,0,0,0,0,0,0,0,0,0,0,0,0,0,0,0,0,0,0,0,0,0,0,0,0,0,0,0,0,0,0,0,0,0,0,0,0,0,0,0,0,142,0,
0,0,0,0,0,0,0,0,0,0,0,0,0,0,0,0,0,0,0,0,0,0,0,0,0,0,0,0,0,0,0,0,0,0,0,0,0,0,0,0,0,0,0,0,0,0,0,0,0,0,0,0,0,0,0,0,0,0,0,0,0,0,0,0,0,0,0,0,0,0,0,0,0,0,0,0,0,0,0,0,
0,0,0,0,0,0,0,0,0,0,0,0,0,0,0,0,0,0,0,0,0,0,0,0,0,0,0,0,0,0,0,0,0,0,0,0,0,0,0,0,0,0,0,0,0,0,0,0,0,0,0,0,0,0,0,0,0,0,0,0,0,0,0,0,0,0,0,0,0,0,0,0,0,0,0,0,0,0,0,0,
0,0,0,0,0,0,0,0,0,0,0,0,0,0,0,0,0,0,0,0,0,0,0,0,0,0,0,0,0,0,0,0,0,0,0,0,0,0,0,0,0,0,0,0,0,0,0,0,0,0,0,0,0,0,0,0,0,0,0,0,0,0,0,0,0,0,0,0,0,0,0,0,0,0,0,0,0,157,158,159,
0,149,150,0,0,0,0,0,0,0,0,0,0,0,0,0,0,0,0,0,0,0,0,0,0,0,0,0,0,0,0,0,0,0,0,0,0,0,0,0,0,0,0,0,0,0,0,0,0,0,0,0,0,0,0,0,0,0,0,0,0,0,0,0,0,0,0,0,0,0,0,0,0,0,0,0,0,182,183,184,
0,174,175,0,0,0,0,0,0,0,0,0,0,0,0,0,0,0,0,0,0,0,0,0,0,0,0,0,0,0,0,0,0,0,0,0,0,0,0,0,0,0,0,0,0,0,0,0,0,0,0,0,0,0,0,0,0,0,0,0,0,0,0,0,0,0,0,0,0,0,0,0,0,0,0,0,0,207,208,209,
0,199,200,0,0,0,0,0,0,0,0,0,0,0,0,0,0,0,0,0,0,0,0,0,0,0,0,0,0,0,0,0,0,0,0,0,0,0,0,0,0,0,0,0,0,0,0,0,0,0,0,0,0,0,0,0,0,0,0,0,0,0,0,0,0,0,0,0,0,0,0,0,0,0,0,0,0,232,233,234,
0,224,225,0,0,0,0,0,0,0,0,0,0,0,0,0,0,0,0,0,0,0,0,0,0,0,0,0,0,0,0,0,0,0,0,0,0,0,0,0,0,0,0,0,0,0,0,0,0,0,0,0,0,0,0,0,0,0,0,0,0,0,0,0,0,0,0,0,0,0,0,0,0,0,0,0,0,257,258,259,
248,0,0,0,0,0,0,0,0,0,0,0,0,0,0,0,0,0,0,0,0,0,0,0,0,0,0,0,0,0,0,0,0,0,0,0,0,0,0,0,0,0,0,0,0,0,0,0,0,0,0,0,0,0,0,0,0,0,0,0,0,0,0,0,0,0,0,0,0,0,0,0,0,0,0,0,0,0,0,0,
273,0,0,0,0,0,0,0,0,0,0,0,0,0,0,0,0,0,0,0,0,0,0,0,0,0,0,0,0,0,0,0,0,0,0,0,0,0,0,0,0,0,0,0,0,0,0,0,0,0,0,0,0,0,0,0,0,0,0,0,0,0,0,0,0,0,0,0,0,0,0,0,0,0,0,0,0,0,0,0,
298,0,0,0,0,0,0,0,0,0,0,0,0,0,0,0,0,0,0,0,0,0,0,0,0,0,0,0,0,0,0,0,0,0,0,0,0,0,0,0,0,0,0,0,0,0,0,0,0,0,0,0,0,0,0,0,0,0,0,0,0,0,0,0,0,0,0,0,0,0,0,0,0,0,0,0,0,0,0,0,
0,0,0,0,0,0,0,0,0,0,0,0,0,0,0,0,0,0,0,0,0,0,0,0,0,0,0,0,0,0,0,0,0,0,0,0,0,0,0,0,0,0,0,0,0,0,0,0,0,0,0,0,0,0,0,0,0,0,0,0,0,0,0,0,0,0,0,0,0,0,0,0,0,568,542,543,543,544,479,0,
0,0,0,0,0,0,0,0,0,0,0,0,0,0,0,0,0,0,0,0,0,0,0,0,0,0,0,0,0,0,0,0,0,0,0,0,0,0,0,0,0,0,0,0,0,0,0,0,0,0,0,0,0,0,0,0,0,0,0,0,0,0,0,0,0,0,0,0,0,0,0,0,0,520,479,455,455,455,0,0,
0,0,0,0,0,0,0,0,0,0,0,0,0,0,0,0,0,0,0,0,0,0,0,0,0,0,0,0,0,0,0,0,0,0,0,0,0,0,0,0,0,0,0,0,0,0,0,0,0,0,0,0,0,0,0,0,0,0,0,0,0,0,0,0,0,0,0,0,0,0,0,0,0,0,0,0,0,0,0,0,
0,0,0,0,0,0,0,0,0,0,0,0,0,0,0,0,0,0,0,0,0,0,0,0,0,0,0,0,0,0,0,0,0,0,0,0,0,0,0,0,0,0,0,0,0,0,0,0,0,0,0,0,0,0,0,0,0,0,0,0,0,0,0,0,0,0,0,0,0,0,568,542,543,544,0,0,0,0,0,0,
0,0,0,0,0,0,0,0,0,0,0,0,0,0,0,0,0,0,0,0,0,0,0,0,0,0,0,0,0,0,0,0,0,0,0,0,0,0,0,0,0,0,0,0,0,0,0,0,0,0,0,0,0,0,0,0,0,0,0,0,0,0,0,0,0,0,0,0,0,0,520,454,455,455,0,0,0,0,0,0,
0,0,0,0,0,0,0,0,0,0,0,0,0,0,0,0,0,0,0,0,0,0,0,0,0,0,0,0,0,0,0,0,0,0,0,0,0,0,0,0,0,0,0,0,0,0,0,0,0,0,0,0,0,0,0,0,0,0,0,0,0,0,0,0,0,0,0,0,0,0,545,479,0,0,0,0,0,0,0,0,
0,0,541,542,543,542,543,542,543,542,543,542,543,542,543,542,543,542,543,542,543,542,543,542,543,542,543,542,543,542,543,542,543,542,543,542,543,542,543,567,0,0,568,542,543,542,543,542,543,542,543,542,543,542,543,542,543,542,543,542,543,542,543,542,543,567,0,0,0,0,0,390,480,480,0,0,0,0,0,0,
0,0,455,455,455,455,455,455,455,455,455,455,455,455,455,455,455,455,455,455,455,455,455,455,455,455,455,455,455,455,455,455,455,455,455,455,455,455,456,523,0,0,520,454,455,455,455,455,455,455,455,455,455,455,455,455,455,455,455,455,455,455,0,455,455,523,0,0,0,0,0,415,480,480,0,0,0,0,0,0,
0,0,0,0,0,0,0,0,0,0,0,0,0,0,0,0,0,0,0,0,0,0,0,0,0,0,0,0,0,0,0,0,0,0,0,0,0,485,481,548,0,0,545,0,0,0,0,0,0,0,0,0,0,0,0,0,0,0,0,0,0,0,0,0,0,548,0,0,0,0,0,440,480,480,0,0,0,0,0,0,
0,0,0,433,434,0,0,0,0,0,0,0,0,0,0,0,0,0,0,0,0,0,0,0,0,0,0,0,0,0,0,0,0,0,0,0,0,510,481,0,0,0,520,0,0,0,0,0,0,0,0,0,0,0,0,0,0,0,0,0,0,0,0,0,0,0,0,0,0,0,0,479,480,480,0,0,0,0,0,0
</data>
 </layer>
 <layer id="6" name="AlwaysFront" width="80" height="65">
  <data encoding="csv">
0,0,0,0,0,0,0,0,0,0,0,0,0,0,0,0,0,0,0,0,0,0,0,0,0,0,0,0,0,0,0,0,184,258,255,207,0,0,0,0,0,145,146,147,148,149,150,0,0,0,0,0,0,0,0,0,0,0,0,0,0,0,0,0,0,0,214,215,216,0,0,0,0,0,0,0,0,0,0,0,
0,0,0,0,0,0,0,0,0,0,0,0,0,0,0,0,0,0,0,0,0,0,0,0,0,0,0,0,0,0,0,0,0,0,0,0,0,0,0,0,0,170,171,172,173,174,175,0,0,0,0,0,0,0,0,0,0,0,0,0,0,0,0,0,0,0,145,240,145,0,0,0,0,0,0,0,0,0,0,0,
0,0,0,0,0,0,0,0,0,0,0,0,0,0,0,0,0,0,0,0,0,0,0,0,0,0,0,0,0,0,0,0,0,0,0,0,0,0,0,0,0,195,196,197,198,199,200,0,0,0,0,0,0,0,0,0,0,0,0,0,0,0,0,0,0,0,0,0,0,0,0,0,0,0,0,0,0,0,0,0,
0,0,0,0,0,0,0,0,0,0,0,0,0,0,0,0,0,0,0,0,0,0,0,0,0,0,0,0,0,0,0,0,0,280,304,279,0,0,0,0,0,220,221,222,223,224,225,0,0,0,0,0,0,0,0,0,0,0,0,0,0,0,0,0,0,0,0,0,0,0,0,0,0,0,0,0,0,0,0,0,
0,0,0,0,0,0,0,0,0,0,0,0,0,0,0,0,0,0,0,0,0,0,0,0,0,0,0,0,0,0,0,0,0,1762,1763,1764,0,0,0,0,0,0,0,0,0,0,0,0,0,0,0,0,0,0,0,0,0,0,0,0,0,0,0,0,0,0,0,0,0,0,0,0,0,0,0,0,0,0,0,0,
0,0,0,0,0,0,0,0,0,0,0,0,0,0,0,0,0,0,0,0,0,0,0,0,0,0,0,0,0,0,0,0,0,0,1788,0,0,0,0,0,0,0,0,0,0,0,0,0,0,0,0,0,0,0,0,0,0,0,0,0,0,0,0,0,0,0,0,0,0,0,0,0,0,0,0,0,0,0,0,0,
148,149,150,0,0,0,0,0,0,0,0,0,0,0,0,0,0,0,0,0,0,0,0,0,0,0,0,0,0,0,0,0,0,0,0,0,0,0,0,0,0,0,0,0,0,0,0,0,0,0,0,0,0,0,0,0,0,0,0,0,0,0,0,0,0,0,0,0,0,0,0,0,0,0,0,0,0,0,0,0,
173,174,175,0,0,0,0,0,0,0,0,0,0,0,0,0,0,0,0,0,0,0,0,0,0,0,0,0,0,0,0,0,0,0,0,0,0,0,0,0,0,0,0,0,0,0,0,0,0,0,0,0,0,0,0,0,0,0,0,0,0,0,0,0,0,0,0,0,0,0,0,0,0,0,0,0,0,0,0,0,
198,199,200,0,0,0,0,0,0,0,0,0,0,0,0,0,0,0,0,0,0,0,0,0,0,0,0,0,0,0,0,0,0,0,0,0,0,0,0,0,0,0,0,0,0,0,0,0,0,0,0,0,0,0,0,0,0,0,0,0,0,0,0,0,0,0,0,0,0,0,0,0,0,0,0,0,0,0,0,0,
223,224,225,0,0,0,0,0,0,0,0,0,0,0,0,0,0,0,0,0,0,0,0,0,0,0,0,0,0,0,0,0,0,0,0,0,0,0,0,0,0,0,0,0,0,0,0,0,0,0,0,0,0,0,0,0,0,0,0,0,0,0,0,0,0,0,0,0,0,0,0,0,0,0,0,0,0,0,0,0,
248,0,0,0,0,0,0,0,0,0,0,0,0,0,0,0,0,0,0,0,0,0,0,0,0,0,0,0,0,0,0,0,0,0,0,0,0,0,0,0,0,0,0,0,0,0,0,0,0,0,0,0,0,0,0,0,0,0,0,0,0,0,0,0,0,0,0,0,0,0,0,0,0,0,0,0,0,0,0,0,
273,0,0,0,0,0,0,0,0,0,0,0,0,0,0,0,0,0,0,0,0,0,0,0,0,0,0,0,0,0,0,0,0,0,0,0,0,0,0,0,0,0,0,0,0,0,0,0,0,0,0,0,0,0,0,0,0,0,0,0,0,0,0,0,0,0,0,0,0,0,0,0,0,0,0,0,0,0,0,0,
298,0,0,0,0,0,0,0,0,0,0,0,0,0,0,0,0,0,0,0,0,0,0,0,0,0,0,0,0,0,0,0,0,0,0,0,0,0,0,0,0,0,0,0,0,0,0,0,0,0,0,0,0,0,0,0,0,0,0,0,0,0,0,0,0,0,0,0,0,0,0,0,0,0,0,0,0,0,0,0,
0,0,0,0,0,0,0,0,0,0,0,0,0,0,0,0,0,0,0,0,0,0,0,0,0,0,0,0,0,0,0,0,0,0,0,0,0,0,0,0,0,0,0,0,0,0,0,0,0,0,0,0,0,0,0,0,0,0,0,0,0,0,0,0,0,0,0,0,0,0,0,0,0,0,0,0,0,0,0,0,
0,0,0,0,0,0,0,0,0,0,0,0,0,0,0,0,0,0,0,0,0,0,0,0,0,0,0,0,0,0,0,0,0,0,0,0,0,0,0,0,0,0,0,0,0,0,0,0,0,0,0,0,0,0,0,0,0,0,0,0,0,0,0,0,0,0,0,0,0,0,0,0,0,0,0,0,0,0,0,0,
0,0,0,0,0,0,0,0,0,0,0,0,0,0,0,0,0,0,0,0,0,0,0,0,0,0,0,0,0,0,0,0,0,0,0,0,0,0,0,0,0,0,0,0,0,0,0,0,0,0,0,0,0,0,0,0,0,0,0,0,0,0,0,0,0,0,0,0,0,0,0,0,0,0,0,0,0,0,0,0,
0,0,0,0,0,0,0,0,0,0,0,0,0,0,0,0,0,0,0,0,0,0,0,0,0,0,0,0,0,0,0,0,0,0,0,0,0,0,0,0,0,0,0,0,0,0,0,0,0,0,0,0,0,0,0,0,0,0,0,0,0,0,0,0,0,0,0,0,0,0,0,0,0,0,0,0,0,0,0,0,
0,0,0,0,0,0,0,0,0,0,0,0,0,0,0,0,0,0,0,0,0,0,0,0,0,0,0,0,0,0,0,0,0,0,0,0,0,0,0,0,0,0,0,0,0,0,0,0,0,0,0,0,0,0,0,0,0,0,0,0,0,0,0,0,0,0,0,0,0,0,0,0,0,0,0,0,0,0,0,0,
0,0,0,0,0,0,0,0,0,0,0,0,0,0,0,0,0,0,0,0,0,0,0,0,0,0,0,0,0,0,0,0,0,0,0,0,0,0,0,0,0,0,0,0,0,0,0,0,0,0,0,0,0,0,0,0,0,0,0,0,0,0,0,0,0,0,0,0,0,0,0,0,0,0,0,0,0,0,146,147,
147,148,149,150,0,0,0,0,0,0,0,0,0,0,0,0,0,0,0,0,0,0,0,0,0,0,0,0,0,0,0,0,0,0,0,0,0,0,0,0,0,0,0,0,0,0,0,0,0,0,0,0,0,0,0,0,0,0,0,0,0,0,0,0,0,0,0,0,0,0,0,0,0,0,0,0,0,0,0,0,
172,173,174,175,0,0,0,0,0,0,0,0,0,0,0,0,0,0,0,0,0,0,0,0,0,0,0,0,0,0,0,0,0,0,0,0,0,0,0,0,0,0,0,0,0,0,0,0,0,0,0,0,0,0,0,0,0,0,0,0,0,0,0,0,0,0,0,0,0,0,0,0,0,0,0,0,0,0,0,0,
197,198,199,200,0,0,0,0,0,0,0,0,0,0,0,0,0,0,0,0,0,0,0,0,0,0,0,0,0,0,0,0,0,0,0,0,0,0,0,0,0,0,0,0,0,0,0,0,0,0,0,0,0,0,0,0,0,0,0,0,0,0,0,0,0,0,0,0,0,0,0,0,0,0,0,0,0,0,0,0,
222,223,224,225,0,0,0,0,0,0,0,0,0,0,0,0,0,0,0,0,0,0,0,0,0,0,0,0,0,0,0,0,0,0,0,0,0,0,0,0,0,0,0,0,0,0,0,0,0,0,0,0,0,0,0,0,0,0,0,0,0,0,0,0,0,0,0,0,0,0,0,0,0,0,0,0,0,0,0,0,
0,145,146,147,148,149,150,0,0,0,0,0,0,0,0,0,0,0,0,0,0,0,0,0,0,0,0,0,0,0,0,0,0,0,0,0,0,0,0,0,0,0,0,0,0,0,0,0,0,0,0,0,0,0,0,0,0,0,0,0,0,0,0,0,0,0,0,0,0,0,0,0,0,0,0,0,0,0,0,0,
0,170,171,172,173,174,175,0,0,0,0,0,0,0,0,0,0,0,0,0,0,0,0,0,0,0,0,0,0,0,0,0,0,0,0,0,0,0,0,0,0,0,0,0,0,0,0,0,0,0,0,0,0,0,0,0,0,0,0,0,0,0,0,0,0,0,0,0,0,0,0,0,0,0,0,0,0,0,0,0,
0,195,196,197,198,199,200,0,0,0,0,0,0,0,0,0,0,0,0,0,0,0,0,0,0,0,0,0,0,0,0,0,0,0,0,0,0,0,0,0,0,0,0,0,0,0,0,0,0,0,0,0,0,0,0,0,0,0,0,0,0,0,0,0,0,0,0,0,0,0,0,0,0,0,0,0,0,0,0,0,
132,133,134,222,223,224,225,0,0,0,0,0,0,0,0,0,0,0,0,0,0,0,0,0,0,0,0,0,0,0,0,0,0,0,0,0,0,0,0,0,0,0,0,0,0,0,0,0,0,0,0,0,0,0,0,0,0,0,0,0,0,0,0,0,0,0,0,0,0,0,0,0,0,0,0,0,0,0,0,0,
157,158,159,0,0,0,0,0,0,0,0,0,0,0,0,0,0,0,0,0,0,0,0,0,0,0,0,0,0,0,0,0,0,0,0,0,0,0,0,0,0,0,0,0,0,0,0,0,0,0,0,0,0,0,0,0,0,0,0,0,0,0,0,0,0,0,0,0,0,0,0,0,0,0,0,0,0,0,0,0,
182,183,184,0,0,0,0,0,0,0,0,0,0,0,0,0,0,0,0,0,0,0,0,0,0,0,0,0,0,0,0,0,0,0,0,0,0,0,0,0,0,0,0,0,0,0,0,0,0,0,0,0,0,0,0,0,0,0,0,0,0,0,0,0,0,0,0,0,0,0,0,0,0,0,0,0,0,0,0,0,
207,208,209,0,0,0,0,0,0,0,0,0,0,0,0,0,0,0,0,0,0,0,0,0,0,0,0,0,0,0,0,0,0,0,0,0,0,0,0,0,0,0,0,0,0,0,0,0,0,0,0,0,0,0,0,0,0,0,0,0,0,0,0,0,0,0,0,0,0,0,0,0,0,0,0,0,0,0,0,0,
232,233,234,0,0,0,446,0,0,0,0,0,0,0,0,0,0,0,0,0,0,0,0,0,0,0,0,0,0,0,0,0,0,0,0,0,0,0,0,0,0,0,0,0,0,0,0,0,0,0,0,0,0,0,0,0,0,0,0,0,0,0,0,0,0,0,0,0,0,0,0,0,0,0,0,0,0,0,0,0,
0,0,0,0,0,0,0,446,0,0,0,0,0,0,0,0,0,0,0,0,0,0,0,0,0,0,0,0,0,0,0,0,0,0,0,0,0,0,0,0,0,0,0,0,0,0,0,0,0,0,0,0,0,0,0,0,0,0,0,0,0,0,0,0,0,0,0,0,0,0,0,0,0,0,0,0,0,0,0,0,
0,0,0,0,0,0,0,0,446,0,0,0,0,0,0,0,0,0,0,0,0,0,0,0,0,0,0,0,0,0,0,0,0,0,0,0,0,0,0,0,0,0,0,0,0,0,0,0,0,0,0,0,0,0,0,0,0,0,0,0,0,0,0,0,0,0,0,0,0,0,0,0,0,0,0,0,0,0,0,0,
145,0,0,0,0,0,0,0,0,0,0,0,0,0,0,0,0,0,0,0,0,0,0,0,0,0,0,0,0,0,0,0,0,0,0,0,0,0,0,0,0,0,0,0,0,0,0,0,0,0,0,0,0,0,0,0,0,0,0,0,0,0,0,0,0,0,0,0,0,0,0,0,0,0,0,0,0,0,0,0,
386,0,0,0,0,0,0,0,0,0,0,0,0,0,0,0,0,0,0,0,0,0,0,0,0,0,0,0,0,0,0,0,0,0,0,0,0,0,0,0,0,0,0,0,0,0,0,0,0,0,0,0,0,0,0,0,0,0,0,0,0,0,0,0,0,0,0,0,0,0,0,0,0,0,0,0,0,0,0,0,
597,0,0,0,0,0,0,0,0,0,0,0,0,0,0,0,0,0,0,0,0,0,0,0,0,0,0,0,0,0,0,0,0,0,0,0,0,0,0,0,0,0,0,0,0,0,0,0,0,0,0,0,0,0,0,0,0,0,0,0,0,0,0,0,0,0,0,0,0,0,0,0,0,0,0,0,0,0,0,0,
622,0,0,0,0,0,0,0,0,0,0,0,0,0,0,0,0,0,0,0,0,0,0,0,0,0,0,0,0,0,0,0,0,0,0,0,0,0,0,0,0,0,0,0,0,0,0,0,0,0,0,0,0,0,0,0,0,0,0,0,0,0,0,0,0,0,0,0,0,0,0,0,0,0,0,0,0,0,0,0,
647,0,0,0,0,0,0,0,0,0,0,0,0,0,0,0,0,0,0,0,0,0,0,0,0,0,0,0,0,0,0,0,0,0,0,0,0,0,0,0,0,0,0,0,0,0,0,0,0,0,0,0,0,0,0,0,0,0,0,0,0,0,0,0,0,0,0,0,0,0,0,0,0,0,0,0,0,145,146,147,
0,0,0,0,0,0,0,0,0,0,0,0,0,0,0,0,0,0,0,0,0,0,0,0,0,0,0,0,0,0,0,0,0,0,0,0,0,0,0,0,0,0,0,0,0,0,0,0,0,0,0,0,0,0,0,0,0,0,0,0,0,0,0,0,0,0,0,0,0,0,0,0,0,0,0,0,0,170,171,172,
0,0,0,0,0,0,0,0,0,0,0,0,0,0,0,0,0,0,0,0,0,0,0,0,0,0,0,0,0,0,0,0,0,0,0,0,0,0,0,0,0,0,0,0,0,0,0,0,0,0,0,0,0,0,0,0,0,0,0,0,0,0,0,0,0,0,0,0,0,0,0,0,0,0,0,0,0,195,196,197,
0,241,0,0,0,0,0,0,0,0,0,0,0,0,0,0,0,0,0,0,0,0,0,0,0,0,0,0,0,0,0,0,0,0,0,0,0,0,0,0,0,0,0,0,0,0,0,0,0,0,0,0,0,0,0,0,0,0,0,0,0,0,0,0,0,0,0,0,0,0,0,0,0,0,0,0,0,220,221,222,
0,266,0,0,0,0,0,0,0,0,0,0,0,0,0,0,0,0,0,0,0,0,0,0,0,0,0,0,0,0,0,0,0,0,0,0,0,0,0,0,0,0,0,0,0,0,0,0,0,0,0,0,0,0,0,0,0,0,0,0,0,0,0,0,0,0,0,0,0,0,0,0,0,0,0,0,0,245,0,247,
0,0,0,0,0,0,0,0,0,0,0,0,0,0,0,0,0,0,0,0,0,0,0,0,0,0,0,0,0,0,0,0,0,0,0,0,0,0,0,0,0,0,0,0,0,0,0,0,0,0,0,0,0,0,0,0,0,0,0,0,0,0,0,0,0,0,0,0,0,0,0,0,0,0,0,0,0,0,0,272,
0,0,0,0,0,0,0,0,0,0,0,0,0,0,0,0,0,0,0,0,0,0,0,0,0,0,0,0,0,0,0,0,0,0,0,0,0,0,0,0,0,0,0,0,0,0,0,0,0,0,0,0,0,0,0,0,0,0,0,0,0,0,0,0,0,0,0,0,0,0,0,0,0,0,0,0,0,0,0,297,
0,0,0,0,0,0,0,0,0,0,0,0,0,0,0,0,0,0,0,0,0,0,0,0,0,0,0,0,0,0,0,0,0,0,0,0,0,0,0,0,0,0,0,0,0,0,0,0,0,0,0,0,0,0,0,0,0,0,0,0,0,0,0,0,0,0,0,0,0,0,0,0,0,0,0,0,0,0,0,0,
0,0,0,0,0,0,0,0,0,0,0,0,0,0,0,0,0,0,0,0,0,0,0,0,0,0,0,0,0,0,0,0,0,0,0,0,0,0,0,0,0,0,0,0,0,0,0,0,0,0,0,0,0,0,0,0,0,0,0,0,0,0,0,0,0,0,0,0,0,0,0,0,0,0,0,0,0,0,0,0,
144,0,0,0,0,0,0,0,0,0,0,0,0,0,0,0,0,0,0,0,0,0,0,0,0,0,0,0,0,0,0,0,0,0,0,0,0,0,0,0,0,0,0,0,0,0,0,0,0,0,0,0,0,0,0,0,0,0,0,0,0,0,0,0,0,0,0,0,0,0,0,0,0,0,0,0,0,132,133,134,
0,0,0,0,0,0,0,0,0,0,0,0,0,0,0,0,0,0,0,0,0,0,0,0,0,0,0,0,0,0,0,0,0,0,0,0,0,0,0,0,0,0,0,0,0,0,0,0,0,0,0,0,0,0,0,0,0,0,0,0,0,0,0,0,0,0,0,0,0,0,0,0,0,0,0,0,0,0,0,0,
148,0,0,0,0,0,0,0,0,0,0,0,0,0,0,0,0,0,0,0,0,0,0,0,0,0,0,0,0,0,0,0,0,0,0,0,0,0,0,0,0,0,0,0,0,0,0,0,0,0,0,0,0,0,0,0,0,0,0,0,0,0,0,0,0,0,0,0,0,0,0,0,0,0,0,0,0,0,0,0,
173,0,0,0,0,0,0,0,0,0,0,0,0,0,0,0,0,0,0,0,0,0,0,0,0,0,0,0,0,0,0,0,0,0,0,0,0,0,0,0,0,0,0,0,0,0,0,0,0,0,0,0,0,0,0,0,0,0,0,0,0,0,0,0,0,0,0,0,0,0,0,0,0,0,0,0,0,0,0,0,
198,0,0,0,0,0,0,0,0,0,0,0,0,0,0,0,0,0,0,0,0,0,0,0,0,0,0,0,0,0,0,0,0,0,0,0,0,0,0,0,0,0,0,0,0,0,0,0,0,0,0,0,0,0,0,0,0,0,0,0,0,0,0,0,0,0,0,0,0,0,0,0,0,0,0,0,0,0,0,0,
223,0,0,0,0,0,0,0,0,0,0,0,0,0,0,0,0,0,0,0,0,0,0,0,0,0,0,0,0,0,0,0,0,0,0,0,0,0,0,0,0,0,0,0,0,0,0,0,0,0,0,0,0,0,0,0,0,0,0,0,0,0,0,0,0,0,0,0,0,0,0,0,0,0,0,0,0,0,140,141,
0,0,0,0,0,0,0,0,0,0,0,0,0,0,0,0,0,0,0,0,0,0,0,0,0,0,0,0,0,0,0,0,0,0,0,0,0,0,0,0,0,0,0,0,0,0,0,0,0,0,0,0,0,0,0,0,0,0,0,0,0,0,0,0,0,0,0,0,0,0,0,0,0,0,0,0,0,164,165,166,
0,0,0,0,0,0,0,0,0,0,0,0,0,0,0,0,0,0,0,0,0,0,0,0,0,0,0,0,0,0,0,0,0,0,0,0,0,0,0,0,0,0,0,0,0,0,0,0,0,0,0,0,0,0,0,0,0,0,0,0,0,0,0,0,0,0,0,0,0,0,0,0,0,0,139,140,141,189,190,191,
0,0,0,0,0,0,0,0,0,0,0,0,0,0,0,0,0,0,0,0,0,0,0,0,0,0,0,0,0,0,0,0,0,0,0,0,0,0,0,0,0,0,0,0,0,0,0,0,0,0,0,0,0,0,0,0,0,0,0,0,0,0,0,0,0,0,0,0,0,0,0,0,0,0,164,165,166,214,215,216,
0,0,0,0,0,0,0,0,0,0,0,0,0,0,0,0,0,0,0,0,0,0,0,0,0,0,0,0,0,0,0,0,0,0,0,0,0,0,0,0,0,0,0,0,0,0,0,0,0,0,0,0,0,0,0,0,0,0,0,0,0,0,0,0,0,0,0,0,0,0,0,139,140,141,189,190,191,0,240,241,
0,0,0,0,0,0,0,0,0,0,0,0,0,0,0,0,0,0,0,0,0,0,0,0,0,0,0,0,0,0,0,0,0,0,0,0,0,0,0,0,0,0,0,0,0,0,0,0,0,0,0,0,0,0,0,0,0,0,0,0,0,0,0,0,0,0,0,0,0,0,0,164,165,166,214,215,216,264,265,266,
143,144,0,0,0,0,0,0,0,0,0,0,0,0,0,0,0,0,0,0,0,0,0,0,0,0,0,0,0,0,0,0,0,0,0,0,0,0,0,0,0,0,0,0,0,0,0,0,0,0,0,0,0,0,0,0,0,0,0,0,0,0,0,0,0,0,0,0,0,0,0,189,190,191,0,240,241,0,0,0,
168,148,149,150,0,0,0,0,0,0,0,0,0,0,0,0,0,0,0,0,0,0,0,0,0,0,0,0,0,0,0,0,0,0,0,0,0,0,0,0,0,0,0,0,0,0,0,0,0,0,0,0,0,0,0,0,0,0,0,0,0,0,0,0,0,0,0,0,0,0,0,214,215,216,264,265,266,0,0,140,
193,173,174,175,0,0,0,0,0,0,0,0,0,0,0,0,0,0,0,0,0,0,0,0,0,0,0,0,0,0,0,0,0,0,0,0,0,0,0,0,0,0,0,0,0,0,0,0,0,0,0,0,0,0,0,0,0,0,0,0,0,0,0,0,0,0,0,0,0,0,0,0,240,241,0,0,0,0,164,165,
304,198,199,200,0,0,0,0,0,0,0,0,0,0,0,0,0,0,0,0,0,0,0,0,0,0,0,0,0,0,0,0,0,0,0,0,0,0,0,0,0,0,0,0,0,0,0,0,0,0,0,0,0,0,0,0,0,0,0,0,145,146,147,148,149,150,0,0,0,0,0,264,265,266,0,0,0,0,189,190,
509,223,224,225,0,145,146,147,148,149,150,0,0,0,0,0,0,0,0,140,141,0,0,0,0,0,0,0,0,0,0,140,141,0,139,140,141,139,140,141,0,0,139,140,141,139,140,141,142,143,144,0,0,139,140,141,139,140,141,0,170,171,172,173,174,175,0,0,0,0,0,0,129,130,131,0,140,141,214,215,
509,248,490,487,488,488,171,172,173,174,489,490,0,0,0,0,386,0,164,165,166,129,130,131,436,386,0,0,0,0,164,165,166,0,164,165,166,164,165,166,0,0,164,165,166,164,165,166,167,168,169,0,0,164,165,166,164,165,166,0,195,196,197,198,199,200,0,0,0,0,0,0,154,155,156,164,165,166,0,240,
272,273,0,0,0,195,196,197,198,199,200,145,146,147,148,149,0,0,189,190,191,154,155,156,386,0,0,129,130,131,189,190,191,0,189,190,191,189,190,191,0,0,189,190,191,189,190,191,192,193,194,0,0,189,190,191,189,190,191,0,220,221,222,223,224,225,0,0,0,0,0,0,179,180,181,189,190,191,264,265,
297,298,0,0,0,220,221,222,223,224,225,170,171,172,173,174,175,0,214,215,216,179,180,181,0,0,0,154,155,156,214,215,216,0,214,215,216,214,215,216,0,0,214,215,216,214,215,216,0,0,0,0,0,214,215,216,214,215,216,0,0,0,247,248,0,0,0,0,0,0,0,0,204,205,206,214,215,216,0,0
</data>
 </layer>
 <layer id="7" name="AlwaysFront2" width="80" height="65">
  <properties>
   <property name="Draw" value="AlwaysFront"/>
  </properties>
  <data encoding="csv">
0,0,0,0,0,0,0,0,0,0,0,0,0,0,0,0,0,0,0,0,0,0,0,0,0,0,0,0,0,0,0,0,0,142,143,144,0,0,0,0,0,0,0,0,0,0,0,0,0,0,0,0,0,0,0,0,0,0,0,0,0,0,0,0,0,0,0,0,0,0,0,0,0,0,0,0,0,0,0,0,
0,0,0,0,0,0,0,0,0,0,0,0,0,0,0,0,0,0,0,0,0,0,0,0,0,0,0,0,0,0,0,0,0,167,168,169,0,0,0,0,0,0,0,0,0,0,0,0,0,0,0,0,0,0,0,0,0,0,0,0,0,0,0,0,0,0,0,0,0,0,0,0,0,0,0,0,0,0,0,0,
0,0,0,0,0,0,0,0,0,0,0,0,0,0,0,0,0,0,0,0,0,0,0,0,0,0,0,0,0,0,0,0,0,192,193,194,0,0,0,0,0,0,0,0,0,0,0,0,0,0,0,0,0,0,0,0,0,0,0,0,0,0,0,0,0,0,0,0,0,0,0,0,0,0,0,0,0,0,0,0,
0,0,0,0,0,0,0,0,0,0,0,0,0,0,0,0,0,0,0,0,0,0,0,0,0,0,0,0,0,0,0,0,0,0,0,0,0,0,0,0,0,0,0,0,0,0,0,0,0,0,0,0,0,0,0,0,0,0,0,0,0,0,0,0,0,0,0,0,0,0,0,0,0,0,0,0,0,0,0,0,
0,0,0,0,0,0,0,0,0,0,0,0,0,0,0,0,0,0,0,0,0,0,0,0,0,0,0,0,0,0,0,0,0,0,0,0,0,0,0,0,0,0,0,0,0,0,0,0,0,0,0,0,0,0,0,0,0,0,0,0,0,0,0,0,0,0,0,0,0,0,0,0,0,0,0,0,0,0,0,0,
0,0,0,0,0,0,0,0,0,0,0,0,0,0,0,0,0,0,0,0,0,0,0,0,0,0,0,0,0,0,0,0,0,0,0,0,0,0,0,0,0,0,0,0,0,0,0,0,0,0,0,0,0,0,0,0,0,0,0,0,0,0,0,0,0,0,0,0,0,0,0,0,0,0,0,0,0,0,0,0,
0,0,0,0,0,0,0,0,0,0,0,0,0,0,0,0,0,0,0,0,0,0,0,0,0,0,0,0,0,0,0,0,0,0,0,0,0,0,0,0,0,0,0,0,0,0,0,0,0,0,0,0,0,0,0,0,0,0,0,0,0,0,0,0,0,0,0,0,0,0,0,0,0,0,0,0,0,0,0,0,
0,0,0,0,0,0,0,0,0,0,0,0,0,0,0,0,0,0,0,0,0,0,0,0,0,0,0,0,0,0,0,0,0,0,0,0,0,0,0,0,0,0,0,0,0,0,0,0,0,0,0,0,0,0,0,0,0,0,0,0,0,0,0,0,0,0,0,0,0,0,0,0,0,0,0,0,0,0,0,0,
0,0,0,0,0,0,0,0,0,0,0,0,0,0,0,0,0,0,0,0,0,0,0,0,0,0,0,0,0,0,0,0,0,0,0,0,0,0,0,0,0,0,0,0,0,0,0,0,0,0,0,0,0,0,0,0,0,0,0,0,3378,3379,3380,3381,3382,3383,3384,3385,3386,0,0,0,0,0,0,0,0,0,0,0,
0,0,0,0,0,0,0,0,0,0,0,0,0,0,0,0,0,0,0,0,0,0,0,0,0,0,0,0,0,0,0,0,0,0,0,0,0,0,0,0,0,0,0,0,0,0,0,0,0,0,0,0,0,0,0,0,0,0,0,0,3395,3396,3397,3398,3399,3400,3401,3402,3403,0,0,0,0,0,0,0,0,0,0,0,
0,0,0,0,0,0,0,0,0,0,0,0,0,0,0,0,0,0,0,0,0,0,0,0,0,0,0,0,0,0,0,0,0,0,0,0,0,0,0,0,0,0,0,0,0,0,0,0,0,0,0,0,0,0,0,0,0,0,0,0,3412,3413,3414,3415,3416,3417,3418,3419,3420,0,0,0,0,0,0,0,0,0,0,0,
0,0,0,0,0,0,0,0,0,0,0,0,0,0,0,0,0,0,0,0,0,0,0,0,0,0,0,0,0,0,0,0,0,0,0,0,0,0,0,0,0,0,0,0,0,0,0,0,0,0,0,0,0,0,0,0,0,0,0,0,0,0,0,0,0,0,0,0,0,0,0,0,0,0,0,0,0,0,0,0,
0,0,0,0,0,0,0,0,0,0,0,0,0,0,0,0,0,0,0,0,0,0,0,0,0,0,0,0,0,0,0,0,0,0,0,0,0,0,0,0,0,0,0,0,0,0,0,0,0,0,0,0,0,0,0,0,0,0,0,0,0,0,0,0,0,0,0,0,0,0,0,0,0,0,0,0,0,0,0,0,
0,0,0,0,0,0,0,0,0,0,0,0,0,0,0,0,0,0,0,0,0,0,0,0,0,0,0,0,0,0,0,0,0,0,0,0,0,0,0,0,0,0,0,0,0,0,0,0,0,0,0,0,0,0,0,0,0,0,0,0,0,0,0,0,0,0,0,0,0,0,0,0,0,0,0,0,0,0,0,0,
0,0,0,0,0,0,0,0,0,0,0,0,0,0,0,0,0,0,0,0,0,0,0,0,0,0,0,0,0,0,0,0,0,0,0,0,0,0,0,0,0,0,0,0,0,0,0,0,0,0,0,0,0,0,0,0,0,0,0,0,0,0,0,0,0,0,0,0,0,0,0,0,0,0,0,0,0,0,0,0,
0,0,0,0,0,0,0,0,0,0,0,0,0,0,0,0,0,0,0,0,0,0,0,0,0,0,0,0,0,0,0,0,0,0,0,0,0,0,0,0,0,0,0,0,0,0,0,0,0,0,0,0,0,0,0,0,0,0,0,0,0,0,0,0,0,0,0,0,0,0,0,0,0,0,0,0,0,0,0,0,
0,0,0,0,0,0,0,0,0,0,0,0,0,0,0,0,0,0,0,0,0,0,0,0,0,0,0,0,0,0,0,0,0,0,0,0,0,0,0,0,0,0,0,0,0,0,0,0,0,0,0,0,0,0,0,0,0,0,0,0,0,0,0,0,0,0,0,0,0,0,0,0,0,0,0,0,0,0,0,0,
0,0,0,0,0,0,0,0,0,0,0,0,0,0,0,0,0,0,0,0,0,0,0,0,0,0,0,0,0,0,0,0,0,0,0,0,0,0,0,0,0,0,0,0,0,0,0,0,0,0,0,0,0,0,0,0,0,0,0,0,0,0,0,0,0,0,0,0,0,0,0,0,0,0,0,0,0,0,0,0,
0,0,0,0,0,0,0,0,0,0,0,0,0,0,0,0,0,0,0,0,0,0,0,0,0,0,0,0,0,0,0,0,0,0,0,0,0,0,0,0,0,0,0,0,0,0,0,0,0,0,0,0,0,0,0,0,0,0,0,0,0,0,0,0,0,0,0,0,0,0,0,0,0,0,0,0,0,0,0,0,
0,0,0,0,0,0,0,0,0,0,0,0,0,0,0,0,0,0,0,0,0,0,0,0,0,0,0,0,0,0,0,0,0,0,0,0,0,0,0,0,0,0,0,0,0,0,0,0,0,0,0,0,0,0,0,0,0,0,0,0,0,0,0,0,0,0,0,0,0,0,0,0,0,0,0,0,0,0,0,0,
0,0,0,0,0,0,0,0,0,0,0,0,0,0,0,0,0,0,0,0,0,0,0,0,0,0,0,0,0,0,0,0,0,0,0,0,0,0,0,0,0,0,0,0,0,0,0,0,0,0,0,0,0,0,0,0,0,0,0,0,0,0,0,0,0,0,0,0,0,0,0,0,0,0,0,0,0,0,0,0,
0,0,0,0,0,0,0,0,0,0,0,0,0,0,0,0,0,0,0,0,0,0,0,0,0,0,0,0,0,0,0,0,0,0,0,0,0,0,0,0,0,0,0,0,0,0,0,0,0,0,0,0,0,0,0,0,0,0,0,0,0,0,0,0,0,0,0,0,0,0,0,0,0,0,0,0,0,0,0,0,
0,0,0,0,0,0,0,0,0,0,0,0,0,0,0,0,0,0,0,0,0,0,0,0,0,0,0,0,0,0,0,0,0,0,0,0,0,0,0,0,0,0,0,0,0,0,0,0,0,0,0,0,0,0,0,0,0,0,0,0,0,0,0,0,0,0,0,0,0,0,0,0,0,0,0,0,0,0,0,0,
0,0,0,0,0,0,0,0,0,0,0,0,0,0,0,0,0,0,0,0,0,0,0,0,0,0,0,0,0,0,0,0,0,0,0,0,0,0,0,0,0,0,0,0,0,0,0,0,0,0,0,0,0,0,0,0,0,0,0,0,0,0,0,0,0,0,0,0,0,0,0,0,0,0,0,0,0,0,0,0,
0,0,0,0,0,0,0,0,0,0,0,0,0,0,0,0,0,0,0,0,0,0,0,0,0,0,0,0,0,0,0,0,0,0,0,0,0,0,0,0,0,0,0,0,0,0,0,0,0,0,0,0,0,0,0,0,0,0,0,0,0,0,0,0,0,0,0,0,0,0,0,0,0,0,0,0,0,0,0,0,
0,0,0,0,0,0,0,0,0,0,0,0,0,0,0,0,0,0,0,0,0,0,0,0,0,0,0,0,0,0,0,0,0,0,0,0,0,0,0,0,0,0,0,0,0,0,0,0,0,0,0,0,0,0,0,0,0,0,0,0,0,0,0,0,0,0,0,0,0,0,0,0,0,0,0,0,0,0,0,0,
0,0,0,0,0,0,0,0,0,0,0,0,0,0,0,0,0,0,0,0,0,0,0,0,0,0,0,0,0,0,0,0,0,0,0,0,0,0,0,0,0,0,0,0,0,0,0,0,0,0,0,0,0,0,0,0,0,0,0,0,0,0,0,0,0,0,0,0,0,0,0,0,0,0,0,0,0,0,0,0,
0,0,0,0,0,0,0,0,0,0,0,0,0,0,0,0,0,0,0,0,0,0,0,0,0,0,0,0,0,0,0,0,0,0,0,0,0,0,0,0,0,0,0,0,0,0,0,0,0,0,0,0,0,0,0,0,0,0,0,0,0,0,0,0,0,0,0,0,0,0,0,0,0,0,0,0,0,0,0,0,
0,0,0,0,0,0,0,0,0,0,0,0,0,0,0,0,0,0,0,0,0,0,0,0,0,0,0,0,0,0,0,0,0,0,0,0,0,0,0,0,0,0,0,0,0,0,0,0,0,0,0,0,0,0,0,0,0,0,0,0,0,0,0,0,0,0,0,0,0,0,0,0,0,0,0,0,0,0,0,0,
0,0,0,0,0,0,0,0,0,0,0,0,0,0,0,0,0,0,0,0,0,0,0,0,0,0,0,0,0,0,0,0,0,0,0,0,0,0,0,0,0,0,0,0,0,0,0,0,0,0,0,0,0,0,0,0,0,0,0,0,0,0,0,0,0,0,0,0,0,0,0,0,0,0,0,0,0,0,0,0,
0,0,0,0,0,0,0,0,0,0,0,0,0,0,0,0,0,0,0,0,0,0,0,0,0,0,0,0,0,0,0,0,0,0,0,0,0,0,0,0,0,0,0,0,0,0,0,0,0,0,0,0,0,0,0,0,0,0,0,0,0,0,0,0,0,0,0,0,0,0,0,0,0,0,0,0,0,0,0,0,
0,0,0,0,0,0,0,0,0,0,0,0,0,0,0,0,0,0,0,0,0,0,0,0,0,0,0,0,0,0,0,0,0,0,0,0,0,0,0,0,0,0,0,0,0,0,0,0,0,0,0,0,0,0,0,0,0,0,0,0,0,0,0,0,0,0,0,0,0,0,0,0,0,0,0,0,0,0,0,0,
0,0,0,0,0,0,0,0,0,0,0,0,0,0,0,0,0,0,0,0,0,0,0,0,0,0,0,0,0,0,0,0,0,0,0,0,0,0,0,0,0,0,0,0,0,0,0,0,0,0,0,0,0,0,0,0,0,0,0,0,0,0,0,0,0,0,0,0,0,0,0,0,0,0,0,0,0,0,0,0,
543,0,0,0,0,0,0,0,0,0,0,0,0,0,0,0,0,0,0,0,0,0,0,0,0,0,0,0,0,0,0,0,0,0,0,0,0,0,0,0,0,0,0,0,0,0,0,0,0,0,0,0,0,0,0,0,0,0,0,0,0,0,0,0,0,0,0,0,0,0,0,0,0,0,0,0,0,0,0,0,
0,0,0,0,0,0,0,0,0,0,0,0,0,0,0,0,0,0,0,0,0,0,0,0,0,0,0,0,0,0,0,0,0,0,0,0,0,0,0,0,0,0,0,0,0,0,0,0,0,0,0,0,0,0,0,0,0,0,0,0,0,0,0,0,0,0,0,0,0,0,0,0,0,0,0,0,0,0,0,0,
0,0,0,0,0,0,0,0,0,0,0,0,0,0,0,0,0,0,0,0,0,0,0,0,0,0,0,0,0,0,0,0,0,0,0,0,0,0,0,0,0,0,0,0,0,0,0,0,0,0,0,0,0,0,0,0,0,0,0,0,0,0,0,0,0,0,0,0,0,0,0,0,0,0,0,0,0,0,0,0,
0,0,0,0,0,0,0,0,0,0,0,0,0,0,0,0,0,0,0,0,0,0,0,0,0,0,0,0,0,0,0,0,0,0,0,0,0,0,0,0,0,0,0,0,0,0,0,0,0,0,0,0,0,0,0,0,0,0,0,0,0,0,0,0,0,0,0,0,0,0,0,0,0,0,0,0,0,0,0,0,
0,0,0,0,0,0,0,0,0,0,0,0,0,0,0,0,0,0,0,0,0,0,0,0,0,0,0,0,0,0,0,0,0,0,0,0,0,0,0,0,0,0,0,0,0,0,0,0,0,0,0,0,0,0,0,0,0,0,0,0,0,0,0,0,0,0,0,0,0,0,0,0,0,0,0,0,0,0,0,0,
0,0,0,0,0,0,0,0,0,0,0,0,0,0,0,0,0,0,0,0,0,0,0,0,0,0,0,0,0,0,0,0,0,0,0,0,0,0,0,0,0,0,0,0,0,0,0,0,0,0,0,0,0,0,0,0,0,0,0,0,0,0,0,0,0,0,0,0,0,0,0,0,0,0,0,0,0,0,0,0,
0,0,0,0,0,0,0,0,0,0,0,0,0,0,0,0,0,0,0,0,0,0,0,0,0,0,0,0,0,0,0,0,0,0,0,0,0,0,0,0,0,0,0,0,0,0,0,0,0,0,0,0,0,0,0,0,0,0,0,0,0,0,0,0,0,0,0,0,0,0,0,0,0,0,0,0,0,0,0,0,
0,0,0,0,0,0,0,0,0,0,0,0,0,0,0,0,0,0,0,0,0,0,0,0,0,0,0,0,0,0,0,0,0,0,0,0,0,0,0,0,0,0,0,0,0,0,0,0,0,0,0,0,0,0,0,0,0,0,0,0,0,0,0,0,0,0,0,0,0,0,0,0,0,0,0,0,0,0,0,0,
0,0,0,0,0,0,0,0,0,0,0,0,0,0,0,0,0,0,0,0,0,0,0,0,0,0,0,0,0,0,0,0,0,0,0,0,0,0,0,0,0,0,0,0,0,0,0,0,0,0,0,0,0,0,0,0,0,0,0,0,0,0,0,0,0,0,0,0,0,0,0,0,0,0,0,0,0,0,0,0,
0,0,0,0,0,0,0,0,0,0,0,0,0,0,0,0,0,0,0,0,0,0,0,0,0,0,0,0,0,0,0,0,0,0,0,0,0,0,0,0,0,0,0,0,0,0,0,0,0,0,0,0,0,0,0,0,0,0,0,0,0,0,0,0,0,0,0,0,0,0,0,0,0,0,0,0,0,0,0,0,
0,0,0,0,0,0,0,0,0,0,0,0,0,0,0,0,0,0,0,0,0,0,0,0,0,0,0,0,0,0,0,0,0,0,0,0,0,0,0,0,0,0,0,0,0,0,0,0,0,0,0,0,0,0,0,0,0,0,0,0,0,0,0,0,0,0,0,0,0,0,0,0,0,0,0,0,0,0,0,0,
0,0,0,0,0,0,0,0,0,0,0,0,0,0,0,0,0,0,0,0,0,0,0,0,0,0,0,0,0,0,0,0,0,0,0,0,0,0,0,0,0,0,0,0,0,0,0,0,0,0,0,0,0,0,0,0,0,0,0,0,0,0,0,0,0,0,0,0,0,0,0,0,0,0,0,0,0,0,0,0,
0,0,0,0,0,0,0,0,0,0,0,0,0,0,0,0,0,0,0,0,0,0,0,0,0,0,0,0,0,0,0,0,0,0,0,0,0,0,0,0,0,0,0,0,0,0,0,0,0,0,0,0,0,0,0,0,0,0,0,0,0,0,0,0,0,0,0,0,0,0,0,0,0,0,0,0,0,0,0,0,
0,0,0,0,0,0,0,0,0,0,0,0,0,0,0,0,0,0,0,0,0,0,0,0,0,0,0,0,0,0,0,0,0,0,0,0,0,0,0,0,0,0,0,0,0,0,0,0,0,0,0,0,0,0,0,0,0,0,0,0,0,0,0,0,0,0,0,0,0,0,0,0,0,0,0,0,0,0,0,0,
0,0,0,0,0,0,0,0,0,0,0,0,0,0,0,0,0,0,0,0,0,0,0,0,0,0,0,0,0,0,0,0,0,0,0,0,0,0,0,0,0,0,0,0,0,0,0,0,0,0,0,0,0,0,0,0,0,0,0,0,0,0,0,0,0,0,0,0,0,0,0,0,0,0,0,0,0,0,0,0,
0,0,0,0,0,0,0,0,0,0,0,0,0,0,0,0,0,0,0,0,0,0,0,0,0,0,0,0,0,0,0,0,0,0,0,0,0,0,0,0,0,0,0,0,0,0,0,0,0,0,0,0,0,0,0,0,0,0,0,0,0,0,0,0,0,0,0,0,0,0,0,0,0,0,0,0,0,0,0,0,
0,0,0,0,0,0,0,0,0,0,0,0,0,0,0,0,0,0,0,0,0,0,0,0,0,0,0,0,0,0,0,0,0,0,0,0,0,0,0,0,0,0,0,0,0,0,0,0,0,0,0,0,0,0,0,0,0,0,0,0,0,0,0,0,0,0,0,0,0,0,0,0,0,0,0,0,0,0,0,0,
0,0,0,0,0,0,0,0,0,0,0,0,0,0,0,0,0,0,0,0,0,0,0,0,0,0,0,0,0,0,0,0,0,0,0,0,0,0,0,0,0,0,0,0,0,0,0,0,0,0,0,0,0,0,0,0,0,0,0,0,0,0,0,0,0,0,0,0,0,0,0,0,0,0,0,0,0,0,0,0,
0,0,0,0,0,0,0,0,0,0,0,0,0,0,0,0,0,0,0,0,0,0,0,0,0,0,0,0,0,0,0,0,0,0,0,0,0,0,0,0,0,0,0,0,0,0,0,0,0,0,0,0,0,0,0,0,0,0,0,0,0,0,0,0,0,0,0,0,0,0,0,0,0,0,0,0,0,139,0,0,
0,0,0,0,0,0,0,0,0,0,0,0,0,0,0,0,0,0,0,0,0,0,0,0,0,0,0,0,0,0,0,0,0,0,0,0,0,0,0,0,0,0,0,0,0,0,0,0,0,0,0,0,0,0,0,0,0,0,0,0,0,0,0,0,0,0,0,0,0,0,0,0,0,0,0,0,0,0,0,0,
0,0,0,0,0,0,0,0,0,0,0,0,0,0,0,0,0,0,0,0,0,0,0,0,0,0,0,0,0,0,0,0,0,0,0,0,0,0,0,0,0,0,0,0,0,0,0,0,0,0,0,0,0,0,0,0,0,0,0,0,0,0,0,0,0,0,0,0,0,0,0,0,0,0,0,0,0,0,0,0,
0,0,0,0,0,0,0,0,0,0,0,0,0,0,0,0,0,0,0,0,0,0,0,0,0,0,0,0,0,0,0,0,0,0,0,0,0,0,0,0,0,0,0,0,0,0,0,0,0,0,0,0,0,0,0,0,0,0,0,0,0,0,0,0,0,0,0,0,0,0,0,0,0,0,0,0,0,0,0,0,
0,0,0,0,0,0,0,0,0,0,0,0,0,0,0,0,0,0,0,0,0,0,0,0,0,0,0,0,0,0,0,0,0,0,0,0,0,0,0,0,0,0,0,0,0,0,0,0,0,0,0,0,0,0,0,0,0,0,0,0,0,0,0,0,0,0,0,0,0,0,0,0,0,0,0,0,0,0,0,0,
0,0,0,0,0,0,0,0,0,0,0,0,0,0,0,0,0,0,0,0,0,0,0,0,0,0,0,0,0,0,0,0,0,0,0,0,0,0,0,0,0,0,0,0,0,0,0,0,0,0,0,0,0,0,0,0,0,0,0,0,0,0,0,0,0,0,0,0,0,0,0,0,0,0,0,0,0,0,0,0,
0,0,0,0,0,0,0,0,0,0,0,0,0,0,0,0,0,0,0,0,0,0,0,0,0,0,0,0,0,0,0,0,0,0,0,0,0,0,0,0,0,0,0,0,0,0,0,0,0,0,0,0,0,0,0,0,0,0,0,0,0,0,0,0,0,0,0,0,0,0,0,0,0,0,0,0,0,0,0,0,
147,0,0,0,0,0,0,0,0,0,0,0,0,0,0,0,0,0,0,0,0,0,0,0,0,0,0,0,0,0,0,0,0,0,0,0,0,0,0,0,0,0,0,0,0,0,0,0,0,0,0,0,0,0,0,0,0,0,0,0,0,0,0,0,0,0,0,0,0,0,0,0,0,0,0,0,0,0,139,0,
172,0,0,0,0,0,0,0,0,0,0,0,0,0,0,0,0,0,0,0,0,0,0,0,0,0,0,0,0,0,0,0,0,0,0,0,0,0,0,0,0,0,0,0,0,0,0,0,0,0,0,0,0,0,0,0,0,0,0,0,0,0,0,0,0,0,0,0,0,0,0,0,0,0,0,0,0,0,0,0,
197,0,0,0,0,0,0,0,0,0,0,0,0,0,0,0,0,0,0,0,0,0,0,0,0,0,0,0,0,0,0,0,0,0,0,0,0,0,0,0,0,0,0,0,0,0,0,0,0,0,0,0,0,0,0,0,0,0,0,0,0,0,0,0,0,0,0,0,0,0,0,0,0,0,0,0,0,0,0,0,
222,0,0,0,0,0,0,0,0,0,0,0,0,0,0,0,0,0,139,0,0,0,0,0,0,0,0,0,0,0,139,0,0,0,0,0,0,0,0,0,0,0,0,0,0,0,0,0,0,0,0,0,0,0,0,0,0,0,0,0,0,0,0,0,0,0,0,0,0,0,0,0,0,0,0,139,0,0,0,0,
247,0,0,0,0,170,0,0,0,0,175,0,0,0,0,0,0,0,0,0,0,0,0,0,0,0,0,0,0,0,0,0,0,0,0,0,0,0,0,0,0,0,0,0,0,0,0,0,0,0,0,0,0,0,0,0,0,0,0,0,0,0,0,0,0,0,0,0,0,0,0,0,0,0,0,0,0,0,0,0,
0,0,0,0,0,0,0,0,0,0,0,0,0,0,0,0,0,0,0,0,0,0,0,0,0,0,0,0,0,0,0,0,0,0,0,0,0,0,0,0,0,0,0,0,0,0,0,0,0,0,0,0,0,0,0,0,0,0,0,0,0,0,0,0,0,0,0,0,0,0,0,0,0,0,0,0,0,0,0,0,
0,0,0,0,0,0,0,0,0,0,0,0,0,0,0,0,0,0,0,0,0,0,0,0,0,0,0,0,0,0,0,0,0,0,0,0,0,0,0,0,0,0,0,0,0,0,0,0,0,0,0,0,0,0,0,0,0,0,0,0,0,0,0,0,0,0,0,0,0,0,0,0,0,0,0,0,0,0,0,0
</data>
 </layer>
</map>
