<?xml version="1.0" encoding="UTF-8"?>
<map version="1.10" tiledversion="1.11.2" orientation="orthogonal" renderorder="right-down" width="80" height="110" tilewidth="16" tileheight="16" infinite="0" nextlayerid="9" nextobjectid="1">
 <tileset firstgid="1" source="../tilesets/spring_outdoorsTileSheet.tsx"/>
 <tileset firstgid="1976" source="../tilesets/spring_outdoorsTileSheet2.tsx"/>
 <tileset firstgid="3096" source="../tilesets/spring_Shadows.tsx"/>
 <layer id="2" name="Back" width="80" height="110">
  <data encoding="csv">
1095,1095,1095,1095,1095,1095,1095,1095,1095,1093,1094,1095,1122,382,176,176,176,176,176,377,176,176,176,377,176,176,176,408,1096,1094,1095,1095,1122,383,353,538,538,537,561,589,538,351,405,406,406,406,406,406,406,406,406,406,406,406,406,406,406,406,406,406,406,406,406,406,406,406,406,406,406,406,1096,1120,1120,1094,1095,1095,1095,1095,1095,1095,
1095,1095,1095,1095,1095,1095,1095,1095,1095,1095,1093,1095,1121,383,305,354,378,176,176,176,176,176,176,176,176,176,176,176,405,1096,1120,1120,1121,382,353,538,538,587,615,589,538,376,377,377,377,377,377,377,377,377,377,377,377,377,377,377,377,377,377,377,377,377,377,377,377,377,377,377,404,352,405,406,408,1097,1095,1095,1095,1095,1095,1095,
1095,1095,1095,1095,1095,1095,1094,1095,1093,1120,1120,1121,381,383,354,378,402,176,176,176,176,176,176,176,176,176,176,176,176,405,381,381,381,383,353,538,538,587,228,539,538,538,538,228,228,228,228,228,228,228,228,228,228,228,228,228,228,228,228,228,228,228,228,228,228,228,228,228,376,404,352,352,405,1097,1094,1095,1095,1095,1095,1095,
1095,1095,1095,1095,1095,1095,1095,1095,1122,381,358,406,408,354,378,176,176,394,176,176,176,176,176,176,176,176,176,469,176,176,405,408,381,383,353,538,538,537,228,589,538,538,538,228,228,228,228,228,228,228,228,228,228,228,228,228,228,228,228,228,228,228,228,228,228,228,228,228,228,376,377,404,352,1097,1097,1095,1095,1095,1095,1095,
1095,1095,1095,1095,1095,1095,1093,1120,1121,381,305,352,354,378,176,176,176,176,176,176,176,176,176,176,176,176,176,394,176,176,176,405,406,407,353,538,538,587,228,589,538,538,538,228,228,228,228,228,228,228,228,228,228,228,228,228,228,228,228,228,228,228,228,228,228,228,228,228,228,228,176,376,404,405,406,1120,1120,1095,1095,1095,
1095,1095,1095,1095,1095,1095,1122,381,381,408,352,354,378,176,176,176,176,176,176,176,176,176,176,176,176,176,176,176,176,176,176,176,352,352,353,538,538,587,615,539,538,538,538,228,228,228,228,228,228,228,228,228,228,228,228,228,228,228,228,228,228,228,228,228,228,228,228,228,228,228,228,176,376,404,352,352,380,1120,1120,1120,
1095,1095,1095,1095,1095,1095,1122,358,407,352,354,378,402,228,228,228,228,228,228,228,228,228,228,228,228,228,228,228,228,228,228,176,176,352,353,538,538,587,228,589,538,538,538,228,228,228,228,228,228,228,228,228,228,228,228,228,228,228,228,228,228,228,228,228,228,228,228,228,228,228,228,228,176,376,301,352,380,381,381,381,
1095,1095,1095,1095,1095,1095,1122,408,352,354,378,176,228,228,228,228,228,228,228,519,346,519,521,346,519,228,228,228,228,228,341,228,176,176,228,538,538,537,228,589,538,538,538,228,228,228,228,228,228,228,228,228,228,228,228,228,228,228,228,228,228,228,228,228,228,228,228,228,228,228,228,228,228,176,305,301,380,381,381,381,
1095,1095,1095,1095,1095,1093,1121,305,354,378,402,228,228,228,228,228,228,228,228,494,519,346,519,519,449,228,228,228,228,228,228,228,228,176,228,538,538,587,586,589,538,538,538,538,538,538,538,538,538,538,538,538,538,538,538,538,538,538,538,538,538,538,538,538,538,538,538,538,228,228,228,228,228,228,352,352,352,405,381,381,
1095,1095,1095,1095,1095,1122,382,354,378,176,228,228,228,228,228,228,228,228,228,352,352,352,352,381,352,352,228,228,228,228,228,228,228,228,176,538,538,587,228,589,538,538,538,538,538,538,538,538,538,538,538,538,538,538,538,538,538,538,538,538,538,538,538,538,538,538,538,538,228,228,228,228,228,228,352,352,352,352,380,381,
1096,1120,1120,1120,1120,1121,382,353,228,228,228,228,228,228,381,381,381,381,381,352,352,352,352,381,352,352,381,381,381,381,381,381,381,381,381,176,228,228,228,646,563,563,513,563,513,563,563,563,513,563,563,563,563,563,563,563,563,563,513,563,563,563,563,563,563,563,563,563,563,563,563,381,381,228,352,351,352,352,380,381,
381,381,381,381,381,358,407,353,228,228,228,228,228,228,381,381,381,381,381,381,381,352,352,381,352,352,381,381,381,381,381,381,381,381,381,228,176,228,228,228,228,228,228,228,228,514,228,228,228,228,228,228,228,228,228,252,252,464,227,227,514,179,252,252,252,252,182,252,252,252,252,381,381,518,352,351,352,352,380,381,
381,381,381,381,381,382,352,353,228,228,228,538,538,538,381,381,381,381,381,381,381,381,381,381,381,381,381,381,381,381,381,352,352,352,352,538,538,176,538,538,538,538,538,538,228,228,228,228,228,228,228,228,228,228,228,228,381,615,615,227,182,229,326,327,327,327,327,327,327,380,381,381,327,327,352,376,377,352,352,405,
381,381,381,381,381,382,352,353,228,228,228,538,538,381,381,381,381,381,381,381,381,381,381,381,381,381,381,381,381,381,381,352,352,352,352,538,538,538,176,176,176,176,176,176,176,176,176,176,176,176,176,176,176,176,176,176,381,227,227,227,227,229,351,352,301,305,352,352,305,380,381,381,356,356,352,276,276,351,352,352,
381,381,381,381,381,382,352,353,228,538,538,406,406,406,406,406,406,406,406,408,381,381,381,381,381,381,381,381,381,381,381,381,381,352,352,563,563,563,563,176,176,176,176,176,176,176,176,176,176,176,176,176,176,407,176,176,340,340,340,339,340,340,2048,352,352,352,352,301,352,380,381,381,381,518,276,276,276,351,352,352,
381,381,381,381,381,382,352,353,228,538,538,593,593,377,404,352,352,352,352,405,406,406,406,406,406,406,406,406,406,408,381,381,381,352,352,228,228,228,228,228,176,176,176,176,176,176,721,721,721,721,721,721,721,721,721,721,340,340,339,340,339,340,2048,352,352,352,352,305,301,380,381,381,381,538,276,276,276,351,352,352,
381,381,381,381,381,382,352,353,538,538,538,562,563,595,351,352,352,352,352,301,352,352,301,352,352,352,352,352,352,405,406,408,381,381,352,228,228,228,228,228,228,176,176,176,176,176,721,721,721,721,721,721,721,721,721,721,340,340,340,339,340,339,2048,352,352,352,352,352,352,352,380,381,381,538,276,276,276,351,352,352,
381,381,381,381,381,382,352,353,538,538,592,566,179,595,351,352,301,352,352,352,305,306,305,352,352,352,352,352,352,352,301,405,408,381,381,538,228,228,228,228,228,228,176,176,176,176,176,176,176,176,176,176,176,228,228,228,339,339,339,340,339,340,2048,352,352,305,352,352,352,352,380,381,381,538,276,276,276,376,377,377,
381,381,381,381,381,382,305,353,538,587,228,179,254,326,329,352,352,352,352,352,305,306,306,352,352,352,352,352,352,352,352,352,405,408,381,381,381,381,381,381,381,381,381,381,381,381,381,381,381,381,381,381,381,381,381,381,340,340,340,339,340,340,2048,352,301,352,352,352,352,305,380,381,381,381,276,276,276,276,276,276,
381,381,381,381,381,382,306,353,538,587,179,254,326,329,352,352,352,301,352,352,352,305,305,352,352,352,352,352,352,301,305,352,352,380,408,381,381,381,381,381,381,381,381,381,381,381,381,381,381,381,381,381,381,381,381,381,339,339,339,340,339,340,2048,352,352,352,352,306,305,301,380,381,381,381,276,276,276,276,276,276,
381,381,381,381,381,382,352,353,538,587,229,176,351,352,352,352,352,352,352,352,352,352,352,352,352,305,352,352,352,305,301,352,352,352,406,408,381,381,381,381,381,381,381,381,381,381,381,381,381,381,381,381,381,381,381,381,381,473,473,473,473,473,473,352,352,352,352,305,352,352,380,381,381,381,381,276,276,276,276,276,
381,381,381,381,381,382,352,353,538,587,2716,151,351,352,352,352,352,352,352,352,352,352,352,352,305,301,305,352,352,305,306,305,352,352,352,405,381,381,381,381,381,381,381,381,381,381,381,381,381,381,381,381,381,381,381,381,381,230,231,205,253,179,254,352,352,352,352,352,352,352,380,381,381,381,381,276,276,276,276,276,
405,406,406,406,406,407,354,378,538,537,2732,176,262,352,352,352,352,301,352,352,352,352,352,352,352,352,352,352,352,301,305,352,301,352,305,301,405,408,381,381,381,381,381,381,381,381,381,381,381,381,381,381,381,381,381,382,379,327,328,151,226,2716,351,352,305,352,352,352,352,352,380,381,381,381,381,276,276,276,276,276,
377,377,377,377,377,377,378,402,538,587,2748,176,287,352,301,352,352,352,301,352,352,352,352,352,352,352,301,352,352,352,352,377,377,377,377,377,404,405,408,381,381,381,381,381,381,381,381,381,381,381,381,381,381,381,381,382,352,352,353,201,203,2732,351,352,352,301,352,352,352,305,380,381,381,381,276,276,276,276,276,276,
402,151,176,276,276,402,176,228,538,537,229,176,312,352,352,352,301,301,352,352,352,352,301,305,352,301,305,352,352,352,378,176,176,176,176,176,376,377,405,406,406,406,406,406,406,406,406,406,406,406,406,406,406,406,406,407,352,354,378,226,565,2748,351,352,352,352,352,301,352,301,380,381,381,381,276,276,276,276,276,276,
176,176,176,276,402,228,228,228,538,587,229,151,351,352,352,352,352,352,352,352,352,352,352,352,305,306,352,352,352,378,201,202,180,181,206,202,204,151,376,377,377,277,278,279,377,377,377,377,277,278,279,377,377,277,278,279,377,378,201,203,179,254,351,352,352,352,352,352,352,352,380,381,381,381,276,276,276,276,276,276,
176,176,402,378,276,228,228,228,538,537,2716,176,351,405,352,352,352,352,352,352,352,352,352,352,352,305,352,406,406,201,203,179,252,252,252,253,178,202,202,202,202,180,181,206,202,202,202,202,180,181,206,202,202,202,180,181,206,202,203,179,254,176,351,352,352,352,305,352,352,352,380,381,381,381,276,276,276,276,276,276,
176,151,176,276,276,228,228,228,538,587,2732,176,376,377,404,352,354,377,377,377,377,377,352,352,352,352,279,377,378,226,227,229,276,276,276,251,252,252,230,231,205,252,252,252,252,230,231,205,252,252,252,230,231,205,252,252,252,252,252,254,402,151,376,404,352,305,352,305,352,301,380,381,381,381,351,276,276,276,276,276,
402,151,176,151,276,228,228,228,538,587,2748,176,176,176,351,352,353,176,151,176,151,176,351,352,352,353,151,176,202,203,227,178,176,176,176,176,176,176,151,176,402,176,176,176,151,176,402,176,176,151,176,151,176,176,176,176,176,176,176,402,176,176,176,376,404,301,305,301,352,301,380,381,381,381,351,276,276,276,276,276,
176,176,176,402,378,228,228,228,538,587,229,176,176,176,376,377,378,176,176,176,176,151,376,377,377,378,151,176,227,2712,2713,227,228,228,228,228,228,228,228,228,228,228,228,228,228,228,228,228,228,228,228,228,228,228,228,228,228,228,228,228,228,228,228,176,376,404,301,352,352,352,380,381,381,381,276,276,276,276,276,276,
276,276,402,151,176,228,228,228,538,537,2716,176,176,176,151,176,176,402,176,176,151,176,257,176,402,176,313,313,339,339,340,340,228,228,228,228,228,228,228,228,228,228,228,228,228,228,228,228,228,228,228,228,228,228,228,228,228,228,228,228,228,228,228,228,176,376,404,352,352,352,380,381,381,381,469,469,468,468,228,287,
276,378,276,176,176,538,538,538,538,587,2748,176,151,176,176,151,228,228,228,228,228,228,228,228,228,228,313,313,339,340,340,340,228,228,228,228,228,228,228,228,228,228,228,228,228,228,228,228,228,228,228,228,228,228,228,228,228,228,228,228,228,228,228,228,228,176,376,404,352,405,380,381,381,381,494,494,228,493,228,287,
276,276,151,276,276,538,538,538,538,619,229,176,176,176,176,228,228,228,228,228,228,228,228,228,228,228,313,313,339,339,340,340,228,228,228,228,228,228,228,228,228,228,228,228,228,228,228,228,228,228,228,228,228,228,228,228,228,228,218,218,218,228,228,228,228,228,176,376,404,301,380,381,381,381,228,519,228,228,228,287,
469,469,468,468,228,538,538,538,612,179,254,176,402,228,228,228,228,228,228,228,228,228,228,228,228,228,228,339,339,339,340,340,228,228,228,228,228,228,228,228,228,228,228,228,228,228,228,228,228,228,228,228,228,228,228,228,228,228,218,228,218,228,228,228,228,228,228,176,376,404,405,408,381,445,228,228,228,228,228,287,
494,494,228,493,228,538,228,176,402,176,402,176,176,228,228,228,228,228,228,228,228,228,228,228,228,228,228,339,339,340,340,340,228,228,228,228,228,228,227,228,228,228,228,228,228,228,228,228,228,228,228,228,228,228,228,228,228,228,218,228,218,228,228,228,228,228,228,228,351,376,404,352,352,445,228,228,228,228,228,287,
228,519,228,228,228,287,287,228,228,228,228,228,228,228,228,228,228,228,228,228,228,228,228,228,228,228,228,313,339,339,340,340,228,538,228,228,228,228,228,228,228,228,228,228,228,228,228,228,228,228,228,228,228,228,228,228,228,228,228,228,228,228,228,228,228,228,381,381,469,469,468,468,228,494,228,228,228,228,228,287,
228,228,228,228,228,287,287,228,228,228,228,228,228,321,228,228,228,228,228,228,228,228,228,538,228,228,228,339,339,340,340,340,228,538,228,228,228,228,228,228,228,228,228,228,228,228,228,228,228,228,228,228,228,228,228,228,228,228,228,228,228,228,228,228,228,228,381,381,494,494,228,493,228,494,228,1095,1095,1095,1095,1095,
228,228,228,1095,1095,287,287,1095,1095,1095,1095,1095,228,321,1095,287,228,228,287,287,287,228,228,538,228,228,228,339,339,339,340,340,228,538,228,228,228,228,228,228,228,228,228,228,228,228,228,228,228,228,228,228,228,228,228,228,228,228,228,228,228,228,228,228,228,228,381,381,493,519,228,228,228,287,1095,1095,1095,1095,1095,1095,
228,228,228,1095,1095,287,1120,287,1095,1095,1095,1095,228,1095,287,287,287,287,287,276,276,276,287,276,287,276,276,276,231,205,253,229,276,287,287,287,287,287,287,287,287,287,381,381,381,381,381,381,381,381,381,381,381,381,381,381,381,381,381,381,381,381,381,381,381,381,381,381,381,287,228,228,228,287,1095,1095,1095,1095,1095,1095,
228,228,228,1095,1095,1095,1095,1095,1095,1095,1094,1095,228,1095,1122,382,287,287,287,326,327,328,276,276,276,276,276,276,276,151,226,229,276,276,276,276,276,287,377,377,377,287,380,381,381,381,381,381,381,381,381,381,381,381,381,381,381,381,381,381,381,381,381,381,381,381,381,381,381,381,287,287,287,1095,1095,1095,1095,1095,1095,1095,
1095,1095,1095,1095,1095,1095,1095,1095,1095,1095,1095,1095,228,1095,1122,382,287,287,287,287,287,353,276,276,276,276,276,276,276,201,203,229,276,276,276,276,276,276,276,276,276,351,405,381,381,381,381,381,381,287,381,381,381,381,381,381,381,381,381,381,381,381,381,381,381,381,381,381,381,381,287,287,287,1095,1095,1095,1095,1095,1095,1095,
1095,1095,1095,1095,1095,1095,1095,1095,1095,1095,1095,1095,1095,1095,1122,382,287,287,287,287,287,287,303,287,276,276,276,276,276,226,228,178,204,276,276,276,276,276,276,276,276,351,287,406,406,406,406,406,406,406,406,406,406,406,406,406,406,406,406,406,381,381,381,381,381,381,381,381,381,287,287,287,287,1120,1120,1095,1095,1095,1095,1095,
1095,1095,1095,1095,1095,1095,1095,1095,1095,1095,1095,1120,1120,1120,1121,382,287,287,287,287,287,287,287,287,287,276,276,276,276,251,253,228,178,202,202,180,276,276,276,276,276,351,287,287,287,287,287,287,287,287,287,287,287,287,287,287,287,287,287,287,405,406,406,406,406,381,381,381,381,381,381,381,381,381,381,1097,1095,1095,1095,1095,
1095,1095,1095,1095,1095,1095,1095,1095,1095,1095,1095,381,381,381,381,382,287,287,287,287,287,287,287,287,287,287,276,276,276,276,251,252,253,227,227,227,204,276,276,276,276,376,377,377,377,377,377,377,377,377,377,352,287,287,287,287,287,287,287,287,287,287,287,287,287,405,381,381,381,381,381,381,381,381,381,1096,1120,1120,1120,1120,
1095,1095,1095,1095,1095,1095,1095,1095,1095,1095,1121,381,381,381,381,382,287,287,287,287,287,287,287,287,287,287,287,287,327,276,276,276,251,252,253,227,227,180,276,276,276,276,276,276,276,276,276,276,276,276,276,376,377,352,287,287,287,287,287,287,287,287,287,287,287,287,405,406,406,406,381,381,381,381,381,381,381,381,381,381,
1095,1095,1095,1095,1095,1095,1095,1095,1120,1121,381,381,381,381,381,382,287,287,287,287,287,287,287,287,287,287,287,287,287,276,276,276,176,276,226,227,227,227,202,204,276,276,276,276,276,276,276,276,276,287,276,276,276,376,377,377,377,377,377,352,287,287,287,287,287,287,287,287,287,287,405,381,381,381,381,381,381,381,381,381,
1095,1095,1095,1095,1095,1095,1095,1095,381,381,381,381,381,381,381,382,287,287,287,287,287,287,287,287,287,287,287,287,327,327,327,328,276,276,251,227,227,227,227,178,176,276,276,276,276,276,276,276,276,276,276,276,276,276,276,276,276,276,276,376,377,377,377,377,377,377,287,287,287,287,287,405,381,381,381,381,381,381,381,381,
1095,1095,1095,1095,1095,1095,1095,1121,381,381,381,381,381,381,381,382,287,377,377,377,377,404,287,287,287,287,287,287,287,287,352,353,276,276,276,276,464,227,227,227,2732,276,276,276,276,276,276,276,276,276,276,276,276,276,276,276,276,276,276,276,276,276,276,276,276,376,377,377,377,287,287,287,405,406,381,381,381,381,381,381,
1095,1095,1120,1120,1120,1121,381,381,381,381,381,381,381,381,381,382,176,176,176,176,377,376,176,176,377,176,176,287,287,287,287,287,287,276,276,276,276,177,228,227,2748,276,276,276,276,276,276,276,276,276,276,276,276,276,276,276,276,276,276,276,276,276,276,276,276,276,276,276,287,351,287,287,287,287,405,406,406,406,406,406,
1095,1095,381,381,381,381,381,381,381,381,381,381,381,381,1120,382,354,378,176,176,176,176,176,176,176,176,176,176,404,287,287,287,287,287,276,276,538,587,227,227,589,538,376,276,276,276,276,276,276,276,276,276,276,276,276,276,276,276,276,276,377,276,276,276,276,276,276,276,351,351,287,287,287,287,287,287,287,381,381,381,
1120,1121,381,381,381,381,381,381,381,381,381,381,1121,381,383,354,378,402,176,176,176,176,176,176,176,176,176,176,176,287,287,287,287,287,287,353,538,537,227,228,539,538,538,538,228,228,228,228,228,228,228,228,228,228,228,228,228,228,228,228,228,228,228,228,228,228,228,228,228,376,287,287,287,287,287,287,287,287,287,287,
381,381,381,381,381,381,381,381,381,381,381,358,406,408,354,378,176,176,394,176,176,176,176,176,176,176,176,176,469,176,287,287,287,287,287,287,538,587,227,228,589,538,538,538,228,228,228,228,228,228,228,228,228,228,228,228,228,228,228,228,228,228,228,228,228,228,228,228,228,228,376,376,287,287,287,287,287,381,287,287,
381,381,381,381,381,381,381,381,381,381,381,305,352,354,378,176,176,176,176,176,176,176,176,176,176,176,176,176,394,176,176,287,287,287,287,353,538,587,227,228,589,538,538,538,228,228,228,228,228,228,228,228,228,228,228,228,228,228,228,228,228,228,228,228,228,228,228,228,228,228,228,176,376,404,405,406,287,287,287,287,
381,381,381,381,381,381,381,381,381,381,381,352,354,378,176,176,176,176,176,176,176,176,176,176,176,176,176,176,176,176,176,176,176,352,352,353,538,587,227,615,539,538,538,538,228,228,228,228,228,228,228,228,228,228,228,228,228,228,228,228,228,228,228,228,228,228,228,228,228,228,228,228,176,376,404,352,352,287,287,287,
381,381,381,381,381,381,381,381,381,407,352,354,378,402,228,228,228,228,228,228,228,228,228,228,228,228,228,228,228,228,228,228,176,176,352,353,538,537,228,228,589,538,538,538,228,228,228,228,228,228,228,228,228,228,228,228,228,228,228,228,228,228,228,228,228,228,228,228,228,228,228,228,228,176,376,377,352,352,352,287,
381,381,381,381,381,381,381,381,408,352,354,378,176,228,228,228,228,228,228,228,519,346,519,521,346,519,228,228,228,228,228,341,228,176,176,228,538,587,228,228,589,538,538,538,228,228,228,228,228,228,228,228,228,228,228,228,228,228,228,228,228,228,228,228,228,228,228,228,228,228,228,228,228,228,176,376,352,352,352,352,
381,381,381,381,381,381,381,381,305,354,378,402,228,228,228,228,228,228,228,228,494,519,346,519,519,449,228,228,228,228,228,228,228,228,176,228,538,587,228,586,589,538,538,538,538,538,538,538,538,538,538,538,538,538,538,538,538,538,538,538,538,538,538,538,538,538,538,538,538,228,228,228,228,228,228,376,377,377,377,377,
381,381,381,381,381,381,381,381,354,353,176,228,228,228,228,228,228,228,228,228,352,352,352,352,381,352,352,228,228,228,228,228,228,228,228,176,538,538,615,228,589,538,538,538,538,538,538,538,538,538,538,538,538,538,538,538,538,538,538,538,538,538,538,538,538,538,538,538,538,228,228,228,228,228,228,176,276,276,276,276,
1096,381,381,381,381,381,381,381,353,353,228,228,228,228,228,381,381,381,381,381,352,352,352,352,381,352,352,381,381,381,381,381,381,381,381,381,176,228,228,228,646,563,563,513,563,513,563,563,563,513,563,563,563,563,563,563,563,563,563,513,563,563,563,563,563,563,563,563,563,563,563,563,381,381,228,176,276,276,276,276,
381,381,381,381,381,381,381,353,353,228,228,228,228,228,228,381,381,381,381,381,381,381,352,352,381,352,352,381,381,381,381,381,381,381,381,381,228,176,228,228,228,228,228,228,228,228,514,228,228,228,228,228,228,228,228,228,252,252,464,227,227,514,179,252,252,252,252,182,252,252,252,252,381,381,518,176,276,276,276,276,
381,381,381,381,381,381,382,353,353,228,228,228,538,538,538,381,381,381,381,381,381,381,381,381,381,381,381,381,381,381,381,381,352,352,352,352,538,538,176,538,538,538,538,538,538,228,228,228,228,228,228,228,228,228,228,228,228,381,615,615,227,182,229,326,327,327,327,327,327,327,380,381,381,327,327,176,276,276,276,276,
381,381,381,381,381,381,382,352,353,228,228,228,538,538,381,381,381,381,381,381,381,381,381,381,381,381,381,381,381,381,381,381,352,352,352,352,538,538,538,176,176,176,176,176,176,176,176,176,176,176,176,176,176,176,176,176,176,381,227,227,227,227,229,351,352,301,305,352,352,305,380,381,381,356,356,356,276,276,276,276,
381,381,381,381,381,381,382,352,353,228,538,538,406,406,406,406,406,406,406,406,408,381,381,381,381,381,381,381,381,381,381,381,381,381,352,352,563,563,563,563,176,176,176,176,176,176,176,176,176,176,176,176,176,176,407,176,176,340,340,340,339,340,340,2048,352,352,352,352,301,352,380,381,381,381,518,176,276,276,276,276,
381,381,381,381,381,381,382,352,353,228,538,538,593,593,377,404,352,352,352,352,405,406,406,406,406,406,406,406,406,406,408,381,381,381,352,352,228,228,228,228,228,176,176,176,176,176,176,721,721,721,721,721,721,721,721,721,721,340,340,339,340,339,340,2048,352,352,352,352,305,301,380,381,381,381,538,276,276,276,276,276,
381,381,381,381,381,381,382,352,353,538,538,538,562,563,595,351,352,352,352,352,301,352,352,301,352,352,352,352,352,352,405,406,408,381,381,352,228,228,228,228,228,228,176,176,176,176,176,721,721,721,721,721,721,721,721,721,721,340,340,340,339,340,339,2048,352,352,352,352,352,352,352,380,381,381,538,276,276,276,276,276,
381,381,381,381,381,381,382,352,353,538,538,592,566,179,595,351,352,301,352,352,352,305,306,305,352,352,352,352,352,352,352,301,405,408,381,381,538,228,228,228,228,228,228,176,176,176,176,176,176,176,176,176,176,176,228,228,228,339,339,339,340,339,340,2048,352,352,305,352,352,352,352,380,381,381,538,276,276,276,276,276,
381,381,381,381,381,381,382,305,353,538,587,228,179,254,326,329,352,352,352,352,352,305,306,306,352,352,352,352,352,352,352,352,352,405,408,381,381,381,381,381,381,381,381,381,381,381,381,381,381,381,381,381,381,381,381,381,381,340,340,340,339,340,340,2048,352,301,352,352,352,352,305,380,381,381,381,276,276,276,276,276,
381,381,381,381,381,381,382,306,353,538,587,179,254,326,329,352,352,352,301,352,352,352,305,305,352,352,352,352,352,352,301,305,352,352,380,408,381,381,381,381,381,381,381,381,381,381,381,381,381,381,381,381,381,381,381,381,381,339,339,339,340,339,340,2048,352,352,352,352,306,305,301,380,381,381,381,276,276,276,276,276,
381,381,381,381,381,381,382,352,353,538,587,229,176,351,352,352,352,352,352,352,352,352,352,352,352,352,305,352,352,352,305,301,352,352,352,406,408,381,381,381,381,381,381,381,381,381,381,381,381,381,381,381,381,381,381,381,381,381,473,473,473,473,473,473,352,352,352,352,305,352,352,380,381,381,381,276,276,276,276,276,
381,381,381,381,381,381,382,352,353,538,587,2716,151,351,352,352,352,352,352,352,352,352,352,352,352,305,301,305,352,352,305,306,305,352,352,352,405,381,381,381,381,381,381,381,381,381,381,381,381,381,381,381,381,381,381,381,381,381,230,231,205,253,179,254,352,352,352,352,352,352,352,380,381,381,381,276,276,276,276,276,
405,406,406,406,406,406,407,354,378,538,537,2732,176,262,352,352,352,352,301,352,352,352,352,352,352,352,352,352,352,352,301,305,352,301,352,305,301,405,408,381,381,381,381,381,381,381,381,381,381,381,381,381,381,381,381,381,382,379,327,328,151,226,2716,351,352,305,352,352,352,352,352,380,381,381,381,276,276,276,276,276,
376,377,377,377,377,377,377,378,402,538,587,2748,176,287,352,301,352,352,352,301,352,352,352,352,352,352,352,301,352,352,352,352,377,377,377,377,377,404,405,408,381,381,381,381,381,381,381,381,381,381,381,381,381,381,381,381,382,352,352,353,201,203,2732,351,352,352,301,352,352,352,305,380,381,381,381,276,276,276,276,276,
402,151,176,276,276,276,402,176,228,538,537,229,176,312,352,352,352,301,301,352,352,352,352,301,305,352,301,305,352,352,352,378,176,176,176,176,176,376,377,405,406,406,406,406,406,406,406,406,406,406,406,406,406,406,406,406,407,352,354,378,226,565,2748,351,352,352,352,352,301,352,301,380,381,381,381,276,276,276,276,276,
176,176,176,276,402,402,228,228,228,538,587,229,151,351,352,352,352,352,352,352,352,352,352,352,352,305,306,352,352,352,378,201,202,180,181,206,202,204,151,376,377,377,277,278,279,377,377,377,377,277,278,279,377,377,277,278,279,377,378,201,203,179,254,351,352,352,352,352,352,352,352,380,381,381,381,276,276,276,276,276,
176,176,402,378,276,276,228,228,228,538,537,2716,176,351,405,352,352,352,352,352,352,352,352,352,352,352,305,352,406,406,201,203,179,252,252,252,253,178,202,202,202,202,180,181,206,202,202,202,202,180,181,206,202,202,202,180,181,206,202,203,179,254,176,351,352,352,352,305,352,352,352,380,381,381,381,352,276,276,276,276,
176,151,176,276,276,276,276,228,228,538,587,2732,176,376,377,404,352,354,377,377,377,377,377,352,352,352,352,279,377,378,226,227,229,276,276,276,251,252,252,230,231,205,252,252,252,252,230,231,205,252,252,252,230,231,205,252,252,252,252,252,254,402,151,376,404,352,305,352,305,352,301,380,381,381,381,276,276,276,276,276,
402,151,176,151,276,276,276,228,228,538,587,2748,176,176,176,351,352,353,176,151,176,151,176,351,352,352,353,151,176,202,203,227,178,176,176,176,176,176,176,151,176,402,176,176,176,151,176,402,176,176,151,176,151,176,176,176,176,176,176,176,402,176,176,176,376,404,301,305,301,352,301,380,381,381,276,276,276,276,276,276,
176,176,176,402,378,378,228,228,228,538,587,229,176,176,176,376,377,378,176,176,176,176,151,376,377,377,378,151,176,227,2712,2713,227,228,228,228,228,228,228,228,228,228,228,228,228,228,228,228,228,228,228,228,228,228,228,228,228,228,228,228,228,228,228,228,176,376,404,301,352,352,352,380,381,381,381,404,276,276,276,276,
276,276,402,151,176,176,228,228,228,538,537,2716,176,176,176,151,176,176,402,176,176,151,176,257,176,402,176,313,313,339,339,340,340,228,228,228,228,228,228,228,228,228,228,228,228,228,228,228,228,228,228,228,228,228,228,228,228,228,228,228,228,228,228,228,228,176,376,404,352,352,352,380,381,381,381,381,469,468,468,538,
276,378,276,176,176,176,538,538,538,538,587,2748,176,151,176,176,151,228,228,228,228,228,228,228,228,228,228,313,313,339,340,340,340,228,228,228,228,228,228,228,228,228,228,228,228,228,228,228,228,228,228,228,228,228,228,228,228,228,228,228,228,228,228,228,228,228,176,376,404,352,405,380,381,381,381,381,494,228,493,538,
276,276,151,276,276,276,538,538,538,538,619,229,176,176,176,176,228,228,228,228,228,228,228,228,228,228,228,313,313,339,339,340,340,228,228,228,228,228,228,228,228,228,228,228,228,228,228,228,228,228,228,228,228,228,228,228,228,228,228,218,218,218,228,228,228,228,228,176,376,404,301,380,381,381,381,381,519,228,228,538,
469,469,469,468,468,228,538,538,538,612,179,254,176,402,228,228,228,228,228,228,228,228,228,228,228,228,228,340,339,339,340,340,340,228,228,228,228,228,228,228,228,228,228,228,228,228,228,228,228,228,228,228,228,228,228,228,228,228,228,218,218,218,228,228,228,228,228,228,176,376,404,405,408,381,381,381,228,228,228,538,
494,494,494,228,493,228,538,538,612,179,254,402,176,176,228,228,228,228,228,228,228,228,228,228,228,228,228,538,339,339,339,340,340,228,228,228,228,228,228,227,228,228,228,276,276,276,276,276,276,228,228,228,228,228,228,228,228,228,228,218,510,218,228,228,228,228,228,228,228,176,376,404,352,352,538,176,228,228,228,538,
228,228,519,228,228,228,538,612,179,254,257,176,228,228,228,228,228,538,1977,538,538,538,538,538,538,538,538,538,538,538,538,538,538,1984,1984,538,538,538,538,538,538,538,538,538,538,538,538,538,276,276,538,538,538,538,538,538,538,538,538,461,461,461,538,538,538,538,228,228,228,228,402,376,404,589,538,176,276,228,228,276,
228,228,228,228,228,228,538,179,254,402,176,228,228,228,228,228,228,538,538,538,538,538,538,538,538,538,538,538,538,538,538,538,538,2000,538,538,538,538,538,538,538,538,538,538,538,538,538,538,538,538,538,538,538,538,538,538,538,538,538,538,538,538,538,538,538,538,228,228,228,228,228,176,226,646,564,538,276,276,276,276,
228,228,228,228,228,228,538,254,176,176,228,228,228,228,228,228,228,538,538,538,538,538,538,538,538,538,538,538,562,563,563,563,563,563,513,563,563,563,563,563,563,563,563,563,563,563,563,563,563,563,563,563,563,563,563,563,563,563,563,563,513,563,567,538,538,538,228,228,228,228,228,228,251,253,646,563,276,276,276,276,
228,228,228,228,228,228,538,0,0,0,0,228,228,228,228,228,538,538,538,538,538,538,538,538,538,538,538,538,619,228,590,489,227,228,228,514,228,514,228,228,228,228,228,228,228,228,228,228,228,228,228,228,228,228,228,228,228,179,252,252,252,252,253,614,538,538,228,228,228,228,228,228,228,251,252,252,276,276,276,276,
228,228,228,228,228,228,538,0,0,0,0,228,228,228,228,538,538,538,592,563,513,563,563,563,563,563,513,566,228,228,227,228,228,228,227,228,228,228,228,538,228,228,590,228,228,228,228,228,228,228,228,228,228,228,228,228,228,229,151,326,327,328,251,253,614,538,538,228,228,228,228,228,228,228,176,176,276,276,276,276,
276,276,276,276,276,276,538,228,228,228,228,228,228,228,538,538,538,612,227,228,228,227,228,228,590,228,228,228,207,489,228,514,228,590,565,228,228,611,489,1126,1127,1128,1127,1128,1127,1128,1127,1128,1127,1128,1204,1128,1128,1128,1127,1128,1129,178,204,376,377,378,402,226,561,614,538,538,538,228,228,228,228,228,228,228,276,276,276,276,
276,276,276,276,276,276,538,228,228,228,228,228,228,539,538,538,612,228,228,489,228,228,228,227,228,228,227,228,228,228,228,227,228,228,228,597,598,574,598,1151,1152,1207,1152,1153,1130,1153,1152,1207,1152,1153,1152,1105,1207,1127,1152,1153,1154,489,178,202,180,181,206,203,489,228,614,538,538,228,228,228,228,228,228,228,276,276,276,276,
276,276,276,276,276,276,563,228,228,228,228,228,563,563,563,566,228,228,228,228,228,590,561,228,228,228,228,227,561,228,228,228,228,489,228,622,615,227,228,228,228,228,228,561,228,228,228,228,228,228,228,228,228,228,228,228,228,228,590,514,228,561,228,590,228,228,228,671,563,563,228,228,228,228,228,228,276,276,276,276,
276,276,276,276,276,276,228,228,228,530,530,529,433,530,431,530,530,530,433,530,530,530,431,530,530,530,433,433,530,431,530,530,433,530,530,463,530,530,431,530,530,433,530,530,530,530,433,431,530,433,530,530,530,433,530,530,530,530,433,530,530,530,433,530,530,433,431,530,530,433,580,580,431,530,530,530,276,276,276,276,
276,276,276,276,276,276,228,228,228,555,555,554,458,555,456,555,555,555,458,555,555,555,456,555,555,555,458,458,555,456,555,555,458,555,555,488,555,555,456,555,555,458,555,555,555,555,458,456,555,458,555,555,555,458,555,555,555,555,458,555,555,555,458,555,555,458,456,555,555,458,555,555,456,555,555,555,276,276,276,276,
276,326,302,303,304,328,538,519,228,538,587,590,228,208,228,561,228,227,228,590,228,227,228,228,228,611,228,228,228,228,228,561,228,228,208,623,228,228,228,228,182,611,228,228,590,228,227,228,228,611,228,227,228,228,228,227,228,228,228,228,228,611,228,228,228,227,228,227,228,228,611,589,538,228,228,228,276,276,276,276,
276,351,352,352,352,353,538,538,538,538,619,228,228,228,228,228,228,228,228,228,228,228,228,228,228,228,228,228,228,228,227,228,228,227,561,622,489,228,228,179,252,230,231,205,253,489,228,227,228,228,228,228,227,228,228,228,228,565,228,227,228,228,228,227,489,228,182,514,228,590,228,646,564,538,538,538,276,276,276,276,
276,351,352,352,352,353,538,538,538,612,228,228,228,228,228,228,228,228,228,228,228,228,228,228,228,228,228,228,227,489,228,228,227,228,228,625,575,228,514,229,326,327,327,328,226,228,228,228,228,228,228,514,228,228,489,228,228,228,227,228,228,228,590,179,252,230,231,231,205,252,253,228,646,564,538,538,276,276,276,276,
276,351,352,352,352,353,538,562,566,228,228,228,228,228,228,228,228,228,228,228,228,228,228,228,228,228,228,228,228,179,230,205,252,252,253,514,622,489,228,229,376,377,377,378,226,182,228,590,228,179,230,231,231,205,252,252,253,182,228,228,208,228,228,229,326,327,327,327,327,328,226,228,228,589,538,538,276,276,276,276,
276,351,352,352,352,353,538,537,228,207,228,228,228,228,228,228,228,228,228,228,228,228,228,228,228,228,228,228,182,229,326,327,328,255,226,228,623,228,228,178,180,181,206,202,203,228,227,228,179,254,326,302,303,304,328,176,2717,514,228,228,228,228,514,2716,351,305,352,352,352,353,2717,514,228,539,538,538,276,276,276,276,
276,351,352,352,352,353,538,587,228,228,561,228,228,228,228,228,228,228,228,228,228,228,228,228,228,228,228,514,179,254,351,352,379,328,2717,182,622,615,228,489,228,590,182,228,228,228,228,228,229,176,351,352,305,352,353,176,2733,228,228,227,228,228,182,2732,376,404,352,352,352,353,2733,590,228,589,538,538,276,276,276,276,
276,351,352,352,352,353,538,587,228,514,228,228,228,228,228,228,228,228,228,228,228,228,228,228,228,228,228,514,229,176,351,352,305,353,2733,228,622,228,561,228,228,228,228,228,227,228,228,228,2716,176,351,352,305,352,353,176,2749,228,228,228,228,227,228,2748,176,351,352,352,352,353,2749,228,228,589,538,276,276,276,276,276,
276,351,352,352,352,353,538,587,228,228,228,228,228,228,228,228,228,228,228,228,228,228,228,228,228,228,228,514,229,255,351,305,352,353,2749,228,622,615,227,228,228,228,228,228,514,228,227,228,2732,326,329,352,305,352,379,328,251,252,253,228,228,228,182,229,176,351,352,352,352,353,2717,590,228,589,538,276,276,276,276,276,
276,351,352,352,352,353,538,587,228,228,228,228,228,228,228,228,228,228,228,228,228,228,228,228,228,228,228,228,178,204,351,352,354,378,226,565,622,228,228,228,228,228,207,228,227,228,228,489,2748,376,404,305,352,352,305,379,327,328,226,489,228,228,228,178,204,376,404,352,305,353,2733,228,228,589,538,276,276,276,276,276,
276,351,352,352,352,353,538,537,228,228,228,228,228,228,228,228,228,228,228,228,181,206,202,228,228,228,228,228,561,229,376,377,378,201,203,514,623,208,228,227,228,227,228,228,228,228,228,228,178,204,376,377,277,278,279,377,377,378,226,228,228,228,228,590,178,204,376,377,377,378,2749,228,228,589,538,276,276,276,276,276,
276,351,352,352,352,353,538,587,228,464,228,228,228,228,228,228,228,228,228,228,228,228,228,228,228,228,228,228,228,229,176,255,201,203,228,597,621,228,228,228,228,228,228,561,228,228,227,228,514,178,202,202,180,181,181,206,202,202,203,228,228,228,489,228,514,178,202,180,181,206,203,228,228,589,538,538,276,276,276,276,
276,376,277,352,279,378,538,587,228,228,228,228,228,228,228,228,228,228,228,228,228,228,228,228,228,228,228,228,182,178,202,202,203,183,228,622,489,228,228,590,228,228,227,228,228,228,228,228,228,228,227,565,182,228,228,227,514,228,228,228,227,228,228,228,228,228,228,590,228,228,514,207,228,539,538,538,276,276,276,276,
276,276,276,276,276,276,538,537,228,232,228,489,228,590,228,228,550,561,228,514,624,599,600,228,563,228,177,464,228,228,228,228,228,228,586,623,228,228,228,228,228,227,228,227,228,228,227,228,227,228,228,228,228,227,228,228,228,227,228,232,228,227,228,228,208,228,228,228,228,228,228,228,228,589,538,538,276,276,276,276,
276,276,276,276,276,276,228,587,228,228,228,228,228,228,228,208,625,598,574,598,598,598,598,574,598,598,574,598,598,598,598,598,574,598,598,573,228,561,228,228,489,228,228,228,228,228,228,228,228,228,228,228,228,228,228,228,228,228,228,228,228,228,228,228,228,228,228,228,228,228,228,228,228,589,538,538,276,276,276,276,
276,276,276,276,276,276,176,587,228,228,228,228,228,328,228,228,228,228,611,228,228,228,514,611,228,228,228,611,228,228,228,252,252,253,561,622,228,228,228,228,228,228,228,228,228,228,228,514,228,228,228,228,228,228,228,228,228,228,228,228,228,228,228,228,228,228,228,228,228,228,228,228,228,589,538,228,276,276,276,276,
176,176,176,276,276,276,176,176,176,176,176,176,176,379,327,327,176,176,176,176,176,176,176,176,176,228,228,228,228,228,228,327,328,251,253,623,615,228,227,228,228,228,228,228,561,228,228,228,228,228,228,228,228,228,228,228,228,228,228,228,228,228,228,228,228,228,228,228,228,228,228,228,228,589,538,228,276,276,276,276,
176,176,176,176,176,176,176,176,176,176,176,176,176,176,176,176,176,176,176,176,176,176,176,176,357,176,176,356,176,176,176,352,379,328,226,622,182,228,228,228,228,228,228,228,228,228,228,228,228,228,228,228,228,228,228,228,228,228,228,228,228,228,228,228,228,228,228,228,228,228,228,228,228,589,538,228,276,276,276,276
</data>
 </layer>
 <layer id="3" name="Back2" width="80" height="110">
  <data encoding="csv">
0,0,0,39,40,41,0,0,0,0,0,0,0,0,0,0,0,0,0,0,0,0,0,0,0,0,0,0,0,0,0,0,0,0,0,0,0,0,0,0,0,0,0,0,0,0,0,0,0,0,0,0,0,0,0,0,0,0,0,0,0,0,0,0,0,0,0,0,0,0,0,0,0,0,14,15,16,0,0,0,
0,0,0,64,65,66,0,0,0,0,0,0,0,0,0,0,0,0,0,0,0,0,0,0,0,0,0,0,0,0,0,0,0,0,0,0,0,0,0,0,0,0,0,0,0,0,0,0,0,0,0,0,0,0,0,0,0,0,0,0,0,0,0,0,0,0,0,0,0,0,0,0,0,0,39,40,41,0,0,0,
0,0,0,0,0,0,0,0,0,0,0,0,0,0,0,0,0,0,0,0,0,0,0,0,0,0,0,0,0,0,0,0,0,0,0,0,0,0,0,0,0,0,0,0,0,0,0,0,0,0,0,0,0,0,0,0,0,0,0,0,0,0,0,0,0,0,0,0,0,0,0,0,0,0,64,65,66,0,0,0,
0,14,15,16,0,0,0,0,0,0,0,0,0,0,0,0,0,0,0,0,0,0,0,0,0,0,0,0,0,0,0,0,0,0,0,0,0,0,0,0,0,0,0,0,0,0,0,0,0,0,0,0,0,0,0,0,0,0,0,0,0,0,0,0,0,0,0,0,0,0,0,0,0,0,0,0,0,0,0,0,
0,39,40,41,0,0,0,0,0,0,0,0,0,0,0,0,0,0,0,0,0,0,0,0,0,0,0,0,0,0,0,0,0,0,0,0,0,0,0,0,0,0,0,0,0,0,0,0,0,0,0,0,0,0,0,0,0,0,0,0,0,0,0,0,0,0,0,0,0,0,0,0,0,0,0,0,0,0,0,0,
0,64,65,66,0,0,0,0,0,0,0,0,0,0,0,0,0,0,0,0,0,0,0,0,0,0,0,0,0,0,0,0,0,0,0,0,0,0,0,0,0,0,0,0,0,0,0,0,0,0,0,0,0,0,0,0,0,0,0,0,0,0,0,0,0,0,0,0,0,0,0,0,0,0,0,0,0,0,0,0,
0,0,0,0,0,0,0,0,0,0,0,0,0,0,0,0,0,0,0,0,0,0,0,0,0,0,0,0,0,0,0,0,0,0,0,0,0,0,0,0,0,0,0,0,0,0,0,0,0,0,0,0,0,0,0,0,0,0,0,0,0,0,0,0,0,0,0,0,0,0,0,0,0,0,0,0,0,0,0,0,
0,0,0,0,0,0,0,0,0,0,0,0,0,0,0,0,0,0,0,0,0,0,0,0,0,0,0,0,0,0,0,0,0,0,0,0,0,0,0,0,0,0,0,0,0,0,0,0,0,0,0,0,0,0,0,0,0,0,0,0,0,0,0,0,0,0,0,0,0,0,0,0,0,0,0,0,0,0,0,157,
0,0,112,0,0,0,0,0,0,0,0,0,0,0,0,0,0,0,0,0,0,0,0,0,0,0,0,0,0,0,0,0,0,0,0,0,0,0,0,0,0,0,0,0,0,0,0,0,0,0,0,0,0,0,0,0,0,0,0,0,0,0,0,0,0,0,0,544,0,0,0,0,0,0,0,0,0,0,14,15,
0,0,137,0,0,0,0,0,0,0,0,0,0,0,0,0,0,0,0,0,0,0,0,0,0,0,0,0,0,0,0,0,0,0,0,0,0,0,0,0,0,0,0,0,0,0,0,0,0,0,0,0,0,0,0,0,0,0,0,0,0,0,0,0,0,0,0,0,0,0,0,0,0,0,0,0,0,0,39,40,
0,0,0,0,0,0,0,0,0,0,0,0,0,0,0,0,0,0,0,0,0,0,0,0,0,0,0,0,0,0,0,0,0,0,0,0,0,0,0,0,0,0,0,0,0,0,0,0,0,0,0,0,0,0,0,0,0,0,0,0,0,0,0,0,0,0,0,0,0,0,0,0,0,0,0,0,0,0,64,65,
0,0,0,0,0,0,0,0,0,0,0,0,0,0,0,0,0,0,0,0,0,0,0,0,0,0,0,0,0,0,0,0,0,0,0,0,0,0,0,0,0,0,0,0,0,0,0,0,0,0,0,0,0,0,0,0,0,0,0,0,0,0,0,0,0,0,0,0,0,0,0,0,0,0,0,0,0,0,0,0,
0,157,0,0,0,0,0,0,0,0,0,0,0,0,0,0,0,0,0,0,0,0,0,0,0,0,0,0,0,0,0,0,0,0,0,0,0,0,0,0,0,0,0,0,0,0,0,0,0,0,0,0,0,0,0,0,0,0,0,0,0,0,0,0,0,0,0,0,0,0,0,0,0,0,0,0,0,0,0,0,
0,0,0,0,0,0,0,0,0,0,0,0,0,0,0,0,0,0,0,0,0,0,0,0,0,0,0,0,0,0,0,0,0,0,0,0,0,0,0,0,0,0,0,0,0,0,0,0,0,0,0,0,0,0,0,0,0,3104,3104,3104,3104,3104,3106,0,0,0,0,0,0,0,0,0,0,0,0,0,0,0,0,0,
0,0,0,0,157,0,0,0,0,0,0,0,0,0,0,0,0,0,0,0,0,0,0,0,0,0,0,0,0,0,0,0,0,0,0,0,0,0,0,0,0,0,0,0,0,0,0,0,0,0,0,0,0,0,0,0,0,0,0,0,0,0,0,0,0,0,0,0,0,0,0,0,0,0,0,0,0,0,0,0,
157,0,0,0,0,0,0,0,0,0,0,0,0,0,0,0,0,0,0,0,0,0,0,0,0,0,0,0,0,0,0,0,0,0,0,0,0,0,0,0,0,0,0,0,0,0,0,0,0,0,0,0,0,0,0,0,0,0,0,0,0,0,0,0,0,0,0,0,0,0,0,0,0,0,0,0,0,0,0,0,
157,0,0,157,0,0,0,0,0,0,0,0,0,0,0,0,0,0,0,0,0,0,0,0,0,0,0,0,0,0,0,0,0,0,0,0,0,0,0,0,0,0,0,0,0,0,0,0,0,0,0,0,0,0,0,0,0,0,0,0,0,0,0,0,0,0,0,0,0,0,0,0,0,0,0,0,0,0,0,0,
15,16,157,0,0,0,0,0,0,0,0,0,0,0,0,0,0,0,0,0,0,0,0,0,0,0,0,0,0,0,0,0,0,0,0,0,0,0,0,0,0,0,0,0,0,0,0,0,0,0,0,0,0,0,0,0,0,0,0,0,0,0,0,0,0,0,0,0,0,0,0,0,0,0,0,0,0,0,0,0,
40,41,14,15,16,0,0,0,0,0,0,0,0,0,0,0,0,0,0,0,0,0,0,0,0,0,0,0,0,0,0,0,0,0,0,0,0,0,0,0,0,0,0,0,0,0,0,0,0,0,0,0,0,0,0,0,0,0,0,0,0,0,0,0,0,0,0,0,0,0,0,0,0,0,0,0,0,0,0,0,
65,66,39,40,41,0,0,0,0,0,0,0,0,0,0,0,0,0,0,0,0,0,0,0,0,0,0,0,0,0,0,0,0,0,0,0,0,0,0,0,0,0,0,0,0,0,0,0,0,0,0,0,0,0,0,0,0,0,0,0,0,0,0,0,0,0,0,0,0,0,0,0,0,0,0,0,0,0,0,0,
0,0,64,65,66,0,0,0,0,0,0,0,0,0,0,0,0,0,0,0,0,0,0,0,0,0,0,0,0,0,0,0,0,0,0,0,0,0,0,0,0,0,0,0,0,0,0,0,0,0,0,0,0,0,0,0,0,0,0,0,0,0,0,0,0,0,0,0,0,0,0,0,0,0,0,0,0,0,0,0,
0,0,0,0,0,0,0,0,0,0,0,0,0,0,0,0,0,0,0,0,0,0,0,0,0,0,0,0,0,0,0,0,0,0,0,0,0,0,0,0,0,0,0,0,0,0,0,0,0,0,0,0,0,0,0,0,0,0,0,0,0,0,0,0,0,0,0,0,0,0,0,0,0,0,0,0,0,0,0,0,
0,0,0,0,0,0,0,0,0,0,0,0,0,0,0,0,0,0,0,0,0,0,0,0,0,0,0,0,0,0,0,0,0,0,0,0,0,0,0,0,0,0,0,0,0,0,0,0,0,0,0,0,0,0,0,0,0,0,0,0,0,0,0,0,0,0,0,0,0,0,0,0,0,0,0,0,0,0,0,0,
0,0,0,0,0,0,0,0,0,0,0,0,0,0,0,0,0,0,0,0,0,0,0,0,0,0,0,0,0,0,0,0,0,0,0,0,0,0,0,0,0,0,0,0,0,0,0,0,0,0,0,0,0,0,0,0,0,0,0,0,0,0,0,0,0,0,0,0,0,0,0,0,0,0,0,0,0,0,0,0,
0,0,0,0,0,0,0,0,0,0,0,0,0,0,0,0,0,0,0,0,0,0,0,0,0,0,0,0,0,0,0,0,0,0,0,0,0,0,0,0,0,0,0,0,0,0,0,0,0,0,0,0,0,0,0,0,0,0,0,0,0,0,0,0,0,0,0,0,0,0,0,0,0,0,0,0,0,0,0,0,
0,0,0,0,0,0,0,0,0,0,0,0,0,0,0,0,0,0,0,0,0,0,0,0,0,0,0,0,0,0,0,0,0,0,0,0,0,0,0,0,0,0,0,0,0,0,0,0,0,0,0,0,0,0,0,0,0,0,0,0,0,0,0,0,0,0,0,0,0,0,0,0,0,0,0,0,0,0,0,0,
0,0,0,0,0,0,0,0,0,0,0,0,0,0,0,0,0,0,0,0,0,0,0,0,0,0,0,0,0,0,0,0,0,0,0,0,0,0,0,0,0,0,0,0,0,0,0,0,0,0,0,0,0,0,0,0,0,0,0,0,0,0,0,0,0,0,0,0,0,0,0,0,0,0,0,0,0,0,0,0,
0,0,0,0,0,0,0,0,0,0,0,0,0,0,0,0,0,0,0,0,0,0,0,0,0,0,0,0,0,0,0,0,0,0,0,0,0,0,0,0,0,0,0,0,0,0,0,0,0,0,0,0,0,0,0,0,0,0,0,0,0,0,0,0,0,0,0,0,0,0,0,0,0,0,0,0,0,0,0,0,
0,0,0,0,0,0,0,0,0,0,0,0,0,0,0,0,0,0,0,0,0,0,0,0,0,0,0,0,0,0,0,0,0,0,0,0,0,0,0,0,0,0,0,0,0,0,0,0,0,0,0,0,0,0,0,0,0,0,0,0,0,0,0,0,0,0,0,0,0,0,0,0,0,0,0,0,0,0,0,0,
0,0,0,0,0,0,0,0,0,0,0,0,0,0,0,0,0,0,0,0,0,0,0,0,0,0,0,0,3104,3104,3104,3104,0,0,0,157,0,0,0,0,0,0,0,0,0,0,0,0,0,0,0,0,0,0,0,0,0,0,0,0,0,0,0,0,0,0,0,0,0,0,0,0,0,0,0,0,0,0,0,0,
0,0,0,0,0,0,0,0,0,0,0,0,0,0,0,0,0,0,0,0,0,0,0,0,0,0,0,0,0,0,0,0,0,0,0,157,0,0,0,0,0,0,0,0,0,0,0,0,0,0,0,0,0,0,0,0,0,0,0,0,0,0,0,0,0,0,0,0,0,0,0,0,0,0,0,0,0,0,0,0,
0,0,0,0,0,0,0,0,0,0,0,0,0,0,0,0,0,0,0,0,0,0,0,0,0,0,0,0,0,0,0,0,0,0,0,157,0,0,0,0,0,0,0,0,0,0,0,0,0,0,0,0,0,0,0,0,0,0,0,0,0,0,0,0,0,0,0,0,0,0,0,0,0,0,0,0,0,0,0,0,
0,0,0,0,0,0,0,0,0,0,0,0,0,0,0,0,0,0,0,0,0,0,0,0,0,0,0,0,3104,0,0,0,0,0,0,157,157,0,0,0,0,0,0,0,0,0,0,0,0,0,0,0,0,0,0,0,0,0,0,0,0,0,0,0,0,0,0,0,0,0,0,0,0,0,0,0,0,0,0,0,
0,0,0,0,0,0,0,0,0,0,0,0,0,0,0,0,0,0,0,0,0,0,0,0,0,0,0,0,0,0,0,0,0,0,0,0,157,0,0,0,0,0,0,0,0,0,0,0,0,0,0,0,0,0,0,0,0,0,0,0,0,0,0,0,0,0,0,0,0,0,0,0,0,0,0,0,0,0,0,0,
0,0,0,0,0,0,0,0,0,0,0,0,0,0,0,0,0,0,0,0,0,0,0,0,0,0,0,0,0,0,0,0,0,0,0,0,0,0,0,0,0,0,0,0,0,0,0,0,0,0,0,0,0,0,0,0,0,0,0,0,0,0,0,0,0,0,0,0,0,0,0,0,0,0,0,0,0,0,0,0,
0,0,0,0,0,0,0,0,0,0,0,0,0,0,0,0,0,0,0,0,0,0,0,0,0,0,0,0,3104,0,0,0,0,0,0,0,0,0,0,0,0,0,0,0,0,0,0,0,0,0,0,0,0,0,0,0,0,0,0,0,0,0,0,0,0,0,0,0,0,0,0,0,0,0,0,0,0,0,0,0,
0,0,0,0,0,0,0,0,0,0,0,0,0,0,0,0,0,0,0,0,0,0,0,0,0,0,0,0,0,0,0,0,0,0,0,0,0,0,0,0,0,0,0,0,0,0,0,0,0,0,0,0,0,0,0,0,0,0,0,0,0,0,0,0,0,0,0,0,0,0,0,0,0,0,0,0,0,0,0,0,
0,0,0,0,0,0,0,0,0,0,0,0,0,0,0,0,0,0,0,0,0,0,0,0,0,0,0,0,0,0,0,0,0,0,0,0,0,0,0,0,0,0,0,0,0,0,0,0,0,0,0,0,0,0,0,0,0,0,0,0,0,0,0,0,0,0,0,0,0,0,0,0,0,0,0,0,0,0,0,0,
0,0,0,0,0,0,0,0,0,0,0,0,0,0,0,0,0,0,0,0,0,0,0,0,0,0,0,0,3124,3124,3124,0,0,0,0,0,0,0,0,0,0,0,0,0,0,0,0,0,0,0,0,0,0,0,0,0,0,0,0,0,0,0,0,0,0,0,0,0,0,0,0,0,0,0,0,0,0,0,0,0,
0,0,0,0,0,0,0,0,0,0,0,0,0,0,0,0,0,0,0,0,0,0,255,0,0,0,0,0,0,0,0,0,0,0,0,0,0,0,0,0,0,0,0,0,0,0,0,0,0,0,0,0,0,0,0,0,0,0,157,0,0,0,0,0,0,0,0,0,0,0,0,0,0,0,0,0,0,0,0,0,
0,0,0,0,0,0,0,0,0,0,0,0,0,0,0,0,0,0,0,0,0,0,255,0,0,0,0,0,0,0,0,0,0,0,0,255,0,0,0,255,0,0,0,0,0,0,0,0,0,0,0,0,0,0,0,0,0,0,0,0,0,0,0,0,0,0,0,0,0,0,0,0,0,0,0,0,0,0,0,0,
0,0,0,0,0,0,0,0,0,0,0,0,0,0,0,0,0,0,0,0,0,0,0,0,0,0,0,0,0,0,0,0,0,0,0,0,0,0,0,0,0,0,0,0,0,0,0,0,0,0,0,0,0,0,0,0,0,0,0,0,0,0,0,0,0,0,0,0,0,0,0,0,0,0,0,0,0,0,0,0,
0,0,0,0,0,0,0,0,0,0,0,0,0,0,0,0,0,0,0,0,0,0,0,0,0,0,0,0,0,0,0,0,0,0,0,0,0,0,0,0,0,0,0,0,0,0,0,0,0,0,0,0,0,0,0,0,0,0,0,0,0,0,0,0,0,0,0,0,0,0,0,0,0,0,0,0,0,0,0,0,
0,0,0,0,0,0,0,0,0,0,0,0,0,0,0,0,0,0,0,0,0,0,0,0,0,0,0,0,0,0,0,0,0,0,0,0,0,0,0,255,0,0,0,0,0,0,0,0,0,0,0,0,0,14,15,16,0,0,0,0,0,0,0,0,0,0,0,0,0,0,157,0,0,0,0,0,0,0,0,0,
0,0,0,0,0,0,0,0,0,0,0,0,157,0,0,0,0,0,0,0,0,0,0,0,0,0,0,0,0,0,0,0,0,0,0,0,0,0,0,0,0,0,0,0,0,0,0,0,0,0,0,0,0,39,40,41,0,0,0,0,0,0,0,0,0,0,0,0,0,0,0,0,0,0,0,0,0,0,0,0,
0,0,0,0,0,0,0,0,0,0,0,0,0,0,0,0,0,0,0,0,0,0,0,0,0,0,0,0,0,0,0,0,0,0,0,0,0,0,0,0,0,0,0,0,0,0,0,0,0,0,0,0,255,64,65,66,0,0,0,0,0,0,0,0,0,0,0,0,0,0,0,0,0,0,0,157,0,0,0,0,
0,0,0,0,0,0,0,0,0,0,0,157,0,0,0,0,0,0,0,0,0,0,0,0,0,0,0,0,0,0,0,0,0,0,0,0,0,0,0,0,0,0,255,0,0,0,0,0,0,0,0,0,0,0,0,0,0,255,0,0,0,0,0,14,15,16,0,0,0,0,0,0,0,157,0,0,0,0,0,0,
0,0,0,0,0,0,0,0,0,0,0,0,0,0,0,0,0,0,0,0,0,0,0,0,0,0,0,0,0,0,0,0,0,0,0,0,0,0,0,0,0,0,0,0,0,0,255,0,0,0,0,0,0,0,0,0,0,0,0,0,0,0,0,39,40,41,0,0,0,0,0,0,0,0,0,0,0,157,0,0,
0,0,0,0,0,0,0,0,0,0,0,0,0,0,0,0,0,0,0,0,0,0,0,0,0,0,0,0,0,0,0,0,0,0,0,0,0,0,0,0,0,0,0,0,255,0,0,0,255,0,255,0,0,0,255,0,0,0,255,0,0,255,0,64,65,66,0,0,0,0,0,0,0,0,0,0,0,0,0,0,
0,0,0,0,0,0,0,0,0,0,0,0,0,0,0,0,0,0,0,0,0,0,0,0,0,0,0,0,0,0,0,0,0,0,0,0,0,0,0,0,0,0,0,0,0,0,0,0,0,0,0,0,0,0,0,0,0,0,0,0,0,0,0,0,0,0,0,0,0,0,0,0,0,0,0,0,0,0,0,0,
0,0,0,0,0,0,0,0,0,0,0,0,0,0,0,0,0,0,0,0,0,0,0,0,0,0,0,0,0,0,0,0,0,0,0,0,0,0,0,0,0,0,0,0,0,0,0,0,0,0,0,0,0,0,0,0,0,0,0,0,0,0,0,0,0,0,0,0,0,0,0,0,0,0,0,0,0,0,0,0,
0,0,0,0,0,157,0,0,0,0,0,0,0,0,0,0,0,0,0,0,0,0,0,0,0,0,0,0,0,0,0,0,0,0,0,0,0,0,0,0,0,0,0,0,0,0,0,0,0,0,0,0,0,0,0,0,0,0,0,0,0,0,0,0,0,0,0,0,0,0,0,0,0,0,0,0,0,0,0,0,
0,0,0,0,0,0,0,0,0,0,0,0,0,0,0,0,0,0,0,0,0,0,0,0,0,0,0,0,0,0,0,0,0,0,0,0,0,0,0,0,0,0,0,0,0,0,0,0,0,0,0,0,0,0,0,0,0,0,0,0,0,0,0,0,0,0,0,0,0,0,0,0,0,0,0,0,0,0,0,0,
0,0,0,0,0,157,0,0,0,0,0,0,0,0,0,0,0,0,0,0,0,0,0,0,0,0,0,0,0,0,0,0,0,0,0,0,0,0,0,0,0,0,0,0,0,0,0,0,0,0,0,0,0,0,0,0,0,0,0,0,0,0,0,0,0,0,0,0,0,0,0,0,0,0,0,0,306,0,0,0,
0,0,0,0,0,0,0,0,0,0,0,0,0,0,0,0,0,0,0,0,0,0,0,0,0,0,0,0,0,0,0,0,0,0,0,0,0,0,0,0,0,0,0,0,0,0,0,0,0,0,0,0,0,0,0,0,0,0,0,0,0,0,0,0,0,0,0,0,0,0,0,0,0,0,0,0,0,0,0,0,
0,157,0,0,0,0,0,0,0,0,0,0,0,0,0,0,0,0,0,0,0,0,0,0,0,0,0,0,0,0,0,0,0,0,0,0,0,0,0,0,0,0,0,0,0,0,0,0,0,0,0,0,0,0,0,0,0,0,0,0,0,0,0,0,0,0,0,0,0,0,0,0,0,0,0,0,306,306,0,0,
0,0,0,0,0,0,0,0,0,0,0,0,0,0,0,0,0,0,0,0,0,0,0,0,0,0,0,0,0,0,0,0,0,0,0,0,0,0,0,0,0,0,0,0,0,0,0,0,0,0,0,0,0,0,0,0,0,0,0,0,0,0,0,0,0,0,0,0,544,0,0,0,0,0,0,0,0,0,0,0,
0,0,0,0,0,0,0,0,0,0,0,0,0,0,0,0,0,0,0,0,0,0,0,0,0,0,0,0,0,0,0,0,0,0,0,0,0,0,0,0,0,0,0,0,0,0,0,0,0,0,0,0,0,0,0,0,0,0,0,0,0,0,0,0,0,0,0,0,0,0,0,0,0,0,0,0,0,0,0,0,
0,0,0,0,0,0,0,0,0,0,0,0,0,0,0,0,0,0,0,0,0,0,0,0,0,0,0,0,0,0,0,0,0,0,0,0,0,0,0,0,0,0,0,0,0,0,0,0,0,0,0,0,0,0,0,0,0,0,0,0,0,0,0,563,563,0,0,0,0,0,0,0,0,0,0,0,0,0,0,0,
0,0,0,0,0,0,0,0,0,0,0,0,0,0,0,0,0,0,0,0,0,0,0,0,0,0,0,0,0,0,0,0,0,0,0,0,0,0,0,0,0,0,0,0,0,0,0,0,0,0,0,0,0,0,0,0,0,0,0,0,0,0,0,0,0,0,0,0,0,0,0,0,0,0,0,0,0,255,0,0,
0,0,157,0,0,0,0,0,0,0,0,0,0,0,0,0,0,0,0,0,0,0,0,0,0,0,0,0,0,0,0,0,0,0,0,0,0,0,0,0,0,0,0,0,0,0,0,0,0,0,0,0,0,0,0,0,0,0,0,0,0,0,0,0,0,0,0,0,0,0,0,0,0,0,0,0,0,0,0,0,
0,0,0,0,0,0,0,0,0,0,0,0,0,0,0,0,0,0,0,0,0,0,0,0,0,0,0,0,0,0,0,0,0,0,0,0,0,0,0,0,0,0,0,0,0,0,0,0,0,0,0,0,0,0,0,0,0,0,3104,3104,3104,3104,3104,3106,0,0,0,0,0,0,0,0,0,0,0,0,255,0,0,0,
0,0,0,0,0,0,0,0,0,0,0,0,0,0,0,0,0,0,0,0,0,0,0,0,0,0,0,0,0,0,0,0,0,0,0,0,0,0,0,0,0,0,0,0,0,0,0,0,0,0,0,0,0,0,0,0,0,0,0,0,0,0,0,0,0,0,0,0,0,0,0,157,0,0,0,0,0,0,0,0,
0,0,0,0,0,0,0,0,0,0,0,0,0,0,0,0,0,0,0,0,0,0,0,0,0,0,0,0,0,0,0,0,0,0,0,0,0,0,0,0,0,0,0,0,0,0,0,0,0,0,0,0,0,0,0,0,0,0,0,0,0,0,0,0,0,0,0,0,0,0,0,0,0,0,0,0,0,0,0,0,
0,0,0,0,0,0,0,0,0,0,0,0,0,0,0,0,0,0,0,0,0,0,0,0,0,0,0,0,0,0,0,0,0,0,0,0,0,0,0,0,0,0,0,0,0,0,0,0,0,0,0,0,0,0,0,0,0,0,0,0,0,0,0,0,0,0,0,0,0,0,0,0,0,157,0,0,0,0,255,0,
0,0,0,0,0,0,0,0,0,0,0,0,0,0,0,0,0,0,0,0,0,0,0,0,0,0,0,0,0,0,0,0,0,0,0,0,0,0,0,0,0,0,0,0,0,0,0,0,0,0,0,0,0,0,0,0,0,0,0,0,0,0,0,0,0,0,0,0,0,0,0,0,0,0,0,0,0,0,0,0,
0,0,0,0,0,0,0,0,0,0,0,0,0,0,0,0,0,0,0,0,0,0,0,0,0,0,0,0,0,0,0,0,0,0,0,0,0,0,0,0,0,0,0,0,0,0,0,0,0,0,0,0,0,0,0,0,0,0,0,0,0,0,0,0,0,0,0,0,0,0,0,0,0,0,0,0,0,0,0,0,
0,0,0,0,0,0,0,0,0,0,0,0,0,0,0,0,0,0,0,0,0,0,0,0,0,0,0,0,0,0,0,0,0,0,0,0,0,0,0,0,0,0,0,0,0,0,0,0,0,0,0,0,0,0,0,0,0,0,0,0,0,0,0,0,0,0,0,0,0,0,0,0,157,0,0,0,0,0,0,0,
0,0,0,0,0,0,0,306,0,0,0,0,0,0,0,0,0,0,0,0,0,0,0,0,0,0,0,0,0,0,0,0,0,0,0,0,0,0,0,0,0,0,0,0,0,0,0,0,0,0,0,0,0,0,0,0,0,0,0,0,0,0,0,0,0,0,0,0,0,0,0,0,0,0,0,0,0,0,255,0,
0,0,0,0,0,0,0,0,0,0,0,0,0,0,0,0,0,0,0,0,0,0,0,0,0,0,0,0,0,0,0,0,0,0,0,0,0,0,0,0,0,0,0,0,0,0,0,0,0,0,0,0,0,0,0,0,0,0,0,0,0,0,0,0,0,0,0,0,0,0,0,0,0,0,0,0,0,0,0,0,
0,0,0,0,0,0,0,0,0,0,0,0,0,0,0,0,301,0,0,0,0,0,0,0,0,0,0,0,0,0,0,0,0,0,0,0,0,0,0,0,0,0,0,0,0,0,0,0,0,0,0,0,0,0,0,0,0,0,0,0,0,0,0,0,0,0,0,0,0,0,0,0,0,0,0,0,0,0,0,0,
0,0,0,0,0,0,0,0,0,0,0,0,0,0,0,0,0,0,0,0,0,0,0,0,0,0,0,0,0,0,0,0,0,0,0,0,0,0,0,0,0,0,0,0,0,0,0,0,0,0,0,0,0,0,0,0,0,0,0,0,0,0,0,0,0,0,0,0,0,0,0,0,0,0,0,0,0,0,0,0,
0,0,0,0,0,0,0,0,0,0,0,0,0,0,0,0,0,0,0,0,0,0,0,0,0,0,0,0,0,0,0,0,0,0,0,0,0,0,0,0,0,0,0,0,0,0,0,0,0,0,0,0,0,0,0,0,0,0,0,0,0,0,0,0,0,0,0,0,0,0,0,0,0,0,0,0,0,0,0,0,
0,0,0,0,0,0,0,0,0,0,0,0,0,0,0,0,0,0,0,0,0,0,0,0,0,0,0,0,0,0,0,0,0,0,0,0,0,0,0,0,0,0,0,0,0,0,0,0,0,0,0,0,0,0,0,0,0,0,0,0,0,0,0,0,0,0,0,0,0,0,0,0,0,0,0,0,0,0,0,0,
0,0,0,0,0,0,0,0,0,0,0,0,0,0,0,0,0,0,0,0,0,0,0,0,0,0,0,0,0,0,0,0,0,0,0,0,0,0,0,0,0,0,0,0,0,0,0,0,0,0,0,0,0,0,0,0,0,0,0,0,0,0,0,0,0,0,0,0,0,0,0,0,0,0,0,0,0,0,0,0,
0,0,0,0,0,0,0,0,0,0,0,0,0,0,0,0,0,0,0,0,0,0,0,0,0,0,0,0,0,0,0,0,0,0,0,0,0,0,0,0,0,0,0,0,0,0,0,0,0,0,0,0,0,0,0,0,0,0,0,0,0,0,0,0,0,0,0,0,0,0,0,0,0,0,0,0,0,0,0,0,
0,0,255,0,0,0,0,0,0,0,0,0,0,0,0,0,0,0,0,0,0,0,0,0,0,0,0,0,0,0,0,0,0,0,0,0,0,0,0,0,0,0,0,0,0,0,0,0,0,0,0,0,0,0,0,0,0,0,0,0,0,0,0,0,0,0,0,0,0,0,0,0,0,0,0,0,0,0,0,0,
0,0,0,0,0,0,0,0,0,0,0,0,0,0,0,0,0,0,0,0,0,0,0,0,0,0,0,0,0,3104,3104,3104,3104,0,0,0,0,0,0,0,0,0,0,0,0,0,0,0,0,0,0,0,0,0,0,0,0,0,0,0,0,0,0,0,0,0,0,0,0,0,0,0,0,0,0,0,0,0,0,0,
0,0,0,0,0,0,0,0,0,0,0,0,0,0,0,0,0,0,0,0,0,0,0,0,0,0,0,0,0,0,0,0,0,0,0,0,0,0,0,0,0,0,0,0,0,0,0,0,0,0,0,0,0,0,0,0,0,0,0,0,0,0,0,0,0,0,0,0,0,0,0,0,0,0,0,0,0,0,0,0,
0,0,0,0,0,0,0,0,0,0,0,0,0,0,0,0,0,0,0,0,0,0,0,0,0,0,0,0,0,0,0,0,0,0,0,0,0,0,0,0,0,0,0,0,0,0,0,0,0,0,0,0,0,0,0,0,0,0,0,0,0,0,0,0,0,0,0,0,0,0,0,0,0,0,0,0,0,0,0,0,
0,0,0,0,0,0,0,0,0,0,0,0,0,0,0,0,0,0,0,0,0,0,0,0,0,0,0,0,0,0,0,0,0,0,0,0,0,0,0,0,0,0,0,0,0,0,0,0,0,0,0,0,0,0,0,0,0,0,0,0,0,0,0,0,0,0,0,0,0,0,0,0,0,0,0,0,0,0,0,0,
0,0,0,0,0,0,0,0,0,0,0,0,0,0,0,0,0,0,0,0,0,0,0,0,0,0,0,0,0,0,0,0,0,0,0,0,0,0,0,0,0,0,0,0,0,0,0,0,0,0,0,0,0,0,0,0,0,0,0,0,0,0,0,0,0,0,0,0,0,0,0,0,0,0,0,0,0,0,0,0,
0,0,0,0,0,0,0,0,0,0,0,0,0,0,0,0,0,0,0,0,0,0,0,0,0,0,0,0,0,0,0,0,0,0,0,0,0,0,0,0,0,0,0,0,0,0,0,0,0,0,0,0,0,0,0,0,0,0,0,0,0,0,0,0,0,0,0,0,0,0,0,0,0,0,0,0,0,0,0,0,
0,0,0,0,0,0,0,0,0,0,0,0,0,0,0,0,0,0,0,0,0,0,0,0,0,0,0,0,0,3124,3124,3124,3124,0,0,0,0,0,0,0,0,0,0,0,0,0,0,0,0,0,0,0,0,0,0,0,0,0,0,0,0,0,0,0,0,0,0,0,0,0,0,0,0,0,0,0,0,0,0,0,
0,0,0,0,0,0,0,0,0,0,0,0,0,0,0,0,0,0,0,0,0,0,0,0,0,0,0,0,0,0,0,0,0,0,0,0,0,0,0,0,0,0,0,0,0,0,0,0,0,0,0,0,0,0,0,0,0,0,0,0,0,0,0,0,0,0,0,0,0,0,0,0,0,0,0,0,0,0,0,0,
0,0,0,0,0,0,0,0,0,0,0,0,0,0,0,0,0,0,0,0,0,0,0,0,0,0,0,0,0,0,0,0,0,0,0,0,0,0,0,0,0,0,0,0,0,0,0,0,0,0,0,0,0,0,0,0,0,0,0,0,0,0,0,0,0,0,0,0,0,0,0,0,0,0,0,0,0,0,0,0,
0,0,0,0,0,0,0,0,0,0,0,0,0,0,0,0,0,0,0,0,0,0,0,0,0,0,0,0,0,0,0,0,0,0,0,0,0,0,0,0,0,0,0,0,0,0,0,0,0,0,0,0,0,0,0,0,0,0,0,0,0,0,0,0,0,0,0,0,0,0,0,0,0,0,0,0,0,0,0,0,
0,0,0,0,0,0,0,0,0,0,0,0,0,0,0,0,0,0,0,0,0,0,0,0,0,0,0,0,0,0,0,0,0,0,0,0,0,0,0,0,0,0,0,0,0,0,0,0,0,0,0,0,0,0,0,0,0,0,0,0,0,0,0,0,0,0,0,0,0,0,0,0,0,0,0,0,0,0,0,0,
0,0,0,0,0,0,0,0,0,0,0,0,0,0,0,0,0,0,0,0,0,0,0,0,0,0,0,0,0,0,0,0,0,0,0,0,0,0,0,0,0,0,0,0,0,0,0,0,0,0,0,0,0,0,0,0,0,0,0,0,0,0,0,0,0,0,0,0,0,0,0,0,0,0,0,0,0,0,0,0,
0,0,0,0,0,0,0,0,0,0,0,0,0,0,0,0,0,0,0,0,0,0,0,0,0,0,0,0,0,0,0,0,0,0,0,0,0,0,0,0,0,0,0,0,0,0,0,0,0,0,0,0,0,0,0,0,0,0,0,0,0,0,0,0,0,0,0,0,0,0,0,0,0,0,0,0,0,0,0,0,
0,0,0,0,0,0,0,0,0,0,0,0,0,0,0,0,0,0,0,0,0,0,0,0,0,0,0,0,0,0,0,0,0,0,0,0,0,0,0,0,0,0,0,0,0,0,0,0,0,0,0,0,0,0,0,0,0,0,0,0,0,0,0,0,0,0,0,0,0,0,0,0,0,0,0,0,0,0,0,0,
0,0,0,0,0,0,0,0,0,0,0,0,0,0,0,0,0,0,0,0,0,0,0,0,0,0,0,0,0,0,0,0,0,0,0,0,0,0,0,0,0,0,0,0,0,0,0,0,0,0,0,0,0,0,0,0,0,0,0,0,0,0,0,0,0,0,0,0,0,0,0,0,0,0,0,0,0,0,0,0,
0,0,0,0,0,0,0,0,0,0,0,0,0,0,0,0,0,0,0,0,0,0,0,0,0,0,0,0,0,0,0,0,0,0,0,0,0,0,0,0,0,0,0,0,0,0,0,0,0,0,0,0,0,0,0,0,0,0,0,0,0,0,0,0,0,0,0,0,0,0,0,0,0,0,0,0,0,0,0,0,
0,0,0,0,0,0,518,0,0,0,0,0,0,0,0,0,0,0,0,0,0,0,0,0,0,0,0,0,0,0,0,0,0,0,0,0,0,0,0,0,0,0,0,0,0,0,0,0,0,0,0,0,0,0,0,0,0,0,0,0,0,0,0,0,0,0,0,0,0,0,0,0,0,0,0,0,0,0,0,0,
0,0,0,0,0,0,543,0,0,0,0,0,0,0,0,0,0,0,0,0,0,0,0,0,0,0,0,0,0,0,0,0,0,0,0,0,0,0,0,0,0,0,0,0,0,0,0,0,0,0,0,0,0,0,0,0,0,0,0,0,0,0,0,0,0,0,0,0,0,0,0,0,0,0,0,516,0,0,0,0,
0,0,0,0,0,0,0,0,0,0,0,0,0,0,0,0,0,0,0,0,0,0,0,0,0,0,0,0,0,0,0,0,0,0,0,0,0,0,0,0,0,0,0,0,0,0,0,0,0,0,0,0,0,0,0,0,0,0,0,0,0,0,0,0,0,0,0,0,0,0,0,0,0,0,0,541,0,0,0,0,
0,0,0,0,0,0,0,0,0,0,0,0,0,0,0,0,0,0,0,0,0,0,0,0,0,0,0,0,0,0,0,0,0,0,0,0,0,0,0,0,0,0,0,0,0,0,0,0,0,0,0,0,0,0,0,0,0,0,0,0,0,0,0,0,0,0,0,0,0,0,0,0,0,0,0,0,0,0,0,0,
0,0,0,0,0,0,0,0,0,0,0,0,0,0,0,0,0,0,0,0,0,0,0,0,0,0,0,0,0,0,0,0,0,0,0,0,0,0,0,0,0,0,0,0,0,0,0,0,0,0,0,0,0,0,0,0,0,0,0,0,0,0,0,0,0,0,0,0,0,0,0,0,0,0,0,0,0,0,0,0,
0,0,306,0,0,0,0,0,0,0,0,0,0,0,0,0,0,0,0,3191,3191,3191,3191,3191,3191,3191,3191,3160,0,0,0,0,0,0,0,0,0,0,0,0,0,0,0,0,0,0,0,0,0,0,0,0,0,0,0,0,0,0,0,0,0,0,0,0,0,0,0,0,0,0,0,0,0,0,0,0,0,0,0,0,
0,0,0,0,0,0,0,0,0,0,0,3116,3154,3154,3154,3154,3154,3154,3154,3154,3154,3154,3154,3154,3154,3154,3154,3160,0,0,0,0,0,0,0,0,0,0,0,0,0,0,0,0,0,0,0,0,0,0,0,0,0,0,0,0,0,0,0,0,0,0,0,0,0,0,0,0,0,0,0,0,0,0,0,0,0,0,0,0,
0,0,0,306,0,0,0,0,0,0,0,0,3191,3191,3191,3191,3191,3191,3191,3191,3191,3191,3191,3191,3191,3191,3191,3160,0,0,0,0,0,0,0,0,0,0,0,0,0,0,0,0,0,0,0,0,0,0,0,0,0,0,0,0,0,0,0,0,0,0,0,0,0,0,0,0,0,0,0,0,0,0,0,0,0,0,0,0,
0,0,0,0,0,0,0,0,0,0,0,3135,3191,3191,3191,3191,3191,3191,3191,3191,3191,3191,3191,3191,3191,3191,3191,3160,0,0,0,0,0,0,0,0,0,0,0,0,0,0,0,0,0,0,0,0,0,0,0,0,0,0,0,0,0,0,0,0,0,0,0,0,0,0,0,0,0,0,0,0,0,0,0,0,0,0,0,0,
0,0,0,0,306,0,0,0,0,0,0,3135,3191,3191,3191,3191,3191,3191,3191,3191,3191,3191,3191,3191,3191,3191,3191,3160,0,0,0,0,0,0,0,0,0,0,0,0,0,0,0,0,0,0,0,0,0,0,0,0,0,0,0,0,0,0,0,0,0,0,0,0,0,0,0,0,0,0,0,0,0,0,0,0,0,0,0,0,
0,0,0,0,0,0,0,0,0,0,0,3135,3191,3191,3191,3191,3191,3191,3191,3191,3191,3191,3191,3191,3191,3191,3191,3160,0,0,0,0,0,0,0,0,0,0,0,0,0,0,0,0,0,0,0,0,0,0,0,0,0,0,0,0,0,0,0,0,0,0,0,0,0,0,0,0,0,0,0,0,0,0,0,0,0,0,0,0,
0,0,0,0,0,0,0,0,0,0,0,3135,3191,3191,3191,3191,3191,3191,3191,3191,3191,3191,3191,3191,3191,3191,3191,3160,0,0,0,0,0,0,0,0,0,0,0,0,0,0,0,0,0,0,0,0,0,0,0,0,0,0,0,0,0,0,0,0,0,0,0,0,0,0,0,0,0,0,0,0,0,0,0,0,0,0,0,0,
0,0,0,0,0,0,0,0,0,0,0,3097,3153,3153,3153,3153,3153,3153,3153,3153,3153,3153,3153,0,3153,3153,3144,3145,0,0,0,0,0,0,0,0,0,0,0,0,0,0,0,0,0,0,0,0,0,0,0,0,0,0,0,0,0,0,0,0,0,0,0,0,0,0,0,0,0,0,0,0,0,0,0,0,0,0,0,0,
0,0,0,0,0,0,0,0,0,0,0,0,0,0,0,0,0,0,0,0,0,0,0,0,0,0,0,0,0,0,0,0,0,0,0,0,0,0,0,0,0,0,0,0,0,0,0,0,0,0,0,0,0,0,0,0,0,0,0,0,0,0,0,0,0,0,0,0,0,0,0,0,0,0,0,0,0,0,0,0,
0,0,0,0,0,0,0,0,0,0,0,0,0,0,0,0,0,0,0,0,0,0,0,0,0,0,0,0,0,0,0,0,0,0,0,0,0,0,0,0,0,0,0,0,0,0,0,0,0,0,0,0,0,0,0,0,0,0,0,0,0,0,0,0,0,0,0,0,0,0,0,0,0,0,0,0,0,0,0,0,
0,0,0,0,0,0,0,0,0,0,0,0,0,0,0,0,0,0,0,0,0,0,0,0,0,0,0,0,0,0,0,0,0,0,0,0,0,0,0,0,0,0,0,0,0,0,0,0,0,0,0,0,0,0,0,0,0,0,0,0,0,0,0,0,0,0,0,0,0,0,0,0,0,0,0,0,0,0,0,0,
0,0,0,0,0,0,0,0,0,0,0,0,0,0,0,0,0,0,0,0,0,0,0,0,0,0,0,0,0,0,0,0,0,0,0,0,0,0,0,0,0,0,0,0,0,0,0,0,0,0,0,0,0,0,0,0,0,0,0,0,0,0,0,0,0,0,0,0,0,0,0,0,0,0,0,0,0,0,0,0
</data>
 </layer>
 <layer id="4" name="Buildings" width="80" height="110">
  <data encoding="csv">
0,101,36,37,38,103,103,103,103,103,103,103,103,103,352,352,352,354,377,137,377,377,377,137,377,377,405,406,408,103,103,103,103,382,103,395,696,0,0,0,417,103,103,103,103,103,103,103,103,103,103,103,103,103,103,103,103,103,103,103,103,103,103,103,103,103,103,103,103,103,103,103,103,103,103,0,0,0,0,0,
12,130,61,62,63,103,103,103,103,103,103,103,103,103,103,103,377,378,426,469,447,469,447,447,469,292,376,404,126,103,103,103,103,103,103,395,0,0,0,0,442,103,103,103,103,103,103,103,103,103,103,103,103,103,103,103,103,103,103,103,103,103,103,103,103,103,103,103,103,103,103,103,103,103,103,0,0,0,0,0,
37,38,86,87,88,103,103,103,103,103,103,103,103,103,103,103,103,295,368,494,493,494,493,493,373,465,441,376,404,103,408,103,103,103,103,420,0,0,0,0,467,447,469,447,469,469,469,447,469,447,469,469,469,447,469,468,469,447,469,447,469,469,469,447,469,468,465,441,103,103,103,103,103,103,103,0,0,0,0,0,
62,63,126,112,36,103,103,103,103,103,103,101,103,103,103,103,103,445,493,494,493,494,493,494,493,494,466,292,376,404,103,103,103,103,103,395,0,0,0,0,492,493,494,493,494,373,494,493,494,493,494,373,494,493,373,493,373,493,494,493,373,373,373,493,494,493,373,325,748,103,103,103,103,103,103,0,0,0,0,0,
87,11,12,136,61,103,103,103,103,103,103,130,103,103,103,343,369,322,2009,519,2009,519,2009,519,448,519,374,442,103,376,404,103,103,103,103,420,0,0,0,0,498,448,519,1977,519,373,1977,448,519,1977,519,373,1977,2024,519,1977,519,373,519,448,519,1977,519,1977,373,494,493,374,466,748,103,103,103,103,103,0,0,0,0,0,
112,36,37,38,86,103,103,103,103,103,103,103,103,103,426,451,394,346,519,448,519,448,519,2024,519,449,494,493,465,441,376,404,352,103,103,395,0,0,0,0,2030,519,449,519,2024,373,519,519,449,519,2024,373,519,2009,519,1977,448,519,1977,519,449,519,494,1977,373,519,448,316,374,325,748,103,103,103,103,0,0,0,0,0,
137,61,62,63,0,103,103,103,103,103,103,103,103,426,368,419,321,519,519,494,519,494,519,449,519,519,373,519,374,466,292,376,404,103,103,420,0,0,0,0,2030,2024,1978,2024,2009,519,1977,2024,1978,2024,2009,519,1977,448,519,1976,493,1976,493,521,1978,494,519,448,321,2024,1976,519,374,341,325,748,103,137,103,258,0,0,0,0,
0,86,87,88,0,103,103,103,103,103,103,103,426,451,373,603,519,494,2026,519,2026,519,518,2026,519,518,373,493,494,493,442,176,376,377,176,103,696,0,0,0,517,2026,519,2026,519,2026,519,2026,519,2026,519,2026,519,518,521,519,521,519,518,519,521,519,521,519,519,521,519,449,374,448,350,325,471,103,103,103,0,0,0,0,
0,126,11,12,136,103,103,103,103,103,103,426,368,448,493,494,519,519,2009,519,448,519,1977,519,373,1977,519,449,373,519,374,465,441,103,176,176,0,0,0,0,542,543,544,543,544,543,544,543,544,543,544,543,544,543,544,543,544,543,544,543,544,543,544,543,544,543,544,2030,493,394,798,521,496,292,308,0,0,0,0,0,
101,136,36,37,38,103,103,103,103,103,426,451,393,373,321,373,493,448,519,494,519,449,519,2024,373,519,494,603,394,519,316,490,325,748,103,176,0,0,0,0,0,0,0,0,0,0,0,0,0,0,0,0,0,0,0,0,0,0,0,0,0,0,0,0,0,0,0,517,518,448,823,824,374,317,351,0,0,0,0,0,
130,0,61,62,63,103,103,103,295,296,322,347,501,373,449,490,449,519,521,493,2024,1978,2024,2009,519,1977,519,448,321,449,519,394,341,325,748,103,176,0,0,0,0,0,0,0,0,0,0,0,0,0,0,0,0,0,0,0,0,0,0,0,0,0,0,0,0,0,0,542,543,519,848,449,374,342,351,0,0,0,0,0,
11,12,86,87,88,103,103,103,320,321,449,603,518,519,346,519,521,519,2026,519,2026,519,2026,519,2026,519,518,519,394,603,449,519,448,350,325,471,103,176,0,0,0,0,0,0,0,0,0,0,0,0,0,0,0,0,0,0,0,0,0,0,0,0,0,0,0,0,0,0,0,517,515,519,399,367,258,0,0,0,0,0,
36,37,38,112,113,103,103,103,320,519,501,448,603,576,397,524,543,544,543,544,543,544,543,544,543,544,400,518,519,519,518,519,519,798,521,496,441,103,176,176,176,176,176,176,176,176,176,176,176,176,176,303,303,176,176,176,176,420,0,0,0,0,384,385,384,385,384,385,386,542,400,515,341,392,176,0,0,0,0,0,
61,62,63,137,138,103,103,103,345,448,449,519,519,545,103,103,89,90,11,12,13,89,90,126,89,90,103,542,524,524,540,518,448,823,824,374,325,748,103,103,103,103,103,103,103,103,103,103,103,103,103,103,103,103,103,103,103,445,0,0,0,0,387,103,258,103,103,103,103,103,103,923,516,417,176,0,0,0,0,0,
86,87,88,101,0,103,103,103,320,519,448,576,520,103,103,103,114,115,36,37,38,114,115,126,114,115,103,103,103,103,103,923,519,848,449,374,374,466,748,103,103,103,103,103,103,103,103,103,103,103,103,103,103,407,103,103,426,470,0,0,0,0,387,103,14,15,16,103,258,103,103,103,923,392,176,176,0,258,0,0,
126,112,113,130,12,136,103,103,345,519,576,397,545,103,103,103,103,103,61,62,63,101,103,11,12,89,90,11,12,13,103,103,517,515,519,399,316,374,325,748,103,103,103,103,103,103,103,103,103,103,103,103,103,103,103,426,451,495,0,0,0,0,412,103,39,40,41,103,103,103,103,103,103,417,176,176,0,0,0,0,
136,137,138,36,37,38,103,103,370,544,545,103,103,103,103,103,103,103,86,87,88,130,103,36,37,114,115,36,37,38,103,103,542,400,515,341,519,374,341,466,748,103,103,103,103,103,103,103,103,103,103,103,103,103,426,451,449,499,0,0,0,0,437,103,64,65,66,103,103,103,103,103,103,392,176,176,0,308,0,0,
11,12,136,61,62,63,103,103,370,103,103,103,103,103,103,103,103,103,126,112,113,103,103,61,62,63,103,61,62,63,103,103,103,103,923,516,449,374,448,491,466,471,103,103,103,103,103,103,103,103,103,103,103,343,451,449,1992,499,0,0,0,0,387,103,103,103,103,103,103,103,103,103,103,392,258,176,0,0,0,0,
36,37,38,86,87,88,103,103,395,103,103,103,103,103,103,103,11,12,136,137,138,103,103,86,87,88,103,86,87,88,103,158,159,89,90,923,519,394,394,399,394,493,469,469,469,468,469,447,469,447,469,469,468,451,476,1992,2008,499,0,0,0,0,387,103,103,258,103,103,103,103,103,103,103,417,176,176,0,0,0,0,
61,62,63,126,112,113,103,103,370,103,103,103,103,103,103,103,36,37,38,89,90,103,103,103,112,113,103,103,112,113,103,89,90,114,115,103,517,519,448,521,399,374,494,494,373,493,373,493,494,493,373,373,493,449,501,526,551,520,0,0,0,0,412,103,103,103,103,103,103,103,103,103,103,392,176,176,0,0,0,0,
86,87,88,136,137,138,103,112,395,103,103,103,103,89,90,103,61,62,63,114,115,103,103,103,137,138,308,103,137,138,103,114,115,103,308,103,542,400,519,518,449,374,373,519,519,1977,519,373,519,448,519,1977,521,2024,448,551,576,545,0,0,0,0,437,103,103,103,103,103,103,103,103,103,103,417,176,176,258,0,0,0,
126,112,113,0,0,103,233,137,395,103,103,103,103,114,115,103,86,87,88,103,101,103,89,90,103,103,103,103,89,90,103,103,103,103,103,103,103,103,517,515,519,399,519,519,519,1977,448,519,1977,519,449,519,1976,2024,519,519,372,387,0,0,0,0,387,103,103,103,103,103,103,103,103,103,103,392,176,176,0,0,258,0,
136,137,138,0,0,103,103,103,420,103,103,103,103,103,103,103,126,112,113,103,130,103,114,115,89,90,158,159,114,115,103,308,103,103,103,103,103,103,542,400,515,341,519,373,519,1976,493,1976,493,521,1978,494,519,518,576,520,103,387,0,0,0,0,387,103,103,103,103,103,103,103,103,103,103,417,176,176,0,0,0,0,
0,0,0,101,0,103,308,103,445,103,103,103,103,103,103,103,136,137,138,103,103,103,103,308,114,115,103,103,103,103,103,103,103,137,103,103,137,258,126,137,923,516,519,519,521,519,521,519,518,519,521,519,519,516,397,545,103,387,0,0,0,0,412,103,103,103,103,103,103,103,103,103,103,392,176,176,0,0,0,0,
14,15,16,130,0,103,103,426,470,103,103,103,103,103,103,103,89,90,11,12,136,103,103,103,308,103,103,103,387,384,385,384,385,386,385,386,386,126,126,126,103,542,524,543,544,543,544,543,544,543,544,543,544,443,126,126,126,412,0,0,0,0,437,103,103,103,103,103,103,103,103,103,103,417,176,258,0,0,0,0,
39,40,41,0,0,295,296,451,495,103,103,103,103,89,90,103,114,115,36,37,38,11,12,13,103,103,103,103,387,0,0,0,0,0,0,0,0,384,385,386,385,386,137,384,385,384,385,386,385,384,385,384,385,386,385,386,386,437,0,0,0,0,387,103,103,103,103,103,103,103,103,103,103,392,176,308,0,0,0,0,
64,65,66,308,101,320,321,449,499,103,103,103,103,114,115,103,103,103,61,62,63,36,37,38,89,90,103,103,387,0,0,0,0,0,0,0,0,0,0,0,0,0,0,0,0,0,0,0,0,0,0,0,0,0,0,0,0,0,0,0,0,0,387,103,103,103,103,103,103,103,103,103,103,417,176,176,0,0,0,0,
103,103,103,0,130,320,519,501,499,103,103,14,15,16,101,103,103,103,86,87,88,61,62,63,114,115,103,103,439,0,0,440,384,385,386,0,0,0,0,0,0,0,0,0,0,0,0,0,0,0,0,0,0,0,0,0,0,0,0,0,0,0,412,103,103,103,103,103,103,103,103,103,103,417,176,176,0,0,258,0,
103,89,90,0,0,345,449,448,499,103,103,39,40,41,130,103,89,90,126,112,113,86,87,88,103,89,90,137,445,0,0,442,64,65,66,384,385,386,0,0,0,0,0,0,0,0,0,0,0,0,0,0,0,0,0,0,0,0,0,0,0,0,437,103,103,103,103,103,103,103,103,103,103,417,176,0,0,0,0,0,
103,114,115,103,308,320,519,519,499,103,103,64,65,66,103,103,114,115,136,137,138,126,112,113,103,114,115,343,470,0,0,467,447,469,447,469,468,469,447,469,447,469,469,469,447,469,468,469,447,469,447,469,469,469,447,469,468,469,447,469,291,465,441,103,103,103,103,103,103,103,103,103,103,442,103,258,0,0,0,445,
0,0,0,89,90,345,519,576,520,103,103,103,103,103,103,103,103,103,103,103,103,136,137,138,103,343,369,322,495,0,0,492,493,494,493,494,493,494,493,494,493,494,373,494,493,373,493,373,493,494,493,373,373,373,493,494,493,373,493,373,493,373,325,748,103,130,103,103,103,103,103,103,103,467,469,0,0,0,296,470,
0,308,0,114,115,370,371,397,545,103,103,103,89,90,103,103,297,469,468,469,447,469,447,469,468,451,521,1978,520,0,0,2030,449,519,2009,519,2009,519,448,519,1977,519,373,1977,2024,519,1977,519,373,519,448,519,1977,519,1977,373,494,493,494,494,448,519,374,466,748,103,103,103,103,103,103,103,103,492,494,0,321,0,321,495,
0,0,0,0,0,445,696,14,15,16,103,103,114,115,343,369,322,494,493,494,493,494,493,494,493,449,519,494,495,0,0,2030,1978,1977,519,448,519,494,519,449,519,2024,373,519,2009,519,1977,448,519,1977,519,449,519,494,1977,373,519,448,346,373,519,449,316,374,325,748,103,103,103,103,103,103,103,498,449,0,519,321,519,520,
0,0,0,0,296,470,103,39,40,41,103,103,103,295,451,521,449,519,2009,519,2009,519,1978,1977,519,448,519,519,495,0,0,492,493,519,2024,519,521,493,2024,1978,2024,2009,519,1977,448,519,1976,493,1976,493,521,1978,494,519,448,321,2024,1976,1659,1976,1659,519,519,374,341,325,748,233,103,103,103,0,103,498,501,321,449,519,576,499,
0,0,321,0,321,495,442,64,65,66,103,103,103,451,449,521,519,2009,519,448,519,2024,493,519,2024,519,521,551,520,0,0,2030,449,519,2026,519,2026,519,2026,519,2026,519,2026,519,518,521,519,521,519,518,519,521,519,521,519,519,521,519,1684,519,1684,518,449,374,448,350,325,471,103,103,103,0,0,492,321,519,449,448,519,499,
449,0,519,321,519,520,467,447,469,447,469,447,469,322,519,448,519,2009,519,2009,519,448,449,519,2026,519,2026,494,495,0,0,2030,1978,449,519,2024,373,519,519,449,519,2024,373,519,2009,519,1977,448,519,1977,519,449,519,494,1977,2009,519,1977,448,1977,448,519,449,519,494,1977,373,466,469,0,0,0,296,492,519,449,519,519,519,520,
501,321,449,519,576,499,492,493,494,493,494,493,494,449,2024,519,2024,519,448,519,2024,519,1978,449,519,2024,373,519,520,0,0,492,1977,1978,2024,2009,519,1977,2024,1978,2024,2009,519,1977,448,519,1976,493,1976,493,521,1978,494,519,448,448,519,1976,493,1976,493,521,1978,494,519,448,321,2024,494,0,321,0,321,517,449,519,519,576,576,545,
321,519,449,448,519,499,517,2009,519,2009,519,2009,519,499,2009,519,2009,519,2009,519,2009,519,519,1978,2024,2009,519,551,520,0,0,2030,521,519,2026,519,2026,519,2026,519,2026,519,2026,519,518,521,519,521,519,518,519,521,519,521,519,518,521,519,521,519,518,519,521,519,521,519,519,521,492,0,519,321,519,493,371,397,371,397,545,0,
519,449,519,519,519,520,492,519,448,519,448,519,519,499,544,543,544,543,544,543,544,543,544,543,544,543,544,543,0,0,0,0,543,544,543,544,543,544,543,544,543,544,543,544,543,544,543,544,543,544,543,544,543,544,543,543,544,543,544,543,544,543,544,543,544,543,544,543,517,321,449,519,576,499,0,0,0,0,0,0,
449,519,519,576,576,545,517,2024,519,2024,519,2024,2024,499,0,0,0,0,0,0,0,0,0,308,0,0,0,0,387,0,0,387,0,0,0,0,0,0,0,0,0,0,0,0,0,0,0,0,0,0,0,0,0,0,0,0,0,0,0,0,0,0,0,0,0,0,0,0,492,519,449,448,519,499,0,0,0,0,0,0,
371,397,371,397,545,0,492,2026,519,551,519,551,449,444,0,0,0,0,0,0,0,0,0,0,0,0,0,0,412,0,0,412,0,0,308,0,0,308,0,0,0,0,308,0,0,0,308,0,0,0,0,0,0,308,0,0,0,0,0,0,0,0,0,308,0,0,0,0,517,449,519,519,519,520,0,0,0,0,0,0,
0,0,308,0,0,0,517,519,2024,824,2024,824,601,0,308,0,0,0,0,0,0,258,0,0,0,0,0,0,437,0,0,437,0,359,360,361,362,0,0,0,0,0,0,0,258,0,0,0,0,0,0,0,0,0,0,0,0,0,0,308,0,0,258,0,0,0,0,0,517,519,519,576,576,545,0,0,0,0,308,0,
0,0,0,0,0,0,542,543,544,545,544,101,103,0,0,0,0,0,0,0,0,0,0,0,0,0,0,0,0,0,0,0,0,384,385,386,387,0,0,0,0,0,308,0,0,0,0,0,0,0,0,0,0,0,0,0,0,0,0,0,0,0,0,0,0,0,0,0,542,397,371,397,545,0,0,258,0,0,0,0,
0,0,0,0,0,0,0,0,308,0,0,130,103,0,0,0,0,0,0,11,12,308,0,0,0,0,0,0,0,0,0,0,0,0,0,0,412,0,0,0,0,0,0,0,0,0,0,0,0,0,0,258,0,0,0,0,0,0,0,0,0,0,0,0,0,0,0,0,308,0,0,0,0,0,0,0,0,0,0,0,
0,0,0,0,0,0,0,0,0,0,0,103,103,0,0,0,0,0,0,36,37,38,0,0,0,0,0,0,0,0,0,0,0,0,0,0,437,359,360,361,0,308,0,0,0,0,0,0,0,0,0,0,0,0,0,0,0,0,0,0,0,0,0,0,0,0,0,0,0,0,0,0,0,0,0,308,0,0,0,0,
0,0,0,0,0,0,0,0,0,0,0,103,258,13,0,308,11,12,13,61,62,63,0,0,0,0,0,0,0,0,0,0,0,0,0,0,0,384,385,386,0,0,0,0,0,0,0,0,0,0,308,0,0,0,0,0,0,0,0,0,0,0,0,0,0,0,0,0,0,0,0,0,0,0,0,0,0,0,0,0,
0,0,0,0,0,0,0,11,12,13,0,103,103,38,0,0,36,37,38,86,87,88,0,0,0,0,308,0,0,0,0,0,0,359,360,0,0,0,0,0,0,0,0,0,0,0,0,0,0,0,0,0,0,0,0,0,0,0,0,0,0,0,308,0,0,0,258,0,0,0,0,0,0,0,0,0,0,0,0,0,
0,0,0,0,308,0,0,36,37,38,101,308,62,63,0,258,61,62,63,0,112,113,0,0,0,0,0,0,0,0,0,0,0,384,385,386,0,0,0,0,0,0,0,0,0,0,0,0,0,0,0,0,0,0,0,0,0,0,0,0,0,0,0,0,0,0,0,0,0,0,0,0,0,308,0,0,0,0,0,0,
0,0,0,0,0,0,103,61,62,63,130,103,87,88,103,0,86,87,88,136,137,138,377,377,0,377,377,0,0,0,0,0,103,103,382,103,395,0,0,0,0,0,0,0,103,103,103,103,103,103,103,103,103,103,103,103,103,103,258,103,103,103,103,103,103,103,103,103,103,103,103,103,103,103,103,103,0,0,0,0,
0,0,0,0,0,0,103,86,87,88,103,103,112,113,103,103,103,112,113,426,469,447,469,447,447,469,292,0,404,126,0,0,103,103,103,103,395,0,0,0,0,442,103,103,103,103,103,103,103,103,103,103,103,103,103,103,103,103,103,103,103,103,103,103,103,103,103,103,103,103,103,103,103,103,103,103,0,0,0,0,
0,0,0,0,101,103,12,13,112,113,103,103,137,138,103,103,136,137,138,368,494,493,494,493,493,373,465,441,376,404,103,0,103,103,103,103,420,0,0,0,0,467,447,469,447,469,469,469,447,469,447,469,469,469,447,469,468,469,447,469,447,469,469,469,447,469,468,465,441,103,103,103,103,103,103,103,0,0,0,0,
0,0,0,0,130,36,308,308,137,138,103,103,103,103,103,103,103,103,445,493,494,493,494,493,494,493,494,466,292,376,404,103,103,103,103,103,395,0,0,0,0,492,493,494,493,494,373,494,493,494,493,494,373,494,493,373,493,373,493,494,493,373,373,373,493,494,493,373,325,748,103,103,103,103,103,103,0,0,0,0,
0,101,103,308,103,61,62,63,103,103,103,103,103,103,103,103,343,369,322,2009,519,2009,519,2009,519,448,519,374,442,103,376,404,103,103,103,103,420,0,0,0,0,498,448,519,1977,519,373,1977,448,519,1977,519,373,1977,2024,519,1977,519,373,519,448,519,1977,519,1977,373,494,493,374,466,748,103,103,103,103,103,0,0,0,0,
0,130,103,0,103,86,87,88,103,103,103,103,103,103,103,426,451,394,346,519,448,519,448,519,2024,519,449,494,493,465,441,376,404,352,103,103,395,0,0,0,0,2030,519,449,519,2024,373,519,519,449,519,2024,373,519,2009,519,1977,448,519,1977,519,449,519,494,1977,373,519,448,316,374,325,748,103,103,103,103,0,0,0,0,
103,103,103,0,103,103,112,113,103,103,103,103,103,103,426,368,419,321,519,519,494,519,494,519,449,519,519,373,519,374,466,292,376,404,103,103,420,0,0,0,0,2030,2024,1978,2024,2009,519,1977,2024,1978,2024,2009,519,1977,448,519,1976,493,1976,493,521,1978,494,519,448,321,2024,1976,519,374,341,325,748,103,137,103,0,0,0,0,
103,103,103,0,0,136,308,138,103,103,103,103,103,426,451,373,603,519,494,2026,519,2026,519,518,2026,519,518,373,493,494,493,442,176,376,377,176,103,696,0,0,0,517,2026,519,2026,519,2026,519,2026,519,2026,519,2026,519,518,521,519,521,519,518,519,521,519,521,519,519,521,519,449,374,448,350,325,471,103,351,0,0,0,0,
103,308,103,101,103,0,103,103,103,103,103,103,426,368,448,493,494,519,519,2009,519,448,519,1977,519,373,1977,519,449,373,519,374,465,441,103,176,176,0,0,0,0,542,543,544,543,544,543,544,543,544,543,544,543,544,543,544,543,544,543,544,543,544,543,544,543,544,543,544,2030,493,394,798,521,496,292,351,0,0,0,0,
103,103,0,130,103,0,103,103,103,103,103,426,451,393,373,321,373,493,448,519,494,519,449,519,2024,373,519,494,603,394,519,316,490,325,748,103,176,0,0,0,0,0,0,0,0,0,0,0,0,0,0,0,0,0,0,0,0,0,0,0,0,0,0,0,0,0,0,0,517,518,448,823,824,374,317,351,0,0,0,0,
103,103,0,103,103,0,103,103,103,295,296,322,347,501,373,449,490,449,519,521,493,2024,1978,2024,2009,519,1977,519,448,321,449,519,394,341,325,748,103,176,0,0,0,0,0,0,0,0,0,0,0,0,0,0,0,0,0,0,0,0,0,0,0,0,0,0,0,0,0,0,542,543,519,848,449,374,342,351,0,0,0,0,
101,103,0,103,103,0,103,103,103,320,321,449,603,518,519,346,519,521,519,2026,519,2026,519,2026,519,2026,519,518,519,394,603,449,519,448,350,325,471,103,176,0,0,0,0,0,0,0,0,0,0,0,0,0,0,0,0,0,0,0,0,0,0,0,0,0,0,0,0,0,0,0,517,515,519,399,367,351,0,0,0,0,
130,103,0,103,103,0,103,103,103,320,519,501,448,603,576,397,524,543,544,543,544,543,544,543,544,543,544,400,518,519,519,518,519,519,798,521,496,441,103,176,176,176,176,176,176,176,176,176,176,176,176,176,303,303,176,176,176,176,420,0,0,0,0,384,385,384,385,384,385,386,542,400,515,341,392,351,0,0,0,0,
103,103,0,308,0,0,103,103,103,345,448,449,519,519,545,103,103,89,90,11,12,13,89,90,126,89,90,103,542,524,524,540,518,448,823,824,374,325,748,103,103,103,103,103,103,103,103,103,103,103,103,103,103,103,103,103,103,103,445,0,0,0,0,387,103,258,103,103,103,103,103,103,923,516,417,351,0,0,0,0,
103,103,0,0,0,0,103,103,103,320,519,448,576,520,103,103,103,114,115,36,37,38,114,115,126,114,115,103,103,103,103,103,923,519,848,449,374,374,466,748,103,103,103,103,103,103,103,103,103,103,103,103,103,103,407,103,103,426,470,0,0,0,0,387,103,14,15,16,103,258,103,103,103,923,392,351,0,0,0,0,
103,103,0,0,0,0,103,103,103,345,519,576,397,545,103,103,103,103,103,61,62,63,101,103,11,12,89,90,11,12,13,103,103,517,515,519,399,316,374,325,748,103,103,103,103,103,103,103,103,103,103,103,103,103,103,103,426,451,495,0,0,0,0,412,103,39,40,41,103,103,103,103,103,103,417,14,15,16,103,258,
0,0,0,0,0,0,103,103,103,370,544,545,103,103,103,103,103,103,103,86,87,88,130,103,36,37,114,115,36,37,38,103,103,542,400,515,341,519,374,341,466,748,103,103,103,103,103,103,103,103,103,103,103,103,103,426,451,449,499,0,0,0,0,437,103,64,65,66,103,103,103,103,103,103,392,39,40,41,103,103,
0,0,0,0,0,0,103,103,103,370,103,103,103,103,103,103,103,103,103,126,112,113,103,103,61,62,63,103,61,62,63,103,103,103,103,923,516,449,374,448,491,466,471,103,103,103,103,103,103,103,103,103,103,103,343,451,449,1992,499,0,0,0,0,387,103,103,103,103,103,103,103,103,103,103,392,64,65,66,103,103,
0,0,0,0,0,0,103,103,103,395,103,103,103,103,103,103,103,11,12,136,137,138,103,103,86,87,88,103,86,87,88,103,158,159,89,90,923,519,394,394,399,394,493,469,469,469,468,469,447,469,447,469,469,468,451,476,1992,2008,499,0,0,0,0,387,103,103,258,103,103,103,103,103,103,103,417,103,103,103,103,103,
0,0,0,0,0,0,103,103,103,370,103,103,103,103,103,103,103,36,37,38,89,90,103,103,103,112,113,103,103,112,113,103,89,90,114,115,103,517,519,448,521,399,374,494,494,373,493,373,493,494,493,373,373,493,449,501,526,551,520,0,0,0,0,412,103,103,103,103,103,103,103,103,103,103,392,103,258,103,103,103,
0,0,0,0,0,0,103,103,112,395,103,103,103,103,89,90,103,61,62,63,114,115,103,103,103,137,138,308,103,137,138,103,114,115,103,308,103,542,400,519,518,449,374,373,519,519,1977,519,373,519,448,519,1977,521,2024,448,551,576,545,0,0,0,0,437,103,103,103,103,103,103,103,103,103,103,417,103,103,103,103,103,
0,0,0,0,0,0,103,233,137,395,103,103,103,103,114,115,103,86,87,88,103,101,103,89,90,103,103,103,103,89,90,103,103,103,103,103,103,103,103,517,515,519,399,519,519,519,1977,448,519,1977,519,449,519,1976,2024,519,519,372,387,0,0,0,0,387,103,103,103,103,103,103,103,103,103,103,392,103,103,103,103,103,
0,0,0,0,0,0,103,103,103,420,103,103,103,103,103,103,103,126,112,113,103,130,103,114,115,89,90,158,159,114,115,103,308,103,103,103,103,103,103,542,400,515,341,519,373,519,1976,493,1976,493,521,1978,494,519,518,576,520,103,387,0,0,0,0,387,103,103,103,103,103,103,103,103,103,103,417,103,103,103,103,103,
0,0,0,0,0,0,103,308,103,445,103,103,103,103,103,103,103,136,137,138,103,103,103,103,308,114,115,103,103,103,103,103,103,103,137,103,103,137,258,126,137,923,516,519,519,521,519,521,519,518,519,521,519,519,516,397,545,103,387,0,0,0,0,412,103,103,103,103,103,103,103,103,103,103,392,103,103,103,103,103,
0,0,0,0,0,0,103,103,426,470,103,103,103,103,103,103,103,89,90,11,12,136,103,103,103,308,103,103,103,387,384,385,384,385,386,385,386,386,126,126,126,103,542,524,543,544,543,544,543,544,543,544,543,544,443,126,126,126,412,0,0,0,0,437,103,103,103,103,103,103,103,103,103,103,417,103,103,103,103,103,
0,0,0,0,0,0,295,296,451,495,103,103,103,103,89,90,103,114,115,36,37,38,11,12,13,103,103,103,103,387,0,0,0,0,0,0,0,0,384,385,386,385,386,137,384,385,384,385,386,385,384,385,384,385,386,385,386,386,437,0,0,0,0,387,103,103,103,103,103,103,103,103,103,103,392,103,103,103,103,103,
0,0,0,0,0,0,320,321,449,499,103,103,103,103,114,115,103,103,103,61,62,63,36,37,38,89,90,103,103,387,0,0,0,0,0,0,0,0,0,0,0,0,0,0,0,0,0,0,0,0,0,0,0,0,0,0,0,0,0,0,0,0,0,387,103,103,103,103,103,103,103,103,103,103,417,103,103,103,103,103,
0,0,0,0,0,0,320,519,501,499,103,103,14,15,16,101,103,103,103,86,87,88,61,62,63,114,115,103,103,439,0,0,440,384,385,386,0,0,0,0,0,0,0,0,0,0,0,0,0,0,0,0,0,0,0,0,0,0,0,0,0,0,0,412,103,103,103,103,103,103,103,103,103,103,417,103,103,103,103,103,
0,0,0,0,0,0,345,449,448,499,103,103,39,40,41,130,103,89,90,126,112,113,86,87,88,103,89,90,137,445,0,0,442,64,65,66,384,385,386,0,0,0,0,0,0,0,0,0,0,0,0,0,0,0,0,0,0,0,0,0,0,0,0,437,103,103,103,103,103,103,103,103,103,103,417,103,103,103,103,103,
0,0,0,0,0,0,320,519,519,499,103,103,64,65,66,103,103,114,115,136,137,138,126,112,113,103,114,115,343,470,0,0,467,447,469,447,469,468,469,447,469,447,469,469,469,447,469,468,469,447,469,447,469,469,469,447,469,468,469,447,469,291,465,441,103,103,103,103,103,103,103,103,103,103,442,103,103,103,103,103,
0,0,0,0,0,0,345,519,576,520,103,103,103,103,103,103,103,103,103,103,103,103,136,137,138,103,343,369,322,495,0,0,492,493,494,493,494,493,494,493,494,493,494,373,494,493,373,493,373,493,494,493,373,373,373,493,494,493,373,493,373,493,373,325,748,103,130,103,103,103,103,103,103,103,467,469,0,0,0,470,
0,0,0,0,0,0,370,371,397,545,103,103,103,103,103,103,103,297,469,468,469,447,469,447,469,468,451,521,1978,520,0,0,2030,449,519,2009,519,2009,519,448,519,1977,519,373,1977,2024,519,1977,519,373,519,448,519,1977,519,1977,373,494,493,494,494,448,519,374,466,748,103,103,103,103,103,103,103,103,492,494,0,321,0,495,
0,0,0,0,0,0,445,696,103,103,103,103,103,103,103,343,369,322,494,493,494,493,494,493,494,493,449,519,494,495,0,0,2030,1978,1977,519,448,519,494,519,449,519,2024,373,519,2009,519,1977,448,519,1977,519,449,519,494,1977,373,519,448,346,373,519,449,316,374,325,748,103,103,103,103,103,103,103,498,493,0,519,321,520,
0,0,0,0,0,296,470,103,103,103,103,103,103,103,295,451,521,449,519,2009,519,2009,519,448,519,521,2024,494,519,520,0,0,2030,1977,519,2024,519,521,493,2024,1978,2024,2009,519,1977,448,519,1976,493,1976,493,521,1978,494,519,448,321,2024,1976,1659,0,1661,519,519,374,341,325,748,233,103,103,103,103,103,498,493,321,449,519,499,
0,0,0,321,0,321,495,103,103,103,103,103,103,103,451,449,521,519,2009,519,448,519,2024,519,449,1976,2024,519,551,520,0,0,517,521,519,2026,519,2026,519,2026,519,2026,519,2026,519,518,521,519,521,519,518,519,521,519,521,519,519,521,519,1684,0,1686,518,449,374,448,350,325,471,103,103,103,103,103,498,493,519,449,448,499,
449,449,0,519,321,519,520,103,103,103,103,103,343,451,449,521,346,448,1979,519,494,519,449,519,519,519,518,519,397,545,0,0,542,543,544,543,544,543,544,543,544,543,544,543,544,543,544,543,544,543,544,543,544,543,544,543,544,543,544,1709,288,1711,400,519,394,394,798,521,496,497,103,103,103,103,517,519,449,519,519,520,
501,501,321,449,519,576,499,103,103,103,103,426,451,373,373,419,419,521,519,2026,519,518,2026,519,518,519,516,601,0,0,0,0,0,0,2001,2002,0,0,0,0,0,0,0,0,0,0,0,0,0,0,0,0,0,0,0,0,0,0,0,0,0,0,0,517,347,448,823,824,374,522,748,384,385,386,542,524,519,519,576,545,
321,321,519,449,448,519,499,384,385,386,426,451,448,373,373,551,449,444,544,543,544,543,543,544,543,544,443,0,0,0,0,0,0,0,0,0,0,0,0,0,0,0,0,0,0,0,0,0,0,0,0,0,0,0,0,0,0,0,0,0,0,0,0,542,400,519,848,449,374,519,325,748,103,126,103,387,397,371,397,0,
519,519,449,519,519,519,520,501,501,501,501,501,491,494,493,824,601,696,0,0,0,0,0,0,0,0,0,0,0,0,0,0,0,0,0,0,0,0,1206,0,0,0,0,0,0,0,0,0,0,0,0,0,0,0,0,0,0,0,0,0,0,0,0,0,0,517,347,518,399,493,350,103,103,126,103,103,0,0,0,0,
449,449,519,519,576,576,545,501,501,501,501,501,430,519,519,545,0,0,0,0,0,0,0,0,0,0,0,0,0,0,0,0,0,0,0,0,0,384,385,1101,1102,1103,1102,1103,1102,1103,1102,1103,1102,1103,1102,1103,1102,1103,1102,1103,1104,0,0,0,0,0,0,0,0,542,400,347,518,647,648,103,103,103,103,103,0,0,0,0,
371,371,397,371,397,545,295,296,451,551,501,454,455,576,520,0,0,0,0,0,0,0,0,0,0,0,0,0,0,0,0,0,0,0,0,0,0,0,0,0,0,0,0,0,1201,1202,1203,0,0,0,0,1206,0,0,0,0,0,0,0,0,0,0,0,0,0,0,0,923,516,672,673,103,103,103,103,292,0,0,0,0,
0,0,0,0,0,0,320,321,449,551,551,479,480,397,545,0,0,0,0,0,0,0,0,0,0,0,0,0,0,0,0,0,0,0,0,0,0,0,0,0,0,0,1205,0,0,0,0,0,1205,0,0,0,0,1205,0,0,0,0,0,0,0,0,0,0,0,0,0,0,923,697,698,103,103,103,103,317,0,0,0,0,
0,0,0,0,0,0,320,519,501,551,551,504,505,0,0,0,0,0,0,0,0,0,0,0,0,0,0,0,0,0,0,0,0,0,0,0,0,0,0,1176,1177,1177,1177,1177,1177,1177,1177,1177,1177,1177,1177,1177,1177,1177,1177,1177,1179,0,0,0,0,0,0,0,0,0,0,0,0,722,723,723,723,723,723,317,0,0,0,0,
0,0,0,0,0,0,345,448,449,0,0,0,0,0,0,0,0,0,0,0,0,0,0,0,0,0,0,0,0,0,0,0,0,0,0,0,0,0,0,0,0,0,0,0,0,0,0,0,0,0,0,0,0,0,0,0,0,0,0,0,0,0,0,0,0,0,0,0,0,0,0,0,0,0,0,342,0,0,0,0,
0,38,0,0,0,0,320,519,519,0,0,0,0,0,0,0,0,0,0,0,0,0,0,0,0,0,0,0,0,0,0,0,0,0,0,0,0,0,0,0,0,0,0,0,0,0,0,0,0,0,0,0,0,0,0,0,0,0,0,0,0,0,0,0,0,0,0,0,0,0,0,0,0,0,0,317,0,0,0,0,
0,0,0,0,0,0,345,519,576,577,578,0,0,0,0,0,0,0,0,0,0,0,0,0,0,0,0,0,0,0,0,0,0,0,0,0,0,0,0,0,0,0,0,0,0,0,0,0,0,0,0,0,0,0,0,0,0,0,0,0,0,0,0,0,0,0,0,0,0,0,0,799,800,449,518,342,0,0,0,0,
0,0,0,0,0,0,370,544,545,669,670,0,0,0,0,0,0,0,0,0,0,0,0,0,0,0,0,0,0,0,0,0,0,0,0,0,0,0,0,0,0,0,0,0,0,0,0,0,0,0,0,0,0,0,0,0,0,0,0,0,0,0,0,0,0,0,0,0,0,0,0,1206,269,541,540,367,0,0,0,0,
0,0,0,0,0,0,395,696,0,694,695,0,0,0,0,0,0,0,0,0,0,0,0,0,0,0,0,0,0,0,0,0,0,0,0,0,0,512,0,0,0,0,0,0,0,0,0,0,0,0,0,0,0,0,0,0,0,0,0,0,0,0,0,0,0,0,0,0,0,0,0,0,0,0,0,392,0,0,0,0,
0,0,0,0,0,0,395,0,0,0,0,0,0,0,0,0,0,0,0,0,0,0,0,0,0,0,0,0,0,0,0,0,0,0,0,0,0,0,0,0,0,0,0,0,0,0,0,0,0,0,0,0,0,0,0,0,0,0,0,0,0,0,0,0,0,0,0,0,0,0,0,0,0,0,0,417,0,0,0,0,
0,0,0,0,0,0,420,0,0,0,0,0,1426,1427,1428,1429,1430,1431,1432,1433,1434,1435,1436,1437,1438,1439,1440,1441,0,0,0,0,0,0,0,0,0,0,0,0,0,0,0,0,0,0,0,0,0,0,0,0,0,0,0,0,0,0,0,0,0,0,0,0,0,0,0,0,0,0,0,0,0,0,0,392,0,0,0,0,
0,0,0,0,0,0,395,0,0,0,0,0,1451,1452,1453,1454,1455,1456,1457,1458,1459,1460,1461,1462,1463,1464,1465,1466,0,0,0,0,0,0,0,0,0,0,0,0,0,0,0,0,0,0,0,0,0,0,0,0,0,0,0,0,0,0,0,0,0,0,0,0,0,0,0,0,0,0,0,0,0,0,0,417,0,0,0,0,
0,0,0,0,0,0,395,0,0,0,0,0,1476,1477,1478,1479,1480,1481,1482,1483,1484,1485,1486,1487,1488,1489,1490,1491,0,233,0,0,0,0,0,0,0,0,0,0,0,0,0,0,0,0,0,0,0,0,0,0,0,0,0,0,0,0,0,0,0,0,0,0,0,0,0,0,0,0,0,0,0,0,0,392,0,0,0,0,
0,0,0,0,0,0,420,0,0,0,0,283,1501,1502,1503,1504,1505,1506,1507,1508,1509,1510,1511,1512,1513,1514,1515,1516,0,0,0,0,0,0,0,0,0,0,0,0,0,0,0,0,0,0,0,0,0,0,0,0,0,0,0,0,0,0,0,0,0,0,0,0,0,0,0,0,0,0,0,0,0,0,0,417,0,0,0,0,
0,0,0,0,0,0,395,0,0,0,0,0,1526,1527,1528,1529,1530,1531,1532,1533,1534,1535,1536,1537,1538,1539,1540,1541,0,0,0,0,0,0,0,0,0,0,0,0,0,0,0,0,0,0,0,0,0,0,0,0,0,0,0,0,0,0,0,0,0,0,0,0,0,0,0,0,0,0,0,0,0,0,0,392,0,0,0,0,
0,0,0,0,0,0,420,0,0,0,1521,1522,1551,1552,1553,1554,1555,1556,1557,1558,1559,1442,1443,1562,1563,1564,1565,1566,0,0,0,0,0,0,0,0,0,0,0,0,0,0,0,0,0,0,0,0,0,0,0,0,0,0,0,0,0,0,0,0,0,0,0,0,0,0,0,0,0,0,0,0,0,0,0,417,0,0,0,0,
0,0,0,0,0,0,395,0,0,0,0,1521,1522,1577,1578,1579,1580,1581,1582,1583,1584,1467,1468,1587,1588,1589,1590,1591,283,0,0,0,0,0,0,0,0,0,0,0,0,0,0,0,0,0,0,0,0,0,0,0,0,0,0,0,0,0,0,0,0,0,0,0,0,0,0,0,0,0,0,0,0,0,0,392,0,0,0,0,
0,0,0,0,0,0,420,0,0,0,0,0,1523,1602,1603,1604,1605,1606,1607,1608,1609,1610,1611,1612,1613,1614,1615,1616,0,0,0,0,0,0,0,0,0,0,0,0,0,0,0,0,0,0,0,0,0,0,0,0,0,0,0,0,0,0,0,0,0,0,0,0,0,0,0,0,0,0,0,0,0,0,0,392,0,0,0,0,
0,0,0,0,0,0,413,0,0,0,0,0,0,0,0,0,0,0,0,0,0,0,0,283,1523,1523,0,0,0,0,0,0,0,0,0,0,0,0,0,0,0,0,0,0,0,0,0,0,0,0,0,0,0,0,0,0,0,0,0,0,0,0,0,0,0,0,0,0,0,0,0,0,0,0,0,417,0,0,0,0,
0,0,0,0,0,0,103,176,176,0,0,0,0,0,0,0,0,0,0,0,0,0,0,0,0,0,0,0,0,0,0,0,0,0,0,0,0,0,0,0,0,0,0,0,0,0,0,0,0,0,0,0,0,0,0,0,0,0,0,0,0,0,0,0,0,0,0,0,0,0,0,0,0,0,0,416,0,0,0,0,
0,0,0,0,0,0,103,103,103,176,176,176,176,176,176,283,0,0,0,0,0,0,0,0,0,0,0,0,0,0,0,0,0,0,0,0,0,392,176,176,176,176,176,176,176,176,176,176,176,176,176,176,176,176,176,176,176,103,176,176,176,176,176,176,176,176,176,176,176,176,176,176,176,176,176,176,0,0,0,0,
0,0,0,0,0,0,103,103,103,103,103,103,103,103,103,176,176,176,176,176,176,176,176,176,176,176,176,176,176,176,176,327,0,0,0,0,0,417,103,103,103,103,103,103,103,103,103,103,103,103,103,103,103,103,103,103,103,103,103,103,103,103,103,103,103,103,103,103,103,103,103,103,103,103,103,103,0,0,0,0,
0,0,0,0,0,0,103,126,126,126,126,126,126,126,126,126,126,126,126,126,126,126,126,126,357,126,126,356,126,126,126,395,233,0,0,0,0,392,126,126,0,0,0,0,0,0,0,0,0,0,0,0,0,126,126,126,126,176,103,103,103,103,103,103,103,103,103,103,103,103,103,103,103,103,103,103,0,0,0,0
</data>
 </layer>
 <layer id="5" name="Buildings2" width="80" height="110">
  <data encoding="csv">
0,0,0,0,0,0,0,0,0,0,0,0,0,0,0,0,0,0,0,0,0,0,0,0,0,0,0,0,0,0,0,0,0,0,0,0,0,0,0,0,0,0,0,0,0,0,0,0,0,0,0,0,0,0,0,0,0,0,0,0,0,0,0,0,0,0,0,0,0,0,0,0,89,90,0,0,0,0,0,0,
0,0,0,0,0,0,0,0,0,89,90,0,0,0,0,0,0,0,0,0,0,0,0,0,0,0,0,0,0,0,0,0,0,0,0,0,0,0,0,0,0,0,0,0,0,0,0,0,0,0,0,0,0,0,0,0,0,0,0,0,0,0,0,0,0,0,0,0,0,0,0,0,114,115,0,0,0,0,0,0,
0,0,0,0,0,0,0,0,0,114,115,0,0,0,0,0,0,0,0,0,0,0,0,0,0,0,0,0,0,0,89,90,0,0,0,0,0,0,0,0,0,0,0,0,0,0,0,0,0,0,0,0,0,0,0,0,0,0,0,0,0,0,0,0,0,0,0,0,0,0,0,0,0,0,0,0,0,0,0,0,
0,0,0,0,0,0,0,0,0,0,0,0,0,0,0,0,0,0,0,0,0,0,0,0,0,0,0,0,0,0,114,115,0,0,0,0,0,0,0,0,0,0,0,0,0,0,0,0,0,0,0,0,0,0,0,0,0,0,0,0,0,0,0,0,0,0,0,0,0,0,0,0,0,0,0,0,0,0,0,0,
0,0,0,0,0,0,0,0,0,0,0,0,0,0,0,0,0,0,0,0,0,0,0,0,0,0,0,0,0,0,0,0,0,0,0,0,0,0,0,0,0,0,0,0,0,0,0,0,0,0,0,0,0,0,0,0,0,0,0,0,0,0,0,0,0,0,0,0,0,0,0,0,0,0,89,90,0,0,0,0,
0,0,0,0,0,0,0,0,0,0,0,89,90,0,0,0,0,0,0,0,0,0,0,0,0,0,0,0,0,0,0,0,0,0,0,0,0,0,0,0,0,0,0,0,0,0,0,0,0,0,0,0,0,0,0,0,0,0,0,0,0,0,0,0,0,0,0,0,0,0,0,0,0,0,114,115,0,0,0,0,
0,0,0,0,0,0,0,0,0,0,0,114,115,0,0,0,0,0,0,0,0,0,0,0,0,0,0,0,0,0,0,0,0,0,0,0,0,0,0,0,0,0,0,0,0,0,0,0,0,0,0,0,0,0,0,0,0,0,0,0,0,0,0,0,0,0,0,0,0,0,0,0,0,0,0,0,0,0,0,0,
90,0,0,0,0,0,0,0,0,0,0,0,0,0,0,0,0,0,0,0,0,0,0,0,0,0,0,0,0,0,0,0,0,0,0,0,0,0,0,0,0,0,0,0,0,0,0,0,0,0,0,0,0,0,0,0,0,0,0,0,0,0,0,0,0,0,0,0,0,0,0,0,0,0,0,0,0,0,0,0,
115,0,0,0,0,89,90,0,0,0,0,0,0,0,0,0,0,0,0,0,0,0,0,0,0,0,0,0,0,0,0,0,0,0,0,0,0,0,0,0,0,0,0,0,0,0,0,0,0,0,0,0,0,0,0,0,0,0,0,0,0,0,0,0,0,0,0,0,0,0,0,0,0,0,0,0,0,0,0,0,
0,0,0,0,0,114,115,0,0,0,0,0,0,0,0,0,0,0,0,0,0,0,0,0,0,0,0,0,0,0,0,0,0,0,0,0,0,0,0,0,0,0,0,0,0,0,0,0,0,0,0,0,0,0,0,0,0,0,0,0,0,0,0,0,0,0,0,0,0,0,0,0,0,0,0,0,0,0,0,0,
0,0,0,0,0,0,0,0,0,0,0,0,0,0,0,0,0,0,0,0,0,0,0,0,0,0,0,0,0,0,0,0,0,0,0,0,0,0,0,0,0,0,0,0,0,0,0,0,0,0,0,0,0,0,0,0,0,0,0,0,0,0,0,0,0,0,0,0,0,0,0,0,0,0,0,0,0,0,0,0,
0,0,0,0,89,90,0,0,0,0,0,0,0,0,0,0,0,0,0,0,0,0,0,0,0,0,0,0,0,0,0,0,0,0,0,0,0,0,0,0,0,0,0,0,0,0,0,0,0,0,0,0,0,0,0,0,0,0,0,0,0,0,0,0,0,0,0,0,0,0,0,0,0,0,0,89,90,0,0,0,
0,0,0,0,114,115,0,0,0,0,0,0,0,0,0,0,0,0,0,0,0,0,0,0,0,0,0,0,0,0,0,0,0,0,0,0,0,0,0,0,0,0,0,0,0,0,0,0,0,0,0,0,0,0,0,0,0,0,0,0,0,0,0,0,0,0,0,0,0,0,0,0,0,0,0,114,115,0,0,0,
0,0,0,0,0,0,0,0,0,0,0,0,0,0,0,0,0,0,0,0,0,0,0,0,0,0,0,0,0,0,0,0,0,0,0,0,0,0,0,0,0,0,0,0,0,0,0,0,0,0,0,0,0,0,0,0,0,0,0,0,0,0,0,0,0,0,0,0,0,0,0,0,0,0,0,0,0,0,0,0,
0,0,0,0,0,0,0,0,0,0,0,0,0,0,0,0,0,0,0,0,0,0,0,0,0,0,0,0,0,0,0,0,0,0,0,0,0,0,0,0,0,0,0,0,0,0,0,0,0,0,0,0,0,0,0,0,0,0,0,0,0,0,0,0,0,0,0,0,0,0,0,0,0,0,0,0,0,89,90,0,
0,89,90,0,0,0,0,0,0,0,0,0,0,0,0,0,0,0,0,0,0,0,0,0,0,0,0,0,0,0,0,0,0,0,0,0,0,0,0,0,0,0,0,0,0,0,0,0,0,0,0,0,0,0,0,0,0,0,0,0,0,0,0,0,0,0,0,0,0,0,0,0,0,0,0,0,0,114,115,0,
0,114,115,0,0,0,0,0,0,0,0,0,0,0,0,0,0,0,0,0,0,0,0,0,0,0,0,0,0,0,0,0,0,0,0,0,0,0,0,0,0,0,0,0,0,0,0,0,0,0,0,0,0,0,0,0,0,0,0,0,0,0,0,0,0,0,0,0,0,0,0,0,0,0,0,0,0,0,0,0,
0,0,0,0,0,0,0,0,0,0,0,0,0,0,0,0,0,0,0,0,0,0,0,0,0,0,0,0,0,0,0,0,0,0,0,0,0,0,0,0,0,0,0,0,0,0,0,0,0,0,0,0,0,0,0,0,0,0,0,0,0,0,0,0,0,0,0,0,0,0,0,0,0,0,0,0,0,0,0,0,
0,0,0,0,0,0,0,0,0,0,0,0,0,0,0,0,0,0,0,0,0,0,0,0,0,0,0,0,0,0,0,0,0,0,0,0,0,0,0,0,0,0,0,0,0,0,0,0,0,0,0,0,0,0,0,0,0,0,0,0,0,0,0,0,0,0,0,0,0,0,0,0,0,0,89,90,0,0,0,0,
0,0,0,0,0,0,0,0,0,0,0,0,0,0,0,0,0,0,0,0,0,0,0,0,0,0,0,0,0,0,0,0,0,0,0,0,0,0,0,0,0,0,0,0,0,0,0,0,0,0,0,0,0,0,0,0,0,0,0,0,0,0,0,0,0,0,0,0,0,0,0,0,0,0,114,115,0,0,0,0,
0,0,0,0,0,0,0,0,0,0,0,0,0,0,0,0,0,0,0,0,0,0,0,0,0,0,0,0,0,0,0,0,0,0,0,0,0,0,0,0,0,0,0,0,0,0,0,0,0,0,0,0,0,0,0,0,0,0,0,0,0,0,0,0,0,0,0,0,0,0,0,0,0,0,0,0,0,0,0,0,
0,0,0,0,89,90,0,0,0,0,0,0,0,0,0,0,0,0,0,0,0,0,0,0,0,0,0,0,0,0,0,0,0,0,0,0,0,0,0,0,0,0,0,0,0,0,0,0,0,0,0,0,0,0,0,0,0,0,0,0,0,0,0,0,0,0,0,0,0,0,0,0,0,0,0,0,0,0,0,89,
0,0,0,0,114,115,0,0,0,0,0,0,0,0,0,0,0,0,0,0,0,0,0,0,0,0,0,0,0,0,0,0,0,0,0,0,0,0,0,0,0,0,0,0,0,0,0,0,0,0,0,0,0,0,0,0,0,0,0,0,0,0,0,0,0,0,0,0,0,0,0,0,0,0,0,0,0,0,0,114,
0,0,0,0,0,0,0,0,0,0,0,0,0,0,0,0,0,0,0,0,0,0,0,0,0,0,0,0,0,0,0,0,0,0,0,0,0,0,0,0,0,0,0,0,0,0,0,0,0,0,0,0,0,0,0,0,0,0,0,0,0,0,0,0,0,0,0,0,0,0,0,0,0,0,0,0,0,0,0,0,
0,0,0,0,0,0,0,0,0,0,0,0,0,0,0,0,0,0,0,0,0,0,0,0,0,0,0,0,0,0,0,0,0,0,0,0,0,0,0,0,0,0,0,0,0,0,0,0,0,0,0,0,0,0,0,0,0,0,0,0,0,0,0,0,0,0,0,0,0,0,0,0,0,0,0,0,0,0,0,0,
0,0,0,0,0,0,0,0,0,0,0,0,0,0,0,0,0,0,0,0,0,0,0,0,0,0,0,0,0,0,0,0,0,0,0,0,0,0,0,0,0,0,0,0,0,0,0,0,0,0,0,0,0,0,0,0,0,0,0,0,0,0,0,0,0,0,0,0,0,0,0,0,0,0,89,90,0,0,0,0,
0,0,0,0,0,0,0,0,0,0,0,0,0,0,0,0,0,0,0,0,0,0,0,0,0,0,0,0,0,0,0,0,0,0,0,0,0,0,0,0,0,0,0,0,0,0,0,0,0,0,0,0,0,0,0,0,0,0,0,0,0,0,0,0,0,0,0,0,0,0,0,0,0,0,114,115,0,0,0,0,
0,0,0,0,0,0,0,0,0,0,0,0,0,0,0,0,0,0,0,0,0,0,0,0,0,0,0,0,0,0,0,0,0,0,0,0,0,0,0,0,0,0,0,0,0,0,0,0,0,0,0,0,0,0,0,0,0,0,0,0,0,0,0,0,0,0,0,0,0,0,0,0,0,0,0,0,0,0,0,0,
0,0,0,0,0,0,0,0,0,0,0,0,0,0,0,0,0,0,0,0,0,0,0,0,0,0,0,0,0,0,0,0,0,0,0,0,0,0,0,0,0,0,0,0,0,0,0,0,0,0,0,0,0,0,0,0,0,0,0,0,0,0,0,0,0,0,0,0,0,0,0,0,0,0,0,0,0,0,0,0,
0,0,0,0,0,0,0,0,0,0,0,0,0,0,0,0,0,0,0,0,0,0,0,0,0,0,0,0,0,0,0,0,0,0,0,0,0,0,0,0,0,0,0,0,0,0,0,0,0,0,0,0,0,0,0,0,0,0,0,0,0,0,0,0,0,0,0,0,0,0,0,0,0,0,0,0,0,0,0,0,
0,0,0,0,0,0,0,0,0,0,0,0,0,0,0,0,0,0,0,0,0,0,0,0,0,0,0,0,0,0,0,0,0,0,0,0,0,0,0,0,0,0,0,0,0,0,0,0,0,0,0,0,0,0,0,0,0,0,0,0,0,0,0,0,0,0,0,0,0,0,0,0,0,0,0,0,0,0,0,0,
0,0,0,0,0,0,0,0,0,0,0,0,0,0,0,0,0,0,0,0,0,0,0,0,0,0,0,0,0,0,0,0,0,0,0,0,0,0,0,0,0,0,0,0,0,0,0,0,0,0,0,0,0,0,0,0,0,0,0,0,0,0,0,0,0,0,0,0,0,0,0,0,0,0,0,0,0,0,0,0,
0,0,0,0,0,0,0,0,0,0,0,0,0,0,0,0,0,0,0,0,0,0,0,0,0,0,0,0,0,0,0,0,0,0,0,0,0,0,0,0,0,0,0,0,0,0,0,0,0,0,0,0,0,0,0,0,0,0,0,0,0,0,0,0,0,0,0,0,0,0,0,0,0,0,0,0,0,0,0,0,
0,0,0,0,0,0,0,0,0,0,0,0,0,0,0,0,0,0,0,0,0,0,0,0,0,0,0,0,0,0,0,0,0,0,0,0,0,0,0,0,0,0,0,0,0,0,0,0,0,0,0,0,0,0,0,0,0,0,0,0,0,0,0,0,0,0,0,0,0,0,0,0,0,0,0,0,0,0,0,0,
0,0,0,0,0,0,0,0,0,0,0,0,0,0,0,0,0,0,0,0,0,0,0,0,0,0,0,0,0,0,0,0,0,0,0,0,0,0,0,0,0,0,0,0,0,0,0,0,0,0,0,0,0,0,0,0,0,0,0,0,0,0,0,0,0,0,0,0,0,0,0,0,0,0,0,0,0,0,0,0,
0,0,0,0,0,0,0,0,0,0,0,0,0,0,0,0,0,0,0,0,0,0,0,0,0,0,0,0,0,0,0,0,0,0,0,0,0,0,0,0,0,0,0,0,0,0,0,0,0,0,0,0,0,0,0,0,0,0,0,0,0,0,0,0,0,0,0,0,0,0,0,0,0,494,0,0,0,0,0,0,
0,0,0,0,0,0,0,0,0,0,0,0,0,0,0,0,0,0,0,0,0,0,0,0,0,0,0,0,0,0,0,0,0,0,0,0,0,0,0,0,0,0,0,0,0,0,0,0,0,0,0,0,0,0,0,0,0,0,0,0,0,0,0,0,0,0,0,0,0,0,0,0,0,494,0,0,0,0,0,0,
0,0,0,0,0,0,0,0,0,0,0,0,0,0,0,0,0,0,0,0,0,0,0,0,0,0,0,0,0,0,0,0,0,0,0,0,0,0,0,0,0,0,0,0,0,0,0,0,0,0,0,0,0,0,0,0,0,0,0,0,0,0,0,0,0,0,0,0,0,0,0,0,0,0,0,0,0,14,15,16,
0,0,0,0,0,0,0,0,0,0,0,0,0,0,0,0,0,0,0,0,0,0,0,0,0,0,0,0,0,0,0,0,0,0,0,0,0,0,0,0,0,0,0,0,0,0,0,0,14,15,16,0,0,0,0,14,15,16,0,0,0,0,0,0,0,0,0,0,0,0,0,0,0,0,0,0,0,39,40,41,
0,0,0,0,0,0,0,0,0,0,0,0,0,0,0,0,0,0,0,0,0,0,0,0,0,89,90,0,0,0,0,0,0,0,0,0,0,0,0,0,0,0,89,90,0,0,0,0,39,40,41,0,0,0,0,39,40,41,0,89,90,0,0,0,89,90,0,0,0,0,0,0,0,0,0,0,0,64,65,66,
0,0,0,0,0,0,0,0,0,0,0,0,0,0,0,0,0,0,0,89,90,0,0,0,0,114,115,0,0,0,0,0,0,0,0,0,0,0,0,0,0,0,114,115,0,0,0,0,64,65,66,0,0,0,0,64,65,66,0,114,115,0,0,0,114,115,0,0,0,0,0,0,0,0,0,0,0,0,0,0,
89,90,0,0,0,0,0,0,0,0,0,0,0,0,0,0,0,0,0,114,115,0,0,0,0,0,0,0,411,0,0,0,0,0,0,0,0,0,0,0,0,0,0,0,0,0,0,0,0,89,90,0,89,90,0,0,0,0,0,0,0,0,0,0,0,0,0,0,0,0,0,0,0,0,0,0,0,0,0,0,
114,115,0,0,0,0,0,0,0,0,0,0,0,0,89,90,0,0,0,0,0,0,89,90,0,14,15,16,436,0,0,0,0,0,0,0,0,0,0,0,0,0,0,0,0,0,89,90,0,114,115,0,114,115,0,0,89,90,0,0,0,0,0,0,14,15,16,0,0,0,0,0,0,0,0,0,0,0,89,90,
0,0,0,0,0,0,0,0,0,0,0,0,0,0,114,115,0,0,0,0,0,0,114,115,0,39,40,41,0,0,0,0,0,0,0,0,0,0,0,0,0,0,0,0,0,0,114,115,0,0,0,0,0,0,0,0,114,115,0,0,0,89,90,0,39,40,41,0,0,0,0,0,0,0,0,0,0,0,114,115,
0,0,0,0,0,0,0,0,89,90,0,0,0,0,0,0,0,0,0,0,0,0,0,0,0,64,65,66,0,0,0,0,0,0,0,0,0,0,0,0,0,0,89,90,0,14,15,16,0,0,0,0,0,0,0,0,0,0,14,15,16,114,115,0,64,65,66,0,0,0,14,15,16,89,90,0,0,0,14,15,
0,0,0,0,0,0,0,0,114,115,0,0,0,89,90,0,0,0,0,0,0,0,0,0,0,0,0,0,89,90,0,0,0,0,0,0,0,0,0,0,0,0,114,115,0,39,40,41,0,0,0,89,90,0,0,89,90,0,39,40,41,0,0,0,0,0,0,89,90,0,39,40,41,114,115,0,0,0,39,40,
0,0,0,0,0,0,0,0,0,0,0,0,0,114,115,0,0,0,0,0,0,0,89,90,0,0,0,0,114,115,0,0,0,0,0,0,0,0,0,0,0,0,0,0,0,64,65,66,0,0,0,114,115,0,0,114,115,0,64,65,66,0,0,0,0,0,0,114,115,0,64,65,66,0,0,89,90,0,64,65,
0,0,89,90,0,0,0,0,0,0,0,0,0,0,0,0,0,0,0,0,0,0,114,115,0,0,0,0,0,0,0,0,0,0,0,0,0,0,0,0,0,0,0,0,0,0,0,0,0,0,0,0,0,0,0,0,0,0,0,0,0,0,0,0,0,0,0,0,0,0,0,0,0,0,0,114,115,0,0,0,
0,0,114,115,0,0,0,0,0,0,0,0,0,0,0,0,0,0,0,0,0,0,0,0,0,0,0,0,0,0,0,0,0,0,0,0,0,0,0,0,0,0,0,0,0,0,0,0,0,0,0,0,0,0,0,0,0,0,0,0,0,0,0,0,0,0,0,0,0,0,0,0,0,0,0,0,0,0,0,0,
0,0,0,0,0,0,0,0,0,0,0,0,0,0,0,0,0,0,0,0,0,0,0,0,0,0,0,0,0,0,0,0,0,0,0,0,0,0,0,0,0,0,0,0,0,0,0,0,0,0,0,0,0,0,0,0,0,0,0,0,0,0,0,0,0,0,0,0,0,0,0,0,0,0,89,90,0,0,0,0,
0,0,0,0,0,0,0,0,0,14,15,16,0,0,0,0,0,0,0,0,0,0,0,0,0,0,0,0,0,0,0,0,0,0,0,0,0,0,0,0,0,0,0,0,0,0,0,0,0,0,0,0,0,0,0,0,0,0,0,0,0,0,0,0,0,0,0,0,0,0,0,0,0,0,114,115,0,0,0,0,
0,0,0,0,0,0,0,0,0,39,40,41,0,0,0,0,0,0,0,0,0,0,0,0,0,0,0,0,0,0,0,0,0,0,0,0,0,0,0,0,0,0,0,0,0,0,0,0,0,0,0,0,0,0,0,0,0,0,0,0,0,0,0,0,0,0,0,0,0,0,0,0,0,0,0,0,0,0,0,0,
0,0,0,0,0,0,0,0,0,64,65,66,0,0,0,0,0,0,0,0,0,0,0,0,0,0,0,0,0,0,0,0,0,0,0,0,0,0,0,0,0,0,0,0,0,0,0,0,0,0,0,0,0,0,0,0,0,0,0,0,0,0,0,0,0,0,0,0,0,0,0,0,0,0,0,0,0,0,89,90,
0,0,0,0,0,0,0,0,89,90,0,0,0,0,0,0,0,0,0,0,0,0,0,0,0,0,0,0,0,0,0,0,0,0,0,0,0,0,0,0,0,0,0,0,0,0,0,0,0,0,0,0,0,0,0,0,0,0,0,0,0,0,0,0,0,0,0,0,0,0,0,0,0,0,0,0,0,0,114,115,
0,0,0,89,90,0,0,0,114,115,0,0,0,0,0,0,0,0,0,0,0,0,0,0,0,0,0,0,0,0,0,0,0,0,0,0,0,0,0,0,0,0,0,0,0,0,0,0,0,0,0,0,0,0,0,0,0,0,0,0,0,0,0,0,0,0,0,0,0,0,0,0,0,0,0,0,0,0,14,15,
90,0,0,114,115,0,0,0,0,0,0,0,0,0,0,0,0,0,0,0,0,0,0,0,0,0,0,0,0,0,0,0,0,0,0,0,0,0,0,0,0,0,0,0,0,0,0,0,0,0,0,0,0,0,0,0,0,0,0,0,0,0,0,0,0,0,0,0,0,0,0,0,0,0,0,0,0,0,39,40,
115,0,0,0,0,0,0,0,0,0,0,0,0,0,0,0,0,0,0,0,0,0,0,0,0,0,0,0,0,0,0,0,0,0,0,0,0,0,0,0,0,0,0,0,0,0,0,0,0,0,0,0,0,0,0,0,0,0,0,0,0,0,0,0,0,0,0,0,0,0,0,0,0,0,0,0,0,0,64,65,
0,0,0,0,0,14,15,16,0,0,0,0,0,0,0,0,0,0,0,0,0,0,0,0,0,0,0,0,0,0,0,0,0,0,0,0,0,0,0,0,0,0,0,0,0,0,0,0,0,0,0,0,0,0,0,0,0,0,0,0,0,0,0,0,0,0,0,0,0,0,0,0,0,0,0,0,0,0,0,0,
0,0,0,0,0,39,40,41,0,0,0,0,0,0,0,0,0,0,0,0,0,0,0,0,0,0,0,0,0,0,0,0,0,0,0,0,0,0,0,0,0,0,0,0,0,0,0,0,0,0,0,0,0,0,0,0,0,0,0,0,0,0,0,0,0,0,0,0,0,0,0,0,0,0,0,0,0,0,0,0,
0,0,0,0,0,64,65,66,0,0,0,0,0,0,0,0,0,0,0,0,0,0,0,0,0,0,0,0,0,0,0,0,0,0,0,0,0,0,0,0,0,0,0,0,0,0,0,0,0,0,0,0,0,0,0,0,0,0,0,0,0,0,0,0,0,0,0,0,0,0,0,0,0,0,0,0,0,0,0,0,
0,0,0,0,0,0,0,0,0,0,0,0,0,0,0,0,0,0,0,0,0,0,0,0,0,0,0,0,0,0,0,0,0,0,0,0,0,0,0,0,0,0,0,0,0,0,0,0,0,0,0,0,0,0,0,0,0,0,0,0,0,0,0,0,0,0,0,0,0,0,0,0,0,0,0,0,0,0,0,0,
0,0,0,0,0,0,0,0,0,0,0,0,0,0,0,0,0,0,0,0,0,0,0,0,0,0,0,0,0,0,0,0,0,0,0,0,0,0,0,0,0,0,0,0,0,0,0,0,0,0,0,0,0,0,0,0,0,0,0,0,0,0,0,0,0,0,0,0,0,0,0,0,0,0,0,0,0,0,0,0,
0,89,90,14,15,16,0,0,0,0,0,0,0,0,0,0,0,0,0,0,0,0,0,0,0,0,0,0,0,0,0,0,0,0,0,0,0,0,0,0,0,0,0,0,0,0,0,0,0,0,0,0,0,0,0,0,0,0,0,0,0,0,0,0,0,0,0,0,0,0,0,0,0,0,0,0,0,0,0,0,
0,114,115,39,40,41,0,0,0,0,0,0,0,0,0,0,0,0,0,0,0,0,0,0,0,0,0,0,0,0,0,0,0,0,0,0,0,0,0,0,0,0,0,0,0,0,0,0,0,0,0,0,0,0,0,0,0,0,0,0,0,0,0,0,0,0,0,0,0,0,0,0,0,0,0,0,0,0,0,0,
0,0,0,64,65,66,0,0,0,0,0,0,0,0,0,0,0,0,0,0,0,0,0,0,0,0,0,0,0,0,0,0,0,0,0,0,0,0,0,0,0,0,0,0,0,0,0,0,0,0,0,0,0,0,0,0,0,0,0,0,0,0,0,0,0,0,0,0,0,0,0,0,0,0,0,0,0,0,0,0,
0,0,0,0,0,0,0,0,0,0,0,0,0,0,0,0,0,0,0,0,0,0,0,0,0,0,0,0,0,0,0,0,0,0,0,0,0,0,0,0,0,0,0,0,0,0,0,0,0,0,0,0,0,0,0,0,0,0,0,0,0,0,0,0,0,0,0,0,0,0,0,0,0,0,0,0,0,0,0,0,
0,0,0,89,90,0,0,0,0,0,0,0,0,0,0,0,0,0,0,0,0,0,0,0,0,0,0,0,0,0,0,0,0,0,0,0,0,0,0,0,0,0,0,0,0,0,0,0,0,0,0,0,0,0,0,0,0,0,0,0,0,0,0,0,0,0,0,0,0,0,0,0,0,0,0,0,0,0,0,0,
0,0,0,114,115,0,0,0,0,0,0,0,0,0,0,0,0,0,0,0,0,0,0,0,0,0,0,0,0,0,0,0,0,0,0,0,0,0,0,0,0,0,0,0,0,0,0,0,0,0,0,0,0,0,0,0,0,0,0,0,0,0,0,0,0,0,0,0,0,0,0,0,0,0,0,0,0,0,0,0,
0,0,0,0,0,0,0,0,0,0,0,0,0,0,0,0,0,0,0,0,0,0,0,0,0,0,0,0,0,0,0,0,0,0,0,0,0,0,0,0,0,0,0,0,0,0,0,0,0,0,0,0,0,0,0,0,0,0,0,0,0,0,0,0,0,0,0,0,0,0,0,0,0,0,0,0,0,0,0,0,
0,0,0,0,14,15,16,0,0,0,0,0,0,0,0,0,0,0,0,0,0,0,0,0,0,0,0,0,0,0,0,0,0,0,0,0,0,0,0,0,0,0,0,0,0,0,0,0,0,0,0,0,0,0,0,0,0,0,0,0,0,0,0,0,0,0,0,0,0,0,0,0,0,0,0,0,0,0,0,0,
0,0,0,0,39,40,41,0,0,0,0,0,0,0,0,0,0,0,0,0,0,0,0,0,0,0,0,0,0,0,0,0,0,0,0,0,0,0,0,0,0,0,0,0,0,0,0,0,0,0,0,0,0,0,0,0,0,0,0,0,0,0,0,0,0,0,0,0,0,0,0,0,0,0,0,0,0,0,0,0,
0,0,0,0,64,65,66,0,0,0,0,0,0,0,0,0,0,0,0,0,0,0,0,0,0,0,0,0,0,0,0,0,0,0,0,0,0,0,0,0,0,0,0,0,0,0,0,0,0,0,0,0,0,0,0,0,0,0,0,0,0,0,0,0,0,0,0,0,0,0,0,0,0,0,0,0,0,0,0,0,
0,0,0,0,0,0,0,0,0,0,0,0,0,0,0,0,0,0,0,0,0,0,0,0,0,0,0,0,0,0,0,0,0,0,0,0,0,0,0,0,0,0,0,0,0,0,0,0,0,0,0,0,0,0,0,0,0,0,0,0,0,0,0,0,0,0,0,0,0,0,0,0,0,0,0,0,0,0,0,0,
0,0,0,0,0,0,0,0,0,0,0,0,0,0,0,0,0,0,0,0,0,0,0,0,0,0,0,0,0,0,0,0,0,0,0,0,0,0,0,0,0,0,0,0,0,0,0,0,0,0,0,0,0,0,0,0,0,0,0,0,0,0,0,0,0,0,0,0,0,0,0,0,0,0,0,0,0,0,0,0,
0,0,0,0,14,15,16,0,0,0,0,0,0,0,0,0,0,0,0,0,0,0,0,0,0,0,0,0,0,0,0,0,0,0,0,0,0,0,0,0,0,0,0,0,0,0,0,0,0,0,0,0,0,0,0,0,0,0,0,0,0,0,0,0,0,0,0,0,0,0,0,0,0,0,0,0,0,0,0,0,
0,0,0,0,39,40,41,0,0,0,0,0,0,0,0,0,0,0,0,0,0,0,0,0,0,0,0,0,0,0,0,0,0,0,0,0,0,0,0,0,0,0,0,0,0,0,0,0,0,0,0,0,0,0,0,0,0,0,0,0,0,0,0,0,0,0,0,0,0,0,0,0,0,0,0,0,0,0,0,0,
0,0,0,0,64,65,66,0,0,0,0,0,0,0,0,0,0,0,0,0,0,0,0,0,0,0,0,0,0,0,0,0,0,0,0,0,0,0,0,0,0,0,0,0,0,0,0,0,0,0,0,0,0,0,0,0,0,0,0,0,0,0,0,0,0,0,0,0,0,0,0,0,0,0,0,0,0,0,0,0,
0,0,0,0,0,0,0,0,0,0,0,0,0,0,0,0,0,0,0,0,0,0,0,0,0,0,0,0,0,0,0,0,0,0,0,0,0,0,0,0,0,0,0,0,0,0,0,0,0,0,0,0,0,0,0,0,0,0,0,0,0,0,0,0,0,0,0,0,0,0,0,0,0,0,0,0,0,0,0,0,
0,0,0,0,0,0,0,0,0,0,0,0,0,0,0,0,0,0,0,0,0,0,0,0,0,0,0,0,0,0,0,0,0,0,0,0,0,0,0,0,0,0,0,0,0,0,0,0,0,0,0,0,0,0,0,0,0,0,0,0,0,0,0,0,0,0,0,0,0,0,0,0,0,0,0,0,0,0,0,0,
0,0,0,0,0,0,0,0,0,0,0,0,0,0,0,0,0,0,0,0,0,0,0,0,0,0,0,0,0,0,0,0,0,0,0,0,0,0,0,0,0,0,0,0,0,0,0,0,0,0,0,0,0,0,0,0,0,0,0,0,0,0,0,0,0,0,0,0,0,0,0,0,0,0,0,0,0,0,0,0,
0,0,0,0,0,0,0,0,0,0,0,0,0,0,0,0,0,0,0,0,0,0,0,0,0,0,0,0,0,0,0,0,0,0,0,0,0,0,0,0,0,0,0,0,0,0,0,0,0,0,0,0,0,0,0,0,0,0,0,0,0,0,0,0,0,0,0,0,0,0,0,0,0,0,0,0,0,0,0,0,
0,0,0,0,0,0,0,0,0,0,0,0,0,0,0,0,0,0,0,0,0,0,0,0,0,0,0,0,0,0,0,0,0,0,0,0,0,0,0,0,0,0,0,0,0,0,0,0,0,0,0,0,0,0,0,0,0,0,0,0,0,0,0,0,0,0,0,0,0,0,0,0,0,0,0,0,0,0,0,0,
0,0,0,0,0,0,0,0,0,0,0,0,0,0,0,0,0,0,0,0,0,0,0,0,0,0,0,0,0,0,0,0,0,0,0,0,0,0,0,0,0,0,0,0,0,0,0,0,0,0,0,0,0,0,0,0,0,0,0,0,0,0,0,0,0,0,0,0,0,0,0,0,0,0,0,0,0,0,0,0,
0,0,0,0,0,0,0,0,0,0,0,0,0,0,0,0,0,0,0,0,0,0,0,0,0,0,0,0,0,0,0,0,0,0,0,0,0,0,0,0,0,0,0,0,0,0,0,0,0,0,0,0,0,0,0,0,0,0,0,0,0,0,0,0,0,0,0,0,0,0,0,0,0,0,0,0,0,0,0,0,
0,0,0,0,0,0,0,0,0,0,0,0,0,0,0,0,0,0,0,0,0,0,0,0,0,0,0,0,0,0,0,0,0,0,0,0,0,0,0,0,0,0,0,0,0,0,0,0,0,0,0,0,0,0,0,0,0,0,0,0,0,0,0,0,0,0,0,0,0,0,0,0,0,0,0,0,0,0,0,0,
0,0,7,8,9,10,0,0,0,0,0,0,0,0,0,0,0,0,0,0,0,0,0,0,0,0,0,0,0,0,0,0,0,0,0,0,0,0,0,0,0,0,0,0,0,0,0,0,0,0,0,0,0,0,0,0,0,0,0,0,0,0,0,0,0,0,0,0,0,0,0,0,0,0,0,0,0,0,0,0,
0,0,32,33,34,35,0,0,0,0,0,0,0,0,0,0,0,0,0,0,0,0,0,0,0,0,0,0,0,0,0,0,0,0,0,0,0,0,0,0,0,0,0,0,0,0,0,0,0,0,0,0,0,0,0,0,0,0,0,0,0,0,0,0,0,0,0,0,0,0,0,0,0,0,0,0,0,0,0,0,
0,0,57,58,59,60,0,0,0,0,0,0,0,0,0,0,0,0,0,0,0,0,0,0,0,0,0,0,0,0,0,0,0,0,0,0,0,0,0,0,0,0,0,0,0,0,0,0,0,0,0,0,0,0,0,0,0,0,0,0,0,0,0,0,0,0,0,0,0,0,0,0,0,0,0,0,0,0,0,0,
0,0,82,83,84,85,0,0,0,0,0,0,0,0,0,0,0,0,0,0,0,0,0,0,0,0,0,0,0,0,0,0,0,0,0,0,0,0,0,0,0,0,0,0,0,0,0,0,0,0,0,0,0,0,0,0,0,0,0,0,0,0,0,0,0,0,0,0,0,0,0,0,0,0,0,0,0,0,0,0,
0,0,107,108,109,0,0,0,0,0,0,0,0,0,0,0,0,0,0,0,0,0,0,0,0,0,0,0,0,0,0,0,0,0,0,0,0,0,0,0,0,0,0,0,0,0,0,0,0,0,0,0,0,0,0,0,0,0,0,0,0,0,0,0,0,0,0,0,0,0,0,0,0,0,0,0,0,0,0,0,
0,0,132,133,134,135,0,0,0,0,0,0,0,0,0,0,0,0,0,0,0,0,0,0,0,0,0,0,0,0,0,0,0,0,0,0,0,0,0,0,0,0,0,0,0,0,0,0,0,0,0,0,0,0,0,0,0,0,0,0,0,0,0,0,0,0,0,0,0,0,0,0,0,0,0,0,0,0,0,0,
0,0,0,158,159,160,0,0,0,0,0,0,0,0,0,0,0,0,0,0,0,0,0,0,0,0,0,0,0,0,0,0,0,0,0,0,0,0,0,0,0,0,0,0,0,0,0,0,0,0,0,0,0,0,0,0,0,0,0,0,0,0,0,0,0,0,0,0,0,0,0,0,0,0,0,0,0,0,0,0,
0,0,14,15,16,0,0,0,0,0,0,0,0,0,0,0,0,0,0,0,0,0,0,0,0,0,0,0,0,0,0,0,0,0,0,0,0,0,0,0,0,0,0,0,0,0,0,0,0,0,0,0,0,0,0,0,0,0,0,0,0,0,0,0,0,0,0,0,0,0,0,0,0,0,0,0,0,0,0,0,
0,0,39,40,41,0,0,0,0,0,0,0,0,0,0,0,0,0,0,0,0,0,0,0,0,0,0,0,0,0,0,0,0,0,0,0,0,0,0,0,0,0,0,0,0,0,0,0,0,0,0,0,0,0,0,0,0,0,0,0,0,0,0,0,0,0,0,0,0,0,0,0,0,0,0,0,0,0,0,0,
0,0,64,65,66,0,0,0,0,0,0,0,0,0,0,0,0,0,0,0,0,0,0,0,0,0,0,0,0,0,0,0,0,0,0,0,0,0,0,0,0,0,0,0,0,0,0,0,0,0,0,0,0,0,0,0,0,0,0,0,0,0,0,0,0,0,0,0,0,0,0,0,0,0,0,0,0,0,0,0,
0,0,0,0,0,0,0,0,0,0,0,0,0,0,0,0,0,0,0,0,0,0,0,0,0,0,0,0,0,0,0,0,0,0,0,0,0,0,0,0,0,0,0,0,0,0,0,0,0,0,0,0,0,0,0,0,0,0,0,0,0,0,0,0,0,0,0,0,0,0,0,0,0,0,0,0,0,0,0,0,
0,0,0,0,0,0,0,0,0,0,0,0,0,0,0,0,0,0,0,0,0,0,0,0,0,0,0,0,0,0,0,0,0,0,0,0,0,0,0,0,0,0,0,0,0,0,0,0,0,0,0,0,0,0,0,0,0,0,0,0,0,0,0,0,0,0,0,0,0,0,0,0,0,0,0,0,0,0,0,0,
0,0,0,0,0,0,0,0,0,0,0,0,0,0,0,0,0,0,0,0,0,0,0,0,0,0,0,0,0,0,0,0,0,0,0,0,0,0,0,0,0,0,0,0,0,0,0,0,0,0,0,0,0,0,0,0,0,0,0,0,0,0,0,0,0,0,0,0,0,0,0,0,0,0,0,0,0,0,0,0,
0,0,0,0,0,0,0,0,0,0,0,0,0,0,0,0,0,0,0,0,0,0,0,0,0,0,0,0,0,0,0,0,0,0,0,0,0,0,0,0,0,0,0,0,0,0,0,0,0,0,0,0,0,0,0,0,0,0,0,0,0,0,0,0,0,0,0,0,0,0,0,0,0,0,0,0,0,0,0,0,
8,9,10,0,0,0,0,0,0,0,0,0,0,0,0,0,0,0,0,0,0,0,0,0,0,0,0,0,0,0,0,0,0,0,0,0,0,0,0,0,0,0,0,0,0,0,0,0,0,0,0,0,0,0,0,0,0,0,0,0,0,0,0,0,0,0,0,0,0,0,0,0,0,0,0,0,0,0,0,0,
33,34,35,0,0,0,0,0,0,0,0,3135,0,0,0,0,0,0,0,0,0,0,0,0,0,0,0,0,0,0,0,0,0,0,0,0,0,0,0,0,0,0,0,0,0,0,0,0,0,0,0,0,0,0,0,0,0,0,0,0,0,0,0,0,0,0,0,0,0,0,0,0,0,0,0,0,0,14,15,16,
58,59,60,0,0,0,0,0,0,0,0,0,0,0,0,0,0,0,0,0,0,0,0,0,0,0,0,0,0,0,0,0,0,0,0,0,0,0,0,0,0,0,0,0,0,0,0,0,0,0,0,0,0,0,0,0,0,0,0,0,0,0,0,0,0,0,0,0,0,0,0,0,0,0,0,0,0,39,40,41,
83,84,85,0,0,0,0,0,0,0,0,0,0,0,0,0,0,0,0,0,0,0,0,0,0,0,0,0,0,0,0,0,0,0,0,0,0,0,0,0,0,0,0,0,0,0,0,0,0,0,0,0,0,0,0,0,0,0,0,0,0,0,0,0,0,0,0,0,0,0,0,0,0,0,0,0,0,64,65,66,
108,109,0,0,0,0,0,0,0,0,0,0,0,0,0,0,0,0,0,0,0,0,0,0,0,0,0,0,0,0,0,0,0,0,0,0,0,0,0,0,0,0,0,0,0,0,0,0,0,0,0,0,0,0,0,0,0,0,0,0,0,0,0,0,0,0,0,0,0,0,0,0,0,0,0,0,0,0,0,0,
133,134,135,0,0,0,0,0,0,0,0,0,0,0,0,0,0,0,0,0,0,0,0,0,3104,3104,3104,0,0,0,0,0,0,0,0,0,0,0,0,0,0,0,0,0,0,0,0,0,0,0,0,0,0,0,0,0,0,0,0,0,0,0,0,0,0,0,0,0,0,0,0,0,0,0,0,0,0,0,0,0,
158,159,160,0,0,0,0,0,0,0,0,0,0,0,0,0,0,0,0,0,0,0,0,3153,0,0,0,0,0,0,0,0,0,0,0,0,0,0,0,0,0,0,0,0,0,0,0,0,0,0,0,0,0,0,0,0,0,0,0,0,0,0,0,0,0,0,0,0,0,0,0,0,0,0,0,0,0,0,0,0,
0,0,0,0,0,0,0,0,0,0,0,0,0,0,0,0,0,0,0,0,0,0,0,0,0,0,0,0,0,0,0,0,0,0,0,0,0,0,0,0,0,0,0,0,0,0,0,0,0,0,0,0,0,0,0,0,0,0,0,0,0,0,0,0,0,0,0,0,0,0,0,0,0,0,0,0,0,0,0,0,
0,0,0,0,0,0,0,0,0,0,0,0,0,0,0,0,0,0,0,0,0,0,0,0,0,0,0,0,0,0,0,0,0,0,0,0,0,0,0,0,0,0,0,0,0,0,0,0,0,0,0,0,0,0,0,0,0,0,0,0,0,0,0,0,0,0,0,0,0,0,0,0,0,0,0,0,0,0,0,0,
0,0,0,0,0,0,0,0,0,0,0,0,0,0,0,0,0,0,0,0,0,0,0,0,0,0,0,0,0,0,0,0,0,0,0,0,0,0,0,0,0,0,0,0,0,0,0,0,0,0,0,0,0,0,0,0,0,0,0,0,0,0,0,0,0,0,0,0,0,0,0,0,0,0,0,0,0,0,0,0,
0,0,0,0,0,0,0,0,0,0,0,0,0,0,0,0,0,0,0,0,0,0,0,0,0,0,0,0,0,0,0,0,0,0,0,0,0,0,0,0,0,0,0,0,0,0,0,0,0,0,0,0,0,0,0,0,0,0,0,0,0,0,0,0,0,0,0,0,0,0,0,0,0,0,0,0,0,0,0,0
</data>
 </layer>
 <layer id="6" name="Front" width="80" height="110">
  <data encoding="csv">
0,0,0,0,0,0,0,0,0,0,0,0,0,0,0,0,0,0,0,0,0,0,0,0,0,0,0,0,0,0,0,0,0,0,0,0,0,0,0,0,0,0,0,0,0,0,0,0,0,0,0,0,0,0,0,0,0,0,0,0,0,0,0,0,0,0,0,0,0,0,0,0,0,0,0,61,62,63,86,87,
0,0,0,0,0,0,0,0,0,0,0,0,0,0,0,0,0,0,0,0,0,0,0,0,0,0,0,0,0,0,0,0,0,0,0,0,0,0,0,0,0,0,0,0,0,0,0,0,0,0,0,0,0,0,0,0,0,0,0,0,0,0,0,0,0,0,0,0,0,0,0,0,0,0,0,86,87,88,0,112,
0,0,0,0,0,0,0,0,0,0,0,0,0,0,0,0,0,0,0,0,0,0,0,0,0,0,0,0,0,0,0,0,0,0,0,0,0,0,0,0,0,0,0,0,0,0,0,0,0,0,0,0,0,0,0,0,0,0,0,0,0,0,0,0,0,0,0,0,0,0,0,0,0,0,0,0,112,113,136,137,
0,0,0,0,0,0,0,0,0,0,0,0,0,0,0,0,0,0,0,0,0,0,0,0,0,0,0,0,0,0,0,0,0,0,0,0,0,0,0,0,0,0,0,0,0,0,0,0,0,0,0,0,0,0,0,0,0,0,0,0,0,0,0,0,0,0,0,0,0,0,0,0,0,0,0,136,137,138,12,13,
0,0,0,0,0,0,0,0,0,0,0,0,0,0,0,0,0,0,0,0,0,0,0,0,0,0,0,0,0,0,0,0,0,0,0,0,0,0,0,0,0,0,0,0,0,0,0,0,0,0,0,0,0,0,0,0,0,0,0,0,0,0,0,0,0,0,0,0,0,0,0,0,0,0,0,0,0,36,37,38,
0,0,0,0,0,0,0,0,0,0,0,0,0,0,0,0,0,0,0,0,0,0,0,0,0,0,0,467,0,0,0,0,0,0,0,0,0,0,0,0,0,0,0,0,0,0,0,0,0,0,0,0,0,0,0,0,0,0,0,0,0,0,0,0,0,0,0,0,0,0,0,0,0,0,0,0,0,61,62,63,
0,0,0,0,0,0,0,0,0,0,0,0,0,0,0,0,0,0,0,0,0,0,0,0,0,0,0,0,0,0,0,0,0,0,0,0,0,0,0,0,0,0,0,0,0,0,0,0,0,0,0,0,0,0,0,0,0,0,0,0,0,0,0,0,0,0,0,0,0,0,0,0,0,11,0,0,0,86,87,88,
0,0,0,0,0,0,0,0,0,0,0,0,0,0,0,0,0,0,0,0,0,0,0,0,0,0,0,0,0,0,0,151,0,0,378,365,0,0,0,0,0,0,0,0,0,0,0,0,0,0,0,0,0,0,0,0,0,0,0,0,0,0,0,0,0,0,0,0,0,0,0,0,0,0,0,0,0,0,112,113,
0,0,0,0,0,0,0,0,0,0,0,0,0,0,0,0,0,0,0,0,0,0,0,0,0,0,0,0,0,0,467,0,0,151,176,257,390,0,0,0,0,0,0,0,0,0,0,0,0,0,0,0,0,0,0,0,0,0,0,0,0,0,0,0,0,0,0,0,0,0,0,0,0,0,0,0,0,136,137,138,
0,0,0,0,0,0,0,0,0,0,0,0,0,0,0,0,0,0,0,0,0,0,0,0,0,0,0,0,0,0,0,0,0,0,151,176,176,390,0,0,0,0,0,0,0,0,0,0,0,0,0,0,0,0,0,0,0,0,0,0,0,0,0,0,0,0,0,0,0,0,0,0,0,11,12,13,0,0,0,0,
0,0,0,0,0,0,0,0,0,0,0,0,0,0,0,0,0,0,0,0,0,0,0,0,0,0,0,0,0,0,0,0,0,0,0,0,176,176,390,0,0,0,0,0,0,0,0,0,0,0,0,0,0,0,0,0,0,0,0,0,0,0,0,0,0,0,0,0,0,0,0,0,0,36,37,38,0,0,11,12,
0,0,0,0,0,0,0,0,0,0,0,0,0,0,0,0,0,0,0,0,0,0,0,0,0,0,0,0,0,0,0,0,0,0,0,0,402,176,176,391,414,414,415,414,415,414,415,414,415,414,415,414,415,414,415,414,415,439,0,0,0,0,359,360,359,360,359,360,361,0,0,0,0,61,62,63,0,0,36,37,
0,0,0,0,0,0,0,0,0,0,0,0,0,0,0,0,0,0,0,0,0,0,0,0,0,0,0,0,0,0,0,0,0,0,0,0,0,151,151,402,326,327,327,302,303,303,303,137,327,86,303,88,303,304,327,327,328,0,0,0,0,0,362,0,0,0,0,0,0,0,0,0,0,86,87,88,0,0,61,62,
0,0,0,0,0,0,0,0,0,0,0,0,0,0,0,0,0,0,0,0,0,0,0,0,0,0,0,0,0,0,0,0,0,0,0,0,0,0,0,0,351,305,355,356,356,356,356,356,356,356,356,356,356,357,306,354,378,0,0,0,0,0,0,0,0,0,0,0,0,0,0,0,0,0,112,113,0,0,86,87,
0,0,0,0,0,0,0,0,0,0,0,0,0,0,0,0,0,0,0,0,0,0,0,0,0,0,0,0,0,0,0,0,0,0,0,0,0,0,0,402,351,352,380,381,381,381,381,381,381,381,381,381,381,407,354,378,0,0,0,0,0,0,11,12,13,0,0,0,0,0,0,0,0,136,137,138,0,0,0,112,
0,0,0,0,0,0,0,0,0,0,0,0,0,0,0,0,0,0,0,0,0,0,0,0,0,13,0,0,0,0,0,0,0,0,0,0,0,0,0,0,376,404,405,406,406,406,406,408,408,406,406,408,408,354,378,0,0,0,0,0,0,0,36,37,38,0,0,0,0,0,0,0,0,0,0,0,0,0,136,137,
0,0,0,0,0,0,11,12,13,0,0,0,0,0,0,0,0,0,0,0,0,0,0,0,0,38,0,0,0,0,0,0,0,0,0,0,0,0,0,0,0,376,377,277,278,278,278,278,279,377,377,377,377,378,0,0,0,0,0,0,0,0,61,62,63,0,0,0,0,0,0,0,0,0,0,0,0,0,0,0,
0,0,0,0,0,0,36,37,38,0,0,0,0,0,0,0,0,0,0,0,0,0,0,0,0,0,0,0,0,0,0,133,134,0,0,0,0,0,0,0,0,0,402,0,0,0,0,0,0,402,0,0,0,0,0,0,0,0,0,0,0,0,86,87,88,0,0,0,0,0,0,0,0,0,0,0,11,12,13,0,
0,0,0,0,0,0,61,62,63,0,0,0,0,0,0,0,0,0,0,0,0,0,0,0,0,0,0,0,0,0,0,0,0,0,0,0,0,0,0,0,0,467,0,0,0,0,0,0,0,0,0,0,0,0,0,0,0,0,0,0,0,0,0,112,0,0,0,0,0,0,0,0,0,11,12,13,36,37,38,0,
0,0,0,0,0,0,86,87,88,0,0,0,0,0,0,0,0,0,0,0,0,0,0,0,0,0,0,0,0,0,0,0,0,0,0,0,0,0,0,0,0,0,0,0,0,0,0,0,0,0,0,0,0,0,0,0,0,0,0,0,0,0,0,137,0,89,90,0,0,0,0,0,0,36,37,38,61,62,63,0,
0,0,0,0,0,0,0,0,0,0,0,0,0,0,0,0,0,0,0,0,0,0,0,0,0,0,0,0,0,0,0,0,0,0,0,0,0,0,0,0,0,0,0,0,0,0,0,0,0,0,0,0,0,0,0,0,0,362,0,0,0,0,0,0,0,114,115,0,14,15,16,0,0,61,62,63,86,87,88,0,
0,0,0,0,0,0,0,0,0,0,0,0,0,0,0,0,0,0,0,0,0,0,0,0,0,0,133,134,0,0,0,0,0,0,0,0,0,0,0,0,0,0,0,0,0,0,0,0,0,0,0,0,0,0,0,0,0,0,0,0,0,0,0,0,0,0,0,0,39,40,41,0,0,86,87,88,0,112,113,0,
0,0,0,0,0,0,0,0,0,0,0,0,0,0,0,0,0,0,0,0,0,0,0,0,0,0,0,0,0,0,0,0,0,112,0,0,112,0,0,112,0,0,0,0,0,0,0,0,0,0,0,0,0,0,0,0,0,0,0,0,0,0,0,0,0,0,0,0,64,65,66,0,0,0,112,113,136,137,138,0,
0,0,0,0,0,0,0,0,0,0,0,0,0,0,0,0,0,0,0,0,0,0,0,0,0,0,0,0,362,359,360,359,360,361,360,361,361,0,0,0,0,0,0,0,0,0,0,0,0,0,0,0,0,0,0,0,0,0,0,0,0,0,0,0,0,86,87,88,0,0,0,0,0,136,137,138,0,0,11,12,
0,0,0,0,0,0,0,0,0,0,0,0,0,0,0,0,0,0,0,0,0,0,0,0,0,0,0,0,0,0,0,0,0,0,0,0,0,359,360,361,360,361,112,359,360,359,360,361,360,359,360,359,360,361,360,361,361,0,0,0,0,0,362,89,90,0,0,0,0,0,0,0,0,11,12,13,0,0,36,37,
0,0,0,0,0,0,0,0,0,0,0,0,0,0,0,0,0,0,0,0,0,0,0,0,0,0,0,0,0,0,0,0,0,0,0,0,0,0,0,0,0,0,0,0,0,0,0,0,0,0,0,0,0,0,0,0,0,0,0,0,0,0,0,114,115,0,0,0,0,0,0,0,0,36,37,38,0,0,61,62,
0,0,0,0,0,0,0,0,0,0,0,0,0,0,0,0,0,0,0,0,0,0,0,0,0,0,0,0,0,0,0,362,359,360,361,0,0,0,0,0,0,0,0,0,0,0,0,0,0,0,0,0,0,0,0,0,0,0,0,0,0,0,0,0,0,0,0,0,0,0,14,15,16,61,62,63,0,0,86,87,
0,0,0,0,0,0,0,0,0,0,0,0,0,0,0,0,0,0,0,0,0,0,0,0,0,0,0,112,412,0,0,412,39,40,41,359,360,361,0,0,0,0,0,0,0,0,0,0,0,0,0,0,0,0,0,0,0,0,0,0,0,0,0,0,0,0,0,0,0,0,39,40,41,86,87,88,0,0,0,112,
0,0,0,0,0,0,0,0,0,0,0,0,0,0,0,0,0,0,0,0,0,0,0,0,0,0,0,0,437,0,0,437,0,0,0,0,0,0,0,0,0,0,0,0,0,0,0,0,0,0,0,0,0,0,0,0,0,0,0,0,0,0,0,0,0,0,0,0,0,0,64,65,66,0,112,113,0,0,136,137,
0,0,0,0,0,0,0,0,0,0,0,0,0,0,0,0,0,0,0,0,0,0,0,0,0,0,0,0,0,0,0,0,0,0,0,0,0,0,0,0,0,0,0,0,0,0,0,0,0,0,0,0,0,0,0,0,0,0,0,0,0,0,0,0,0,101,0,14,15,16,0,0,0,136,137,138,0,0,0,0,
0,0,0,0,0,0,0,0,0,0,0,0,0,0,0,0,0,0,0,0,0,0,0,0,0,0,0,0,0,0,0,0,0,0,0,0,0,0,0,0,0,0,0,0,0,0,0,0,0,0,0,0,0,0,0,0,0,0,0,0,0,0,0,0,0,0,0,39,40,41,89,90,0,0,0,0,0,0,0,0,
0,0,0,0,0,0,0,0,0,0,0,0,0,0,0,0,0,0,0,0,0,0,0,0,0,0,0,0,0,0,0,0,0,0,0,0,0,0,0,0,0,0,0,1979,0,0,0,0,0,0,0,0,0,0,0,1979,0,0,0,0,0,0,0,0,0,0,0,64,65,66,114,115,0,0,0,0,0,0,0,0,
0,0,0,0,0,0,0,0,0,0,0,0,0,0,0,0,0,0,0,0,0,0,0,0,0,0,0,0,0,0,0,0,0,0,0,0,0,0,0,0,0,0,0,0,0,0,0,0,0,0,0,0,0,0,0,0,0,0,0,0,0,0,0,0,0,0,0,0,0,0,14,15,16,0,0,0,0,0,11,12,
0,0,0,0,0,0,0,0,0,0,0,0,0,0,322,394,0,0,0,0,0,0,0,0,0,0,0,0,0,0,0,0,0,0,0,0,0,0,0,0,0,0,0,0,0,0,0,0,0,0,0,0,0,0,0,0,0,0,1659,0,1659,0,0,0,0,0,0,0,0,0,39,40,41,0,0,0,0,0,36,37,
0,0,0,0,0,0,0,0,0,0,0,0,0,297,0,494,0,0,0,0,0,0,0,0,0,0,0,0,0,0,0,0,0,0,0,0,0,0,0,0,0,0,0,0,0,0,0,0,0,0,0,0,0,0,0,0,0,0,0,0,0,11,12,13,0,0,0,0,0,0,64,65,66,0,0,0,0,0,61,62,
0,0,0,0,0,0,0,0,0,0,0,0,0,0,0,0,0,0,0,0,0,0,0,0,0,0,0,0,0,0,0,0,0,0,0,0,0,0,0,0,0,0,0,0,0,0,0,0,0,0,0,11,12,13,0,0,0,0,0,0,0,36,37,38,0,0,0,0,0,0,0,0,0,0,0,0,0,0,86,87,
0,0,0,0,0,0,0,0,0,0,0,0,0,0,0,0,0,0,0,0,0,0,0,0,0,0,0,0,0,0,0,0,0,0,0,0,0,0,0,0,0,0,0,0,0,0,0,0,0,0,0,36,37,38,0,0,0,0,0,0,0,61,62,63,0,11,12,13,0,0,0,0,0,0,0,0,0,0,0,112,
0,0,0,0,0,0,0,0,0,0,0,0,0,0,0,0,0,0,0,0,0,0,0,0,0,0,0,0,0,0,0,0,0,0,0,0,0,0,0,0,0,0,0,0,0,0,0,0,0,0,0,61,62,63,0,0,0,0,0,0,0,86,87,88,0,36,37,38,0,0,0,0,0,0,0,0,0,0,136,137,
0,0,0,0,0,0,0,0,0,0,0,0,0,0,0,0,0,0,0,0,0,0,0,0,0,0,0,0,362,0,0,362,0,0,0,0,0,0,0,0,0,0,0,0,11,12,13,0,0,0,0,86,87,88,0,0,0,0,0,11,12,13,112,113,0,61,62,63,0,0,0,0,11,12,13,0,0,0,0,0,
0,0,0,0,0,0,0,0,0,0,0,0,0,0,0,0,0,0,0,0,0,0,0,0,0,0,0,0,0,0,0,0,0,0,0,0,0,0,0,11,12,13,0,0,36,37,38,0,0,0,0,0,112,113,0,11,12,13,0,36,37,38,137,138,0,86,87,88,0,0,0,0,36,37,38,0,0,0,0,0,
0,0,0,11,12,13,0,0,0,0,0,0,0,0,0,0,0,0,0,0,0,0,0,0,0,0,0,0,0,0,0,0,0,0,0,0,0,0,0,36,37,38,0,0,61,62,63,0,0,0,0,136,137,138,0,36,37,38,0,61,62,63,0,0,0,0,112,113,0,0,0,0,61,62,63,0,11,12,13,0,
11,12,13,36,37,38,0,0,0,0,0,0,0,0,0,0,0,0,0,0,0,0,0,0,0,0,0,0,0,0,0,0,0,0,0,0,0,0,0,61,62,63,0,0,86,87,88,0,0,0,0,0,0,0,0,61,62,63,0,86,87,88,0,0,0,136,137,138,0,0,0,0,86,87,88,0,36,37,38,0,
36,37,38,61,62,63,0,0,0,0,0,0,0,0,0,0,0,0,0,0,0,0,0,0,0,0,0,0,0,0,0,0,0,13,0,0,0,0,0,86,87,88,0,0,0,112,113,0,0,0,0,306,0,0,306,86,87,88,0,0,112,113,0,0,0,0,0,0,0,0,0,0,0,112,113,0,61,62,63,0,
61,62,63,86,87,88,0,0,0,0,0,0,0,0,0,0,0,0,0,0,0,0,0,0,0,0,0,0,0,0,0,0,0,0,0,0,0,0,0,0,112,113,0,11,136,137,138,0,0,0,0,0,0,11,12,13,112,113,0,306,137,138,0,0,0,0,0,0,0,0,0,0,136,137,138,0,86,87,88,0,
86,87,88,0,112,11,12,13,0,0,0,0,0,0,0,0,0,0,0,0,0,0,0,0,0,0,11,12,13,0,0,0,0,0,0,0,0,0,0,136,137,138,0,36,37,38,0,0,0,11,12,13,0,36,37,38,137,138,0,11,12,13,0,306,0,0,0,11,12,13,0,0,0,0,0,0,0,112,113,0,
0,112,113,136,137,36,37,38,0,0,0,0,0,0,0,0,0,0,0,0,0,0,0,0,0,0,36,37,38,0,0,0,0,0,0,0,0,0,0,0,0,0,0,61,62,63,0,0,0,36,37,38,0,61,62,63,0,0,0,36,37,38,0,0,306,0,0,36,37,38,0,0,0,0,0,0,136,137,138,0,
136,137,138,0,0,61,62,63,0,0,0,0,0,0,0,0,0,0,0,0,0,0,0,0,0,0,61,62,63,0,0,0,0,0,12,361,0,0,0,0,0,0,0,86,87,88,0,0,0,61,62,63,0,86,87,88,0,0,0,61,62,63,0,0,0,0,0,61,62,63,0,0,0,0,0,0,0,0,0,11,
12,13,0,0,0,86,87,88,0,0,0,0,0,0,0,0,0,0,0,0,0,0,0,0,0,0,86,87,88,0,0,136,0,138,37,38,439,0,0,0,0,0,0,0,112,113,0,0,0,86,87,88,0,0,112,113,0,0,0,86,87,88,0,0,0,0,0,86,87,88,0,0,0,0,0,0,0,0,0,36,
37,38,11,12,13,0,112,113,0,0,0,0,0,0,0,0,0,0,0,0,0,0,0,0,0,0,0,112,113,0,0,0,0,61,62,63,0,0,0,0,0,0,0,136,137,138,0,0,0,0,112,113,0,136,137,138,0,0,0,0,112,113,0,0,0,0,0,0,112,113,0,0,0,0,0,0,0,0,0,61,
62,63,36,37,38,136,137,138,0,0,0,0,0,0,0,0,0,0,0,0,0,0,0,0,0,0,136,137,138,0,0,0,0,86,87,88,0,0,0,0,0,0,0,0,0,0,0,0,0,136,137,138,0,0,0,0,0,0,0,136,137,138,0,0,0,0,0,136,137,138,0,0,0,306,0,0,0,0,0,86,
87,88,61,62,63,0,0,0,0,0,0,0,0,0,0,0,0,0,0,0,0,0,0,0,0,0,0,0,0,0,0,0,0,0,112,113,0,0,0,0,0,0,0,0,0,0,0,0,0,0,0,0,0,0,0,0,0,0,0,0,0,0,0,0,0,0,0,0,0,0,0,0,0,0,0,0,0,0,0,0,
112,113,86,87,88,0,0,0,0,0,0,0,0,0,0,0,0,0,0,0,0,0,0,0,0,0,0,0,0,0,0,0,0,136,137,138,0,0,0,0,0,0,0,0,0,0,0,0,0,0,0,0,0,0,0,0,0,0,0,0,0,0,0,0,0,0,0,0,0,0,0,0,0,0,0,0,0,0,0,136,
137,138,0,112,113,0,0,0,0,0,0,0,0,0,0,0,0,0,0,0,0,0,0,0,0,0,0,0,0,0,0,0,0,0,0,0,0,0,0,0,0,0,0,0,0,0,0,0,0,0,0,0,0,0,0,0,0,0,0,0,0,0,0,0,0,0,0,0,0,0,0,0,0,0,0,0,0,0,0,0,
0,0,136,137,138,0,0,0,0,0,0,0,0,0,0,0,0,0,0,0,0,0,0,0,0,0,0,0,467,0,0,0,0,0,0,0,0,0,0,0,0,0,0,0,0,0,0,0,0,0,0,0,0,0,0,0,0,0,0,0,0,0,0,0,0,0,0,0,0,0,0,0,0,0,0,0,0,0,0,0,
0,0,0,0,0,0,0,0,0,0,0,0,0,0,0,0,0,0,0,0,0,0,0,0,0,0,0,0,0,0,0,0,0,0,0,0,0,0,0,0,0,0,0,0,0,0,0,0,0,0,0,0,0,0,0,0,0,0,0,0,0,0,0,0,0,0,0,0,0,0,0,0,0,0,11,12,0,0,0,0,
11,12,13,0,0,0,0,0,0,0,0,0,0,0,0,0,0,0,0,0,0,0,0,0,0,0,0,0,0,0,0,0,151,0,0,378,365,0,0,0,0,0,0,0,0,0,0,0,0,0,0,0,0,0,0,0,0,0,0,0,0,0,0,0,0,0,0,0,0,0,0,0,0,0,36,37,0,0,0,0,
36,37,38,11,12,13,0,0,0,0,0,0,0,0,0,0,0,0,0,0,0,0,0,0,0,0,0,0,0,0,0,467,0,0,151,176,257,390,0,0,0,0,0,0,0,0,0,0,0,0,0,0,0,0,0,0,0,0,0,0,0,0,0,0,0,0,0,0,0,0,0,0,0,0,61,62,0,0,0,11,
61,62,63,36,37,38,0,0,0,0,0,0,0,0,0,0,0,0,0,0,0,0,0,0,0,0,0,0,0,0,0,0,0,0,0,151,176,176,390,0,0,0,0,0,0,0,0,0,0,0,0,0,0,0,0,0,0,0,0,0,0,0,0,0,0,0,0,0,0,0,0,0,0,0,86,87,0,0,0,36,
86,87,88,61,62,63,0,0,0,0,0,0,0,0,0,0,0,0,0,0,0,0,0,0,0,0,0,0,0,0,0,0,0,0,0,0,0,176,176,390,0,0,0,0,0,0,0,0,0,0,0,0,0,0,0,0,0,0,0,0,0,0,0,0,0,0,0,0,0,361,361,0,0,0,0,112,0,0,0,61,
0,112,113,86,87,88,0,0,0,0,0,0,0,0,0,0,0,0,0,0,0,0,0,0,0,0,0,0,0,0,0,0,0,0,0,0,0,402,176,176,391,414,414,415,414,415,414,415,414,415,414,415,414,415,414,415,414,415,439,0,0,0,0,359,360,359,360,359,360,361,0,0,0,0,0,0,0,0,0,86,
136,137,138,0,112,113,0,0,0,0,0,0,0,0,0,0,0,0,0,0,0,0,0,0,0,0,0,0,0,0,0,0,0,0,0,0,0,0,151,151,402,326,327,327,302,303,303,303,137,327,86,303,88,303,304,327,327,328,0,0,0,0,0,362,0,0,0,0,0,0,0,0,0,0,0,0,0,0,0,0,
0,0,0,136,137,138,0,0,0,0,0,0,0,0,0,0,0,0,0,0,0,0,0,0,0,0,0,0,0,0,0,0,0,0,0,0,0,0,0,0,0,351,305,355,356,356,356,356,356,356,356,356,356,356,357,306,354,378,0,0,0,0,0,0,0,0,0,0,0,0,0,0,0,0,0,0,0,0,0,0,
11,12,13,0,11,12,13,0,0,0,0,0,0,0,0,0,0,0,0,0,0,0,0,0,0,0,0,0,0,0,0,0,0,0,0,0,0,0,0,0,402,351,352,380,381,381,381,381,381,381,381,381,381,381,407,354,378,0,0,0,0,0,0,11,12,13,0,0,0,0,0,0,0,0,0,0,0,0,0,0,
36,37,38,0,36,37,38,0,0,0,0,0,0,0,0,0,0,0,0,0,0,0,0,0,0,0,13,0,0,0,0,0,0,0,0,0,0,0,0,0,0,376,404,405,406,406,406,406,408,408,406,406,408,408,354,378,0,0,0,0,0,0,0,36,37,38,0,0,0,0,0,0,0,0,11,0,0,0,0,0,
61,62,63,0,61,62,63,11,12,13,0,0,0,0,0,0,0,0,0,0,0,0,0,0,0,0,38,0,0,0,0,0,0,0,0,0,0,0,0,0,0,0,376,377,277,278,278,278,278,279,377,377,377,377,378,0,0,0,0,0,0,0,0,61,62,63,0,0,0,0,0,0,0,0,0,0,0,0,0,0,
86,87,88,0,86,87,88,36,37,38,0,0,0,0,0,0,0,0,0,0,0,0,0,0,0,0,0,0,0,0,0,0,133,134,0,0,0,0,0,0,0,0,0,402,0,0,0,0,0,0,402,0,0,0,0,0,0,0,0,0,0,0,0,86,87,88,0,0,0,0,0,0,0,0,0,0,0,0,0,0,
0,112,113,0,0,112,113,61,62,63,0,0,0,0,0,0,0,0,0,0,0,0,0,0,0,0,0,0,0,0,0,0,0,0,0,0,0,0,0,0,0,0,467,0,0,0,0,0,0,0,0,0,0,0,0,0,0,0,0,0,0,0,0,0,112,0,0,0,0,0,0,0,0,0,0,0,0,0,0,0,
136,137,138,12,136,137,138,86,87,88,0,0,0,0,0,0,0,0,0,0,0,0,0,0,0,0,0,0,0,0,0,0,0,0,0,0,0,0,0,0,0,0,0,0,0,0,0,0,0,0,0,0,0,0,0,0,0,0,0,0,0,0,0,0,137,0,89,90,0,0,0,0,0,0,0,112,0,0,0,0,
0,0,36,37,38,0,0,0,0,0,0,0,0,0,0,0,0,0,0,0,0,0,0,0,0,0,0,0,0,0,0,0,0,0,0,0,0,0,0,0,0,0,0,0,0,0,0,0,0,0,0,0,0,0,0,0,0,0,362,0,0,0,0,0,0,0,114,115,0,14,15,16,0,0,136,137,89,90,0,0,
0,0,61,62,63,0,0,0,0,0,0,0,0,0,0,0,0,0,0,0,0,0,0,0,0,0,0,133,134,0,0,0,0,0,0,0,0,0,0,0,0,0,0,0,0,0,0,0,0,0,0,0,0,0,0,0,0,0,0,0,0,0,0,0,0,0,0,0,0,39,40,41,0,0,0,0,114,115,0,14,
0,0,86,87,88,0,0,0,0,0,0,0,0,0,0,0,0,0,0,0,0,0,0,0,0,0,0,0,0,0,0,0,0,0,112,0,0,112,0,0,112,0,0,0,0,0,0,0,0,0,0,0,0,0,0,0,0,0,0,0,0,0,0,0,0,0,0,0,0,64,65,66,0,0,0,0,0,0,0,39,
0,0,0,112,113,0,0,0,0,0,0,0,0,0,0,0,0,0,0,0,0,0,0,0,0,0,0,0,0,362,359,360,359,360,361,360,361,361,0,0,0,0,0,0,0,0,0,0,0,0,0,0,0,0,0,0,0,0,0,0,0,0,0,0,0,0,86,87,88,0,0,0,0,0,0,0,0,0,0,64,
12,13,136,137,138,0,0,0,0,0,0,0,0,0,0,0,0,0,0,0,0,0,0,0,0,0,0,0,0,0,0,0,0,0,0,0,0,0,359,360,361,360,361,112,359,360,359,360,361,360,359,360,359,360,361,360,361,361,0,0,0,0,0,362,89,90,0,0,0,0,0,0,0,0,0,0,86,87,88,0,
37,38,0,0,0,0,0,0,0,0,0,0,0,0,0,0,0,0,0,0,0,0,0,0,0,0,0,0,0,0,0,0,0,0,0,0,0,0,0,0,0,0,0,0,0,0,0,0,0,0,0,0,0,0,0,0,0,0,0,0,0,0,0,0,114,115,0,0,0,0,0,0,0,0,0,90,0,0,0,0,
62,63,0,0,0,0,0,0,0,0,0,0,0,0,0,0,0,0,0,0,0,0,0,0,0,0,0,0,0,0,0,0,362,359,360,361,0,0,0,0,0,0,0,0,0,0,0,0,0,0,0,0,0,0,0,0,0,0,0,0,0,0,0,0,0,0,0,0,0,0,0,14,15,16,0,115,0,0,0,0,
87,88,0,0,0,0,0,0,0,0,0,0,0,0,0,0,0,0,0,0,0,0,0,0,0,0,0,0,112,412,0,0,412,39,40,41,359,360,361,0,0,0,0,0,0,0,0,0,0,0,0,0,0,0,0,0,0,0,0,0,0,0,0,0,0,0,0,0,0,0,0,39,40,41,0,0,0,0,0,0,
112,113,0,0,0,0,0,0,0,0,0,0,0,0,0,0,0,0,0,0,0,0,0,0,0,0,0,0,0,437,0,0,437,0,0,0,0,0,0,0,0,0,0,0,0,0,0,0,0,0,0,0,0,0,0,0,0,0,0,0,0,0,0,0,0,0,0,0,0,0,0,64,65,66,0,0,0,0,0,0,
137,138,0,0,0,0,0,0,0,0,0,0,0,0,0,0,0,0,0,0,0,0,0,0,0,0,0,0,0,0,0,0,0,0,0,0,0,0,0,0,0,0,0,0,0,0,0,0,0,0,0,0,0,0,0,0,0,0,0,0,0,0,0,0,0,0,101,0,14,15,16,0,0,0,0,0,0,0,0,0,
0,0,0,0,0,0,0,0,0,0,0,0,0,0,0,0,0,0,0,0,0,0,0,0,0,0,0,0,0,0,0,0,0,0,0,0,0,0,0,0,0,0,0,0,0,0,0,0,0,0,0,0,0,0,0,0,0,0,0,0,0,0,0,0,0,0,0,0,39,40,41,89,90,0,0,0,0,0,0,0,
0,0,0,0,0,0,0,0,0,0,0,0,0,0,0,0,0,0,0,0,0,0,0,0,0,0,0,0,0,0,0,0,0,0,0,0,0,0,0,0,0,0,0,0,1979,0,0,0,0,0,0,0,0,0,0,0,1979,0,0,0,0,0,0,0,0,0,0,0,64,65,66,114,115,0,0,0,0,0,0,0,
0,0,0,0,0,0,0,0,0,0,0,0,0,0,0,0,0,0,0,0,0,0,0,0,0,0,0,0,0,0,0,0,0,0,0,0,0,0,0,0,0,0,0,0,0,0,0,0,0,0,0,0,0,0,0,0,0,0,0,0,0,0,0,0,0,0,0,0,0,0,0,14,15,16,0,0,0,0,0,0,
0,0,0,0,0,0,0,0,0,0,0,0,0,0,0,322,394,0,0,0,0,0,0,0,0,0,0,0,0,0,0,0,0,0,0,0,0,0,0,0,0,0,0,0,0,0,0,0,0,0,0,0,0,0,0,0,0,0,0,1659,0,1661,0,0,0,0,0,0,0,0,0,39,40,41,0,0,0,0,0,0,
0,0,0,0,0,0,0,0,0,0,0,0,0,0,297,0,494,0,0,0,0,0,0,0,0,0,0,0,0,0,0,0,0,0,0,0,0,0,0,0,0,0,0,0,0,0,0,0,0,0,0,0,0,0,0,0,0,0,0,0,263,0,0,0,0,0,0,0,0,0,0,64,65,66,0,0,0,0,0,0,
0,0,0,0,0,0,0,0,0,0,0,0,0,369,368,518,519,0,0,0,0,0,0,0,0,0,0,0,0,0,0,0,0,0,1985,1986,0,0,0,0,0,0,0,0,0,0,0,0,0,0,0,0,0,0,0,0,0,0,0,0,0,0,0,0,0,0,0,0,0,0,0,359,360,361,0,0,0,0,0,0,
0,0,0,0,0,0,0,359,360,361,0,0,368,341,373,518,519,0,0,0,0,0,0,0,0,0,0,0,0,0,0,0,0,0,0,0,0,0,0,0,0,0,0,0,0,0,0,0,0,0,0,0,0,0,0,0,0,0,0,0,0,0,0,0,0,0,0,0,0,0,0,0,0,0,0,362,0,0,0,0,
0,0,0,0,0,0,0,0,0,0,0,368,0,494,0,0,0,0,0,0,0,0,0,0,0,0,0,0,0,0,0,0,0,0,0,0,0,0,1182,0,0,0,0,0,0,0,0,0,0,0,0,0,0,0,0,0,0,0,0,0,0,0,0,0,0,0,0,0,0,0,0,0,0,0,0,0,0,0,0,0,
0,0,0,0,0,0,352,328,402,228,228,0,0,493,0,0,0,0,0,0,0,0,0,0,0,0,0,0,0,0,0,0,0,0,0,0,0,359,360,0,0,0,0,0,0,0,0,0,0,0,0,0,0,0,0,0,0,0,0,0,0,0,0,0,0,0,0,0,0,0,0,228,228,251,252,252,0,0,0,0,
0,11,12,13,0,0,377,378,228,228,228,0,0,0,0,0,0,0,0,0,0,0,0,0,0,0,0,0,0,0,0,0,0,0,0,0,0,0,0,0,0,0,0,0,0,0,0,0,0,0,0,1181,0,0,0,0,0,0,0,0,0,0,0,0,0,0,0,0,0,0,0,228,228,228,176,176,0,0,0,0,
0,36,37,38,0,0,0,296,451,0,0,0,0,0,0,0,0,0,0,0,0,0,0,0,0,0,0,0,0,0,0,0,0,0,0,0,0,0,0,0,0,0,1180,0,0,0,0,0,1180,0,0,0,0,1180,0,0,0,0,0,0,0,0,0,0,0,0,0,0,0,0,0,0,0,0,0,0,0,0,0,0,
0,61,62,63,0,0,0,321,449,0,0,0,0,0,0,0,0,0,0,0,0,0,0,0,0,0,0,0,0,0,0,0,0,0,0,0,0,0,0,0,0,0,0,0,0,0,0,0,0,0,0,0,0,0,0,0,0,0,0,0,0,0,0,0,0,0,0,0,0,0,0,0,0,0,0,0,0,0,0,0,
0,86,87,88,0,0,0,519,501,0,0,0,0,0,0,0,0,0,0,0,0,0,0,0,0,0,0,0,0,0,0,0,0,0,0,0,0,0,0,0,0,0,0,0,0,0,0,0,0,0,0,0,0,0,0,0,0,0,0,0,0,0,0,0,0,0,0,0,0,0,0,0,0,0,0,0,0,0,0,0,
12,13,112,113,0,0,0,448,449,0,0,0,0,0,0,0,0,0,0,0,0,0,0,0,0,0,0,0,0,0,0,0,0,0,0,0,0,0,0,0,0,0,0,0,0,0,0,0,0,0,0,0,0,0,0,0,0,0,0,0,0,0,0,0,0,0,0,0,0,0,0,0,0,0,0,0,0,0,0,0,
37,136,137,138,0,0,320,519,519,552,553,0,0,0,0,0,0,0,0,0,0,0,0,0,0,0,0,0,0,0,0,0,0,0,0,0,0,0,0,0,0,0,0,0,0,0,0,0,0,0,0,0,0,0,0,0,0,0,0,0,0,0,0,0,0,0,0,0,0,0,0,774,775,873,873,317,0,0,0,0,
62,63,11,12,13,0,0,0,0,0,0,0,0,0,0,0,0,0,0,0,0,0,0,0,0,0,0,0,0,0,0,0,0,0,0,0,0,462,0,0,0,0,0,0,0,0,0,0,0,0,0,0,0,0,0,0,0,0,0,0,0,0,0,0,0,0,0,0,0,0,0,1182,244,449,518,342,0,0,0,0,
87,88,36,37,38,0,0,0,0,0,0,0,0,0,0,0,0,0,0,0,0,0,0,0,0,0,0,0,0,0,0,0,0,0,0,0,0,487,0,0,0,0,0,0,0,0,0,0,0,0,0,0,0,0,0,0,0,0,0,0,0,0,0,0,0,0,0,0,0,0,0,0,0,0,0,0,326,302,303,304,
112,113,61,62,63,0,0,0,0,0,0,0,0,0,0,0,0,0,0,0,0,0,0,0,0,0,0,0,0,0,0,0,0,0,0,0,0,0,0,0,0,0,0,0,0,0,0,0,0,0,0,0,0,0,0,0,0,0,0,0,0,0,0,0,0,0,0,0,0,0,0,0,0,0,0,0,351,352,352,352,
137,138,86,87,88,0,0,0,0,0,0,0,0,0,0,0,0,0,0,0,0,0,0,0,0,0,0,0,0,0,0,0,0,0,0,0,0,0,0,0,0,0,0,0,0,0,0,0,0,0,0,0,0,0,0,0,0,0,0,0,0,0,0,0,0,0,0,0,0,0,0,0,0,0,0,0,351,352,352,352,
0,0,0,112,113,0,0,0,0,0,0,0,1426,1427,1428,1429,1430,1431,1432,1433,1434,1435,1436,1437,1438,1439,1440,1441,0,0,0,0,0,0,0,0,0,0,0,0,0,0,0,0,0,0,0,0,0,0,0,0,0,0,0,0,0,0,0,0,0,0,0,0,0,0,0,0,0,0,0,0,0,0,0,0,351,352,352,352,
0,0,136,137,138,12,13,0,0,0,0,0,1451,1452,1453,1454,1455,1456,1457,1458,1459,1460,1461,1462,1463,1464,1465,1466,0,0,0,0,0,0,0,0,0,0,0,0,0,0,0,0,0,0,0,0,0,0,0,0,0,0,0,0,0,0,0,0,0,0,0,0,0,0,0,0,0,0,0,0,0,0,0,0,351,352,352,352,
0,0,0,0,36,37,38,0,0,0,0,0,1476,1477,1478,1479,1480,1481,1482,1483,1484,1485,1486,1487,1488,1489,1490,1491,0,0,0,0,0,0,0,0,0,0,0,0,0,0,0,0,0,0,0,0,0,0,0,0,0,0,0,0,0,0,0,0,0,0,0,0,0,0,0,0,0,0,0,0,0,0,0,0,351,352,352,352,
0,0,0,0,61,62,63,0,0,0,0,0,1501,1502,1503,1504,1505,1506,1507,1508,1509,1510,1511,1512,1513,1514,1515,1516,0,0,0,0,0,0,0,0,0,0,0,0,0,0,0,0,0,0,0,0,0,0,0,0,0,0,0,0,0,0,0,0,0,0,0,0,0,0,0,0,0,0,0,0,0,0,0,0,351,352,352,352,
0,0,0,0,86,87,88,0,0,0,1496,1497,1526,1527,1528,1529,1530,1531,1532,1533,1534,0,0,1537,1538,1539,1540,1541,0,0,0,0,0,0,0,0,0,0,0,0,0,0,0,0,0,0,0,0,0,0,0,0,0,0,0,0,0,0,0,0,0,0,0,0,0,0,0,0,0,0,0,0,0,0,0,0,351,352,352,352,
0,0,0,0,0,112,113,0,0,0,0,1496,1497,0,91,0,0,0,91,0,0,0,0,0,0,0,0,0,0,0,0,0,0,0,0,0,0,0,0,0,0,0,0,0,0,0,0,0,0,0,0,0,0,0,0,0,0,0,0,0,0,0,0,0,0,0,0,0,0,0,0,0,0,0,0,0,351,352,352,352,
0,0,0,0,136,137,138,0,0,0,0,0,1498,0,116,0,0,0,116,0,0,0,0,0,0,0,0,0,0,0,0,0,0,0,0,0,0,0,0,0,0,0,0,0,0,0,0,0,0,0,0,0,0,0,0,0,0,0,0,0,0,0,0,0,0,0,0,0,0,0,0,0,0,0,0,0,351,352,352,352,
0,0,0,0,0,0,0,0,0,0,0,0,0,0,0,0,0,0,0,0,0,0,0,0,1498,1498,0,0,0,0,0,0,0,0,0,0,0,0,0,0,0,0,0,0,0,0,0,0,0,0,0,0,0,0,0,0,0,0,0,0,0,0,0,0,0,0,0,0,0,0,0,0,0,0,0,0,351,352,352,352,
0,0,0,0,0,0,0,414,439,0,0,0,0,0,0,0,0,0,0,0,0,0,0,0,0,0,0,0,0,0,0,0,0,0,0,0,0,0,0,0,0,0,0,0,0,0,0,0,0,0,0,0,0,0,0,0,0,0,0,0,0,0,0,0,0,0,0,0,0,0,0,0,0,0,0,0,376,277,352,279,
0,0,0,0,0,0,328,176,413,414,415,414,415,414,439,0,0,0,0,0,0,0,0,0,0,0,0,0,0,0,0,0,0,0,0,0,0,440,415,414,415,414,415,414,415,414,415,414,415,414,415,414,415,414,415,414,415,414,415,414,415,414,415,414,415,414,415,414,415,414,415,414,415,414,415,0,0,0,0,0,
327,327,327,327,327,327,327,327,327,327,327,327,327,328,413,414,415,414,415,414,415,414,415,414,415,414,415,414,415,414,415,439,0,0,0,0,0,392,326,327,327,327,327,327,327,327,327,327,327,327,327,327,327,327,327,327,327,327,327,327,327,327,327,327,327,327,327,327,327,327,327,327,327,327,327,327,327,327,327,327,
352,352,352,352,352,352,352,352,352,352,352,352,306,379,327,327,327,327,327,327,327,327,327,327,327,327,327,327,327,327,328,395,0,0,0,0,0,417,351,352,352,352,352,352,352,352,352,352,352,352,352,352,352,352,352,352,352,352,352,352,352,352,352,352,352,352,352,352,352,352,352,352,352,352,352,352,352,352,352,352,
356,356,356,356,356,356,356,356,356,356,356,356,356,356,356,356,356,356,356,358,356,356,356,356,357,327,356,356,356,357,353,0,0,0,0,0,0,392,351,355,356,356,356,356,356,356,356,356,356,356,356,356,356,356,356,356,356,356,356,356,356,356,356,356,356,356,356,356,356,356,356,356,356,356,356,356,356,356,356,356
</data>
 </layer>
 <layer id="7" name="AlwaysFront" width="80" height="110" visible="0">
  <data encoding="csv">
0,0,0,0,0,112,61,62,63,0,86,87,88,12,13,86,87,88,0,0,0,0,0,0,0,0,112,0,61,62,63,86,87,88,0,0,0,0,0,0,0,308,0,0,137,0,0,0,0,112,0,308,0,112,0,0,0,0,0,112,0,112,0,0,0,0,0,112,0,61,62,63,0,0,0,0,0,0,0,0,
0,0,0,0,0,137,86,87,88,0,0,112,36,37,38,0,112,0,0,0,0,0,0,0,0,0,137,308,86,87,88,0,112,308,12,13,0,0,0,0,0,0,0,0,0,0,0,308,0,137,0,0,0,137,0,233,0,0,0,137,0,137,0,308,0,233,0,137,0,86,87,88,11,12,13,0,0,0,0,0,
0,0,0,0,0,12,13,112,11,12,13,137,61,62,63,0,137,0,0,0,0,0,0,0,0,0,0,0,0,112,0,0,137,36,37,38,0,0,0,0,0,0,0,0,0,0,0,0,0,0,0,0,0,0,0,0,0,0,0,0,0,0,0,0,0,0,0,0,0,308,112,0,36,37,38,0,0,0,0,0,
0,0,0,0,0,37,38,137,36,37,38,0,86,87,88,0,0,0,0,0,0,0,0,0,0,0,0,0,0,137,0,0,0,61,62,63,0,0,0,0,0,0,0,0,0,0,0,0,0,0,0,0,0,0,0,0,0,0,0,0,0,0,0,0,0,0,0,0,0,0,137,0,61,62,63,0,0,0,0,0,
0,0,0,0,0,62,63,0,61,62,63,0,0,112,0,0,0,0,0,0,0,0,0,0,0,0,0,0,0,0,0,0,0,86,87,88,0,0,0,0,0,0,0,0,0,0,0,0,0,0,0,0,0,0,0,0,0,0,0,0,0,0,0,0,0,0,0,0,0,0,0,233,86,87,88,0,0,0,0,0,
0,0,0,0,0,87,88,0,86,87,88,0,0,137,0,0,0,0,0,0,0,0,0,0,0,0,0,0,0,0,0,308,0,0,112,0,0,0,0,0,0,0,0,0,0,0,0,0,0,0,0,0,0,0,0,0,0,0,0,0,0,0,0,0,0,0,0,0,0,0,0,0,0,112,0,0,0,0,0,0,
0,0,0,0,0,112,11,12,13,112,0,0,0,0,0,0,0,0,0,0,0,0,0,0,0,0,0,0,0,0,0,0,0,0,137,0,0,0,0,0,0,0,0,0,0,0,0,0,0,0,0,0,0,0,0,0,0,0,0,0,0,0,0,0,0,0,0,0,0,0,0,0,0,11,0,7,8,9,10,0,
0,0,0,0,0,137,36,37,38,137,0,0,0,0,0,0,0,0,0,0,0,0,0,0,0,0,0,0,0,0,0,0,0,0,0,0,0,0,0,0,0,0,0,0,0,0,11,12,13,0,0,0,0,0,0,0,0,0,0,0,0,0,0,0,0,0,0,0,0,0,0,0,0,0,0,32,33,34,35,0,
0,0,0,0,0,0,61,62,63,0,0,0,0,11,12,13,0,0,0,0,0,0,0,0,0,0,0,0,0,0,0,0,0,0,308,0,0,0,0,0,0,11,12,13,0,0,36,37,38,0,0,0,0,0,0,0,0,0,0,0,0,0,11,12,13,0,0,0,11,12,13,0,0,0,0,57,58,59,60,0,
0,0,0,0,0,0,86,87,88,0,0,0,0,36,37,38,0,0,0,0,0,0,0,0,0,0,0,0,0,0,0,0,0,0,233,0,318,0,0,0,0,36,37,38,0,0,61,62,63,11,12,13,0,0,11,12,13,0,0,0,0,0,36,37,38,0,0,0,36,37,38,0,0,11,12,82,83,84,85,0,
0,0,0,0,0,0,0,112,0,0,0,0,0,61,62,63,0,0,0,0,0,0,0,0,0,0,0,0,0,0,0,0,0,0,0,0,0,318,0,0,0,61,62,63,0,0,86,87,88,36,37,38,0,0,36,37,38,0,0,0,0,0,61,62,63,0,0,0,61,62,63,0,0,36,37,107,108,109,0,0,
0,0,0,0,0,11,12,137,0,0,0,0,0,86,87,88,0,0,0,0,0,0,0,0,0,0,0,0,0,0,0,0,0,0,0,0,0,308,318,0,0,86,87,88,11,12,13,112,0,61,62,63,0,0,61,62,63,0,0,0,0,0,86,87,88,0,0,0,86,87,88,0,0,61,62,132,133,134,135,0,
0,0,0,0,0,36,37,38,0,0,0,0,0,0,112,0,0,0,0,0,0,0,0,0,0,0,0,14,15,16,7,8,9,10,0,0,0,0,0,0,0,0,112,0,36,37,38,11,12,13,87,11,12,13,86,87,88,0,0,0,0,0,0,112,0,0,89,90,0,112,0,0,0,86,11,12,13,159,160,0,
0,0,0,0,0,61,62,63,0,0,0,0,0,0,137,0,0,0,0,0,0,0,0,0,0,0,0,39,40,41,32,33,34,35,0,0,0,0,0,0,0,0,137,233,61,62,63,36,37,38,112,36,37,38,0,112,0,0,0,0,0,0,0,137,0,0,114,115,0,137,0,0,0,0,36,37,38,0,0,0,
0,0,0,0,0,86,87,88,0,0,0,0,0,0,89,90,0,0,0,0,0,0,0,0,0,0,0,64,65,66,57,58,59,60,0,0,0,0,0,0,0,0,0,0,86,87,88,61,62,63,137,61,62,63,308,137,0,0,0,0,0,0,0,0,0,0,0,0,0,0,0,0,0,136,61,62,63,0,0,0,
0,0,0,0,0,0,112,0,0,0,0,0,0,0,114,115,0,0,0,0,0,0,0,0,0,0,0,0,0,0,82,83,84,85,0,0,0,0,0,0,0,308,0,0,0,112,0,86,87,88,0,86,87,88,0,0,0,0,0,0,0,0,0,0,0,0,0,0,0,89,90,0,0,0,86,87,88,0,0,0,
0,0,0,0,0,308,137,0,0,0,0,0,14,15,16,89,90,0,0,0,0,0,0,0,0,7,8,9,10,0,107,108,109,0,0,0,0,0,0,0,0,0,0,0,0,137,0,0,112,0,308,0,112,0,0,0,0,0,0,0,0,0,0,0,0,0,14,15,16,114,115,0,0,0,0,112,113,0,0,11,
0,0,0,0,0,0,0,0,0,0,0,0,39,40,41,114,115,0,0,0,0,0,0,0,0,32,33,34,35,0,0,0,0,0,0,0,0,0,0,0,0,0,0,0,0,0,0,308,137,0,0,0,137,0,0,0,0,0,0,0,0,0,0,0,0,0,39,40,41,0,89,90,0,0,136,137,138,0,0,36,
0,0,0,0,0,0,0,0,0,0,0,0,64,65,66,0,0,0,0,0,0,0,0,0,0,57,58,59,60,0,0,0,11,12,13,11,12,13,11,12,13,0,0,0,0,0,0,0,0,0,0,0,0,0,0,11,12,13,0,0,0,0,11,12,13,0,64,65,66,0,114,115,0,11,12,0,0,0,0,61,
0,0,0,0,0,0,0,0,0,0,0,0,0,0,0,0,0,0,0,0,0,0,0,0,0,82,83,84,85,0,0,0,36,37,38,36,37,38,36,37,38,0,0,0,0,0,0,0,0,0,0,0,0,0,0,36,37,38,0,0,0,0,36,37,38,0,0,0,0,0,0,0,0,36,37,0,0,0,0,86,
0,0,0,0,0,0,0,0,0,0,0,0,0,0,0,0,0,0,0,0,0,0,0,0,0,107,108,109,0,0,0,0,61,62,63,61,62,63,61,62,63,11,12,13,0,0,0,0,0,0,0,0,0,0,0,61,62,63,0,0,0,0,61,62,63,11,12,13,0,0,11,12,13,61,62,0,0,0,0,0,
0,0,0,0,0,0,0,0,0,0,0,0,0,0,0,0,0,0,0,0,0,0,0,0,0,0,0,0,0,0,0,0,86,87,88,86,87,88,86,87,88,36,37,38,0,0,0,0,0,0,0,0,0,0,0,86,87,88,0,0,0,0,86,87,88,36,37,38,0,0,36,37,38,86,87,0,0,0,0,136,
0,0,0,0,0,0,0,0,0,0,0,14,15,16,0,0,0,0,0,0,0,0,0,0,0,0,0,0,0,0,0,0,0,0,0,0,0,0,0,0,0,61,62,63,0,0,0,0,0,0,0,0,0,0,0,0,112,0,0,0,0,0,0,112,0,61,62,63,0,0,61,62,63,0,112,7,8,9,10,0,
0,0,0,0,0,0,0,0,0,0,0,39,40,41,0,0,0,0,0,0,0,0,0,0,0,0,11,12,13,0,0,0,0,0,0,0,0,0,0,0,0,86,87,88,0,0,0,0,0,0,0,0,0,0,0,0,137,0,0,0,0,0,0,137,12,13,87,11,12,13,86,87,88,136,137,32,33,34,35,0,
0,0,0,0,0,0,0,0,0,0,0,64,65,66,0,0,0,0,0,0,0,0,0,0,0,0,36,37,38,0,0,0,0,0,0,0,0,0,0,0,0,0,0,0,0,0,0,0,0,0,0,0,0,0,0,0,0,0,0,0,0,0,0,36,37,38,112,36,37,38,0,112,0,11,12,57,58,59,60,0,
0,0,0,0,0,0,0,0,0,0,0,0,0,0,0,0,0,0,0,0,0,0,0,0,0,0,61,62,63,0,0,0,0,0,0,0,0,0,0,0,0,0,0,0,0,0,0,0,0,0,0,0,0,0,0,0,0,0,0,0,0,0,0,61,62,63,137,61,62,63,308,137,0,36,37,82,83,84,85,0,
0,0,0,0,0,0,0,0,0,0,0,0,0,0,0,0,0,0,0,0,0,0,0,0,0,0,86,87,88,0,0,0,14,15,16,0,0,0,0,0,0,0,0,0,0,0,0,0,0,0,0,0,0,0,0,0,0,0,0,0,0,0,0,86,87,88,0,86,87,88,0,0,0,61,62,107,108,109,0,0,
0,0,0,0,0,0,0,0,0,0,0,0,0,0,0,0,0,0,0,0,0,0,0,0,0,0,0,0,0,0,0,0,0,0,0,0,0,0,0,0,0,0,0,0,0,0,0,0,0,0,0,0,0,0,0,0,0,0,0,0,0,0,0,0,112,0,308,0,112,0,0,0,0,86,87,132,133,134,135,0,
0,0,0,0,0,0,0,0,0,0,0,0,0,0,0,0,0,0,0,0,0,0,0,0,0,0,0,0,0,0,0,0,0,0,0,0,0,0,0,0,0,0,0,0,0,0,0,0,0,0,0,0,0,0,0,0,0,0,0,0,0,0,0,308,137,0,0,0,137,0,0,0,0,0,112,0,158,159,160,0,
0,0,0,0,0,0,0,0,0,0,0,0,0,0,0,0,0,0,0,0,0,0,0,0,0,0,0,0,0,0,0,0,0,0,0,0,0,0,0,0,0,0,0,0,0,0,0,0,0,0,0,0,0,0,0,0,0,0,0,0,0,0,0,0,0,0,0,0,0,0,0,0,0,136,137,0,0,0,0,0,
0,0,0,0,0,0,0,0,0,0,0,0,0,0,0,0,0,0,0,0,0,0,0,0,0,0,0,0,0,0,0,0,0,0,0,0,0,0,0,0,0,0,0,0,0,0,0,0,0,0,0,0,0,0,0,0,0,0,0,0,0,0,0,0,0,0,0,0,0,0,0,0,0,0,0,0,0,0,0,0,
0,0,0,0,0,0,0,0,0,0,0,0,0,0,0,0,0,0,0,0,0,0,0,0,0,0,0,0,0,0,0,0,0,0,0,0,0,0,0,0,0,0,0,0,0,0,0,0,0,0,0,0,0,0,0,0,0,0,448,0,0,0,0,0,0,0,0,0,0,0,0,0,0,0,0,0,0,0,0,0,
0,0,0,0,0,0,0,0,0,0,0,0,0,0,0,0,0,0,0,0,0,0,0,0,0,0,0,0,0,0,0,0,0,0,0,0,0,0,0,0,0,0,0,0,0,0,0,0,0,0,0,0,0,0,0,0,0,0,493,373,519,0,0,0,0,0,0,0,0,0,0,0,0,0,0,0,0,0,0,0,
0,0,0,0,0,0,0,0,0,0,0,0,0,0,0,0,0,0,0,0,0,0,0,0,0,0,0,0,0,0,0,0,0,0,0,0,0,0,0,0,0,0,0,0,0,0,0,0,0,0,0,0,0,0,0,0,0,0,0,0,0,0,0,0,0,0,0,0,0,0,0,0,0,0,0,0,0,0,0,0,
0,0,0,0,0,0,0,0,0,0,0,0,0,0,0,0,0,0,0,0,0,0,0,0,0,0,0,0,0,0,0,0,0,0,0,0,0,0,0,0,0,0,0,0,0,0,0,0,0,0,0,0,0,0,0,0,0,0,0,0,0,0,0,0,0,0,0,0,0,0,0,0,0,0,0,0,0,0,0,0,
0,0,0,0,0,0,0,0,0,0,0,0,0,0,0,0,0,0,0,0,0,0,0,0,0,0,11,12,13,0,0,0,0,0,0,0,0,0,0,0,0,0,0,0,0,0,0,0,0,0,0,0,0,0,0,0,0,0,0,0,0,0,0,0,0,0,0,0,0,0,0,0,0,0,0,0,0,0,0,0,
0,0,0,0,0,0,0,0,0,0,0,0,0,0,0,0,0,0,0,0,0,0,0,0,0,0,36,37,38,0,0,0,0,0,0,0,0,0,0,0,0,0,0,0,0,0,0,0,0,0,0,0,0,0,0,0,0,0,0,0,0,0,0,0,0,0,0,0,0,0,0,0,0,0,0,0,0,0,0,0,
0,0,0,0,0,0,0,0,0,0,0,0,0,0,0,0,0,0,0,0,0,0,0,0,0,0,61,62,63,0,0,0,0,0,0,0,0,0,0,13,0,0,0,0,0,0,0,0,0,0,0,0,0,0,0,0,0,0,0,0,0,0,0,0,0,0,0,0,0,0,0,0,0,0,0,0,0,0,0,0,
0,0,0,0,0,0,0,0,0,0,0,0,0,0,0,0,0,0,0,0,0,0,0,0,0,0,86,87,88,0,0,0,0,0,0,0,0,0,0,0,0,0,0,0,0,0,0,0,0,0,0,0,0,0,0,0,0,0,0,0,0,0,0,0,11,0,13,0,0,0,0,0,0,0,0,0,0,0,0,0,
0,0,0,0,0,0,0,0,0,0,0,0,0,0,0,0,0,0,0,0,0,0,0,0,0,0,0,112,113,0,0,0,0,0,0,0,0,0,0,0,0,0,0,0,0,0,0,0,0,0,0,0,0,0,0,0,0,0,0,0,0,0,0,0,0,0,0,0,0,0,0,0,0,0,0,0,0,0,0,0,
0,0,0,0,0,0,0,0,0,0,0,0,0,0,0,0,0,0,0,0,0,0,0,0,0,0,136,137,138,0,0,0,0,0,0,0,0,0,0,0,0,0,0,0,0,0,0,0,0,0,0,0,0,0,0,0,0,0,0,0,0,0,0,0,0,0,0,0,0,0,0,0,0,0,0,0,0,0,0,0,
0,0,0,0,0,0,0,0,0,0,0,0,0,0,0,0,0,0,0,0,0,0,0,0,0,0,0,0,0,0,0,0,0,0,0,0,0,0,0,0,0,0,0,0,0,0,0,0,0,0,0,0,0,0,0,0,0,0,0,0,0,0,0,0,0,0,0,0,0,0,0,0,0,0,0,0,0,0,0,0,
0,0,0,0,0,0,0,13,0,13,0,13,0,0,0,0,0,0,0,0,0,0,0,0,0,0,0,0,0,0,0,0,0,0,0,0,0,0,0,0,0,0,0,0,0,0,0,0,0,0,0,0,0,0,0,0,0,0,0,0,0,0,0,0,0,0,0,0,0,0,0,0,0,0,0,0,0,0,0,0,
0,0,0,0,0,0,0,0,0,0,0,0,0,0,0,0,0,0,0,0,0,0,0,0,0,0,0,0,0,0,0,0,0,0,0,0,0,0,0,0,0,0,0,0,0,0,0,0,0,0,0,0,0,0,0,0,0,0,0,0,0,0,0,0,0,0,0,0,0,0,0,0,0,0,0,0,0,0,0,0,
0,0,0,0,0,0,0,0,0,0,0,0,0,0,0,0,0,0,0,0,0,0,0,0,0,0,0,0,0,0,0,0,0,0,0,0,0,0,0,0,0,0,0,0,0,0,0,0,0,0,0,0,0,0,0,0,0,0,0,0,0,0,0,0,0,0,0,0,0,0,0,0,0,0,0,0,0,0,0,0,
0,0,0,0,0,0,0,0,0,0,0,0,0,0,0,0,0,0,0,0,0,0,0,0,0,0,0,0,0,0,0,0,0,0,0,0,0,0,0,0,0,0,0,0,0,0,0,0,0,0,0,0,0,0,0,0,0,0,0,0,0,0,0,0,0,0,0,0,0,0,0,0,0,0,0,0,0,0,0,0,
0,0,0,0,0,0,0,0,0,0,0,0,0,0,0,0,0,0,0,0,0,0,0,0,0,0,0,0,0,11,12,13,0,0,0,0,0,0,0,0,0,0,0,0,0,0,0,0,0,159,0,0,0,0,0,0,0,0,0,0,0,0,0,0,0,0,0,0,0,0,11,12,13,0,0,0,0,0,0,0,
0,0,0,0,0,0,0,0,0,0,0,0,0,0,0,0,0,0,0,0,0,0,0,0,0,0,0,0,0,36,37,38,0,0,0,0,0,0,0,0,0,0,0,0,0,0,0,0,0,0,0,0,0,0,0,0,0,0,0,0,0,0,0,0,0,0,0,0,0,0,36,37,38,0,0,0,0,0,0,0,
0,0,0,0,0,0,112,61,62,63,0,86,0,88,12,13,86,87,88,0,0,0,0,0,0,0,0,0,0,61,62,63,0,0,0,0,0,0,0,0,0,0,308,0,0,0,0,0,0,0,0,0,308,0,0,0,0,0,0,0,0,0,0,0,0,0,0,0,0,0,61,62,63,0,0,0,0,0,0,0,
0,0,0,0,0,0,137,86,87,88,0,0,0,36,37,38,0,112,0,0,0,0,0,0,0,0,0,0,308,86,87,88,0,0,0,12,13,0,0,0,0,0,0,0,0,0,0,0,308,0,0,0,0,0,0,0,233,0,0,0,0,0,0,0,308,0,233,0,0,0,86,87,88,11,12,13,0,0,0,0,
0,0,0,0,0,0,12,13,112,11,12,13,0,61,62,63,0,137,0,0,0,0,0,0,0,0,0,0,0,0,112,0,0,0,36,37,38,0,0,0,0,0,0,0,0,0,0,0,0,0,0,0,0,0,0,0,0,0,0,0,0,0,0,0,0,0,0,0,0,0,308,112,0,36,37,38,0,0,0,0,
0,0,0,0,0,0,37,38,137,36,37,38,0,86,87,88,0,0,0,0,0,0,0,0,0,0,0,0,0,0,137,0,0,0,61,62,63,0,0,0,0,0,0,0,0,0,0,0,0,0,0,0,0,0,0,0,0,0,0,0,0,0,0,0,0,0,0,0,0,0,0,137,0,61,62,63,0,0,0,0,
0,0,0,0,0,0,62,63,0,61,62,63,0,0,112,0,0,0,0,0,0,0,0,0,0,0,0,0,0,0,0,0,0,0,86,87,88,0,0,0,0,0,0,0,0,0,0,0,0,0,0,0,0,0,0,0,0,0,0,0,0,0,0,0,0,0,0,0,0,0,0,0,233,86,87,88,0,0,0,0,
0,0,0,0,0,0,87,88,0,86,87,88,0,0,137,0,0,0,0,0,0,0,0,0,0,0,0,0,0,0,0,0,308,0,0,112,0,0,0,0,0,0,0,0,0,0,0,0,0,0,0,0,0,0,0,0,0,0,0,0,0,0,0,0,0,0,0,0,0,0,0,0,0,0,112,0,0,0,0,0,
0,0,0,0,0,0,112,11,12,13,112,0,0,0,0,0,0,0,0,0,0,0,0,0,0,0,0,0,0,0,0,0,0,0,0,137,0,0,0,0,0,0,0,0,0,0,0,0,0,0,0,0,0,0,0,0,0,0,0,0,0,0,0,0,0,0,0,0,0,0,0,0,0,0,11,12,0,0,0,0,
0,0,0,0,0,0,137,36,37,38,137,0,0,0,0,0,0,0,0,0,0,0,0,0,0,0,0,0,0,0,0,0,0,0,0,0,0,0,0,0,0,0,0,0,0,0,0,11,12,13,0,0,0,0,0,0,0,0,0,0,0,0,0,0,0,0,0,0,0,0,0,0,0,0,36,37,38,0,0,0,
0,0,0,0,0,0,0,61,62,63,0,0,0,0,11,12,13,0,0,0,0,0,0,0,0,0,0,0,0,0,0,0,0,0,0,308,0,0,0,0,0,0,11,12,13,0,0,36,37,38,0,0,0,0,0,0,0,0,0,0,0,0,0,11,12,13,0,0,0,11,12,13,0,0,61,62,63,0,0,0,
0,0,0,0,0,0,0,86,87,88,0,0,0,0,36,37,38,0,0,0,0,0,0,0,0,0,0,0,0,0,0,0,0,0,0,233,0,318,0,0,0,0,36,37,38,0,0,61,62,63,11,12,13,0,0,11,12,13,0,0,0,0,0,36,37,38,0,0,0,36,37,38,0,0,11,12,88,0,0,0,
0,0,0,0,0,0,0,0,112,0,0,0,0,0,61,62,63,0,0,0,0,0,0,0,0,0,0,0,0,0,0,0,0,0,0,0,0,0,318,0,0,0,61,62,63,0,0,86,87,88,36,37,38,0,0,36,37,38,0,0,0,0,0,61,62,63,0,0,0,61,62,63,0,0,36,37,38,0,0,0,
0,0,0,0,0,0,11,12,137,0,0,0,0,0,86,87,88,0,0,0,0,0,0,0,0,0,0,0,0,0,0,0,0,0,0,0,0,0,308,318,0,0,86,87,88,11,12,13,112,0,61,62,63,0,0,61,62,63,0,0,0,0,0,86,87,88,0,0,0,86,87,88,0,0,61,62,63,0,0,0,
0,0,0,0,0,0,36,37,38,0,0,0,0,0,0,112,0,0,0,0,0,0,0,0,0,0,0,0,14,15,16,7,8,9,10,0,0,0,0,0,0,0,0,112,0,36,37,38,11,12,13,87,11,12,13,86,87,88,0,0,0,0,0,0,112,0,0,89,90,0,112,0,0,0,86,87,88,0,0,0,
0,0,0,0,0,0,61,62,63,0,0,0,0,0,0,137,0,0,0,0,0,0,0,0,0,0,0,0,39,40,41,32,33,34,35,0,0,0,0,0,0,0,0,137,233,61,62,63,36,37,38,112,36,37,38,0,112,0,0,0,0,0,0,0,137,0,0,114,115,0,137,0,0,0,0,112,0,0,0,0,
0,0,0,0,0,0,86,87,88,0,0,0,0,0,0,89,90,0,0,0,0,0,0,0,0,0,0,0,64,65,66,57,58,59,60,0,0,0,0,0,0,0,0,0,0,86,87,88,61,62,63,137,61,62,63,308,137,0,0,0,0,0,0,0,0,0,0,0,0,0,0,0,0,0,136,137,0,0,0,0,
0,0,0,0,0,0,0,112,0,0,0,0,0,0,0,114,115,0,0,0,0,0,0,0,0,0,0,0,0,0,0,82,83,84,85,0,0,0,0,0,0,0,308,0,0,0,112,0,86,87,88,0,86,87,88,0,0,0,0,0,0,0,0,0,0,0,0,0,0,0,89,90,0,0,0,0,0,0,0,0,
0,0,0,0,0,0,308,137,0,0,0,0,0,14,15,16,89,90,0,0,0,0,0,0,0,0,7,8,9,10,0,107,108,109,0,0,0,0,0,0,0,0,0,0,0,0,137,0,0,112,0,308,0,112,0,0,0,0,0,0,0,0,0,0,0,0,0,14,15,16,114,115,0,0,0,0,0,0,0,0,
0,0,0,0,0,0,0,0,0,0,0,0,0,39,40,41,114,115,0,0,0,0,0,0,0,0,32,33,34,35,0,0,0,0,0,0,0,0,0,0,0,0,0,0,0,0,0,0,308,137,0,0,0,137,0,0,0,0,0,0,0,0,0,0,0,0,0,39,40,41,0,89,90,0,0,0,0,14,15,16,
0,0,0,0,0,0,0,0,0,0,0,0,0,64,65,66,0,0,0,0,0,0,0,0,0,0,57,58,59,60,0,0,0,11,12,13,11,12,13,11,12,13,0,0,0,0,0,0,0,0,0,0,0,0,0,0,11,12,13,0,0,0,0,11,12,13,0,64,65,66,0,114,115,0,11,12,13,39,40,41,
0,0,0,0,0,0,0,0,0,0,0,0,0,0,0,0,0,0,0,0,0,0,0,0,0,0,82,83,84,85,0,0,0,36,37,38,36,37,38,36,37,38,0,0,0,0,0,0,0,0,0,0,0,0,0,0,36,37,38,0,0,0,0,36,37,38,0,0,0,0,0,0,0,0,36,37,38,64,65,66,
0,0,0,0,0,0,0,0,0,0,0,0,0,0,0,0,0,0,0,0,0,0,0,0,0,0,107,108,109,0,0,0,0,61,62,63,61,62,63,61,62,63,11,12,13,0,0,0,0,0,0,0,0,0,0,0,61,62,63,0,0,0,0,61,62,63,11,12,13,0,0,11,12,13,61,62,63,0,0,0,
0,0,0,0,0,0,0,0,0,0,0,0,0,0,0,0,0,0,0,0,0,0,0,0,0,0,0,0,0,0,0,0,0,86,87,88,86,87,88,86,87,88,36,37,38,0,0,0,0,0,0,0,0,0,0,0,86,87,88,0,0,0,0,86,87,88,36,37,38,0,0,36,37,38,86,87,88,12,13,0,
0,0,0,0,0,0,0,0,0,0,0,0,14,15,16,0,0,0,0,0,0,0,0,0,0,0,0,0,0,0,0,0,0,0,0,0,0,0,0,0,0,0,61,62,63,0,0,0,0,0,0,0,0,0,0,0,0,112,0,0,0,0,0,0,112,0,61,62,63,0,0,61,62,63,0,112,36,37,38,0,
0,0,0,0,0,0,0,0,0,0,0,0,39,40,41,0,0,0,0,0,0,0,0,0,0,0,0,11,12,13,0,0,0,0,0,0,0,0,0,0,0,0,86,87,88,0,0,0,0,0,0,0,0,0,0,0,0,137,0,0,0,0,0,0,137,12,13,87,11,12,13,86,87,88,0,137,61,62,63,0,
0,0,0,0,0,0,0,0,0,0,0,0,64,65,66,0,0,0,0,0,0,0,0,0,0,0,0,36,37,38,0,0,0,0,0,0,0,0,0,0,0,0,0,0,0,0,0,0,0,0,0,0,0,0,0,0,0,0,0,0,0,0,0,0,36,37,38,112,36,37,38,0,112,0,11,12,13,87,11,12,
0,0,0,0,0,0,0,0,0,0,0,0,0,0,0,0,0,0,0,0,0,0,0,0,0,0,0,61,62,63,0,0,0,0,0,0,0,0,0,0,0,0,0,0,0,0,0,0,0,0,0,0,0,0,0,0,0,0,0,0,0,0,0,0,61,62,63,137,61,62,63,308,137,0,36,37,38,112,36,37,
0,0,0,0,0,0,0,0,0,0,0,0,0,0,0,0,0,0,0,0,0,0,0,0,0,0,0,86,87,88,0,0,0,14,15,16,0,0,0,0,0,0,0,0,0,0,0,0,0,0,0,0,0,0,0,0,0,0,0,0,0,0,0,0,86,87,88,0,86,87,88,0,0,0,61,62,63,137,61,62,
0,0,0,0,0,0,0,0,0,0,0,0,0,0,0,0,0,0,0,0,0,0,0,0,0,0,0,0,0,0,0,0,0,0,0,0,0,0,0,0,0,0,0,0,0,0,0,0,0,0,0,0,0,0,0,0,0,0,0,0,0,0,0,0,0,112,0,308,0,112,0,0,0,0,86,87,88,0,86,87,
0,0,0,0,0,0,0,0,0,0,0,0,0,0,0,0,0,0,0,0,0,0,0,0,0,0,0,0,0,0,0,0,0,0,0,0,0,0,0,0,0,0,0,0,0,0,0,0,0,0,0,0,0,0,0,0,0,0,0,0,0,0,0,0,308,137,0,0,0,137,0,0,0,0,0,112,0,308,0,112,
0,0,0,0,0,0,0,0,0,0,0,0,0,0,0,0,0,0,0,0,0,0,0,0,0,0,0,0,0,0,0,0,0,0,0,0,0,0,0,0,0,0,0,0,0,0,0,0,0,0,0,0,0,0,0,0,0,0,0,0,0,0,0,0,0,0,0,0,0,0,0,0,0,0,136,137,0,0,0,137,
0,0,0,0,0,0,0,0,0,0,0,0,0,0,0,0,0,0,0,0,0,0,0,0,0,0,0,0,0,0,0,0,0,0,0,0,0,0,0,0,0,0,0,0,0,0,0,0,0,0,0,0,0,0,0,0,0,0,0,0,0,0,0,0,0,0,0,0,0,0,0,0,0,0,0,0,0,0,0,0,
0,0,0,0,0,0,0,0,0,0,0,0,0,0,0,0,0,0,0,0,0,0,0,0,0,0,0,0,0,0,0,0,0,0,0,0,0,0,0,0,0,0,0,0,0,0,0,0,0,0,0,0,0,0,0,0,0,0,0,448,0,0,0,0,0,0,0,0,0,0,0,0,0,0,0,0,0,0,0,0,
0,0,0,0,0,0,0,0,0,0,0,0,0,0,0,0,0,0,0,0,0,0,0,0,0,0,0,0,0,0,0,0,0,0,0,0,0,0,0,0,0,0,0,0,0,0,0,0,0,0,0,0,0,0,0,0,0,0,0,493,373,519,0,0,0,0,0,0,0,0,0,0,0,0,0,0,0,0,0,0,
0,0,0,0,0,0,0,11,12,13,0,0,0,0,0,0,0,0,0,0,0,0,0,0,0,0,0,0,0,0,0,0,0,0,0,0,0,0,0,0,0,0,0,0,0,0,0,0,0,0,0,0,0,0,0,0,0,0,0,0,1660,0,0,0,0,0,0,0,0,0,0,0,11,12,13,0,0,0,0,0,
0,0,0,0,0,0,0,36,37,38,0,0,0,0,0,0,0,0,0,0,0,0,0,0,0,0,0,0,0,0,0,0,0,0,0,0,0,0,0,0,0,0,0,0,0,0,0,0,0,0,0,0,0,0,0,0,0,0,0,0,0,0,0,0,0,0,0,0,0,0,0,0,36,37,38,0,0,0,0,0,
0,0,0,0,0,0,0,61,62,63,0,0,0,0,0,0,0,0,0,0,0,0,0,0,0,0,0,0,0,0,0,0,0,0,0,0,0,0,0,0,0,0,0,0,0,0,0,0,0,0,0,0,0,0,0,0,0,0,0,0,0,0,0,0,0,0,0,0,0,0,0,0,61,62,63,0,0,0,0,0,
0,0,0,0,0,0,0,86,87,88,0,0,0,0,0,0,0,0,0,0,0,0,0,0,0,0,0,0,0,0,0,0,0,0,0,0,0,0,0,0,0,0,0,0,0,0,0,0,0,0,0,0,0,0,0,0,0,0,0,0,0,0,0,0,0,0,0,0,0,0,0,0,86,87,88,0,0,0,0,0,
0,0,0,0,0,0,0,0,112,0,0,0,0,0,0,0,0,0,0,0,0,0,0,0,0,0,0,0,0,0,0,0,0,0,0,0,0,0,0,1106,1107,1107,1107,1107,1107,1107,1107,1107,1107,1107,1107,1107,1107,1107,1107,1107,1108,0,0,0,0,0,0,0,0,0,0,0,0,0,0,0,0,112,0,0,0,0,0,0,
0,0,0,0,0,0,520,0,137,426,451,501,0,0,0,0,0,0,0,0,0,0,0,0,0,0,0,0,0,0,0,0,0,0,0,0,0,0,0,1131,1132,1132,1132,1132,1132,1132,1132,1132,1132,1132,1132,1132,1132,1132,1132,1132,1133,0,0,0,0,0,0,0,0,0,0,0,0,0,0,325,748,251,252,252,0,0,0,0,
0,0,0,0,0,0,377,378,426,427,428,429,0,0,0,0,0,0,0,0,0,0,0,0,0,0,0,0,0,0,0,0,0,0,0,0,0,0,0,1156,1157,1157,1155,1157,1157,1157,1157,1157,1155,1157,1157,0,1157,1155,1157,1157,1158,0,0,0,0,0,0,0,0,0,0,0,0,0,0,649,650,748,176,176,0,0,0,0,
0,0,0,0,0,0,295,296,451,452,453,0,0,0,0,0,0,0,0,0,0,0,0,0,0,0,0,0,0,0,0,0,0,0,0,0,0,0,0,0,0,0,0,0,0,0,0,0,0,0,0,0,0,0,0,0,0,0,0,0,0,0,0,0,0,0,0,0,0,0,0,674,675,773,291,292,0,0,0,0,
0,0,0,0,0,0,320,321,449,477,478,0,0,0,0,0,0,0,0,0,0,0,0,0,0,0,0,0,0,0,0,0,0,0,0,0,0,0,0,0,0,0,0,0,0,0,0,0,0,0,0,0,0,0,0,0,0,0,0,0,0,0,0,0,0,0,0,0,0,0,0,699,700,393,448,317,0,0,0,0,
308,0,0,0,0,0,320,519,501,502,503,0,0,0,0,0,0,0,0,0,0,0,0,0,0,0,0,0,0,0,0,0,0,0,0,0,0,0,0,0,0,0,0,0,0,0,0,0,0,0,0,0,0,0,0,0,0,0,0,0,0,0,0,0,0,0,0,0,0,0,0,724,725,393,798,317,308,0,0,0,
0,0,0,0,0,0,345,448,449,527,528,0,0,0,0,0,0,0,0,0,0,0,0,0,0,0,0,0,0,0,0,0,0,0,0,0,0,0,0,0,0,0,0,0,0,0,0,0,0,0,0,0,0,0,0,0,0,0,0,0,0,0,0,0,0,0,0,0,0,0,0,749,750,848,823,11,12,13,0,0,
0,0,0,0,0,0,0,0,0,0,0,0,0,0,0,0,0,0,0,0,0,0,0,0,0,0,0,0,0,0,0,0,0,0,0,0,0,0,0,0,0,0,0,0,0,0,0,0,0,0,0,0,0,0,0,0,0,0,0,0,0,0,0,0,0,0,0,0,0,0,0,0,0,0,0,36,37,38,0,0,
0,0,0,0,0,308,0,0,0,0,0,0,1326,1327,1328,1329,1330,1331,1332,1333,1334,1335,1336,1337,1338,1339,1340,1341,0,0,0,0,0,0,0,0,0,0,0,0,0,0,0,0,0,0,0,0,0,0,0,0,0,0,0,0,0,0,0,0,0,0,0,0,0,0,0,0,0,0,0,0,0,0,0,61,62,63,308,0,
0,0,0,0,0,0,0,0,0,0,0,0,1351,1352,1353,1354,1355,1356,1357,1358,1359,1360,1361,1362,1363,1364,1365,1366,0,0,0,0,0,0,0,0,0,0,0,0,0,0,0,0,0,0,0,0,0,0,0,0,0,0,0,0,0,0,0,0,0,0,0,0,0,0,0,0,0,0,0,0,0,0,0,86,87,88,0,0,
0,0,0,0,0,0,0,0,0,0,0,0,1376,1377,1378,1379,1380,1381,1382,1383,1384,1385,1386,1387,1388,1389,1390,1391,0,0,0,0,0,0,0,0,0,0,0,0,0,0,0,0,0,0,0,0,0,0,0,0,0,0,0,0,0,0,0,0,0,0,0,0,0,0,0,0,0,0,0,0,0,0,0,0,112,113,0,0,
0,0,0,0,0,0,0,0,0,0,0,0,1401,1402,1403,1404,1405,1406,1407,1408,1409,1410,1411,1412,1413,1414,1415,1416,0,0,0,0,0,0,0,0,0,0,0,0,0,0,0,0,0,0,0,0,0,0,0,0,0,0,0,0,0,0,0,0,0,0,0,0,0,0,0,0,0,0,0,0,0,0,0,136,137,138,0,0,
0,0,0,0,308,0,0,0,0,0,0,0,0,0,0,0,0,0,0,0,0,0,0,0,0,0,0,0,0,0,0,0,0,0,0,0,0,0,0,0,0,0,0,0,0,0,0,0,0,0,0,0,0,0,0,0,0,0,0,0,0,0,0,0,0,0,0,0,0,0,0,0,0,0,0,0,0,0,0,0,
308,0,0,0,0,0,0,0,0,0,0,0,0,0,0,0,0,0,0,0,0,0,0,0,0,0,0,0,0,0,0,0,0,0,0,0,0,0,0,0,0,0,0,0,0,0,0,0,0,0,0,0,0,0,0,0,0,0,0,0,0,0,0,0,0,0,0,0,0,0,0,0,0,0,0,0,0,0,0,0,
0,0,0,0,0,0,0,0,0,0,0,0,0,0,0,0,0,0,0,0,0,0,0,0,0,0,0,0,0,0,0,0,0,0,0,0,0,0,0,0,0,0,0,0,0,0,0,0,0,0,0,0,0,0,0,0,0,0,0,0,0,0,0,0,0,0,0,0,0,0,0,0,0,0,0,0,0,0,0,0,
0,0,0,0,0,0,0,0,0,0,0,0,0,0,0,0,0,0,0,0,0,0,0,0,0,0,0,0,0,0,0,0,0,0,0,0,0,0,0,0,0,0,0,0,0,0,0,0,0,0,0,0,0,0,0,0,0,0,0,0,0,0,0,0,0,0,0,0,0,0,0,0,0,0,0,0,0,0,0,0,
0,0,0,0,0,0,0,0,0,0,0,0,0,0,0,0,0,0,0,0,0,0,0,0,0,0,0,0,0,0,0,0,0,0,0,0,0,0,0,0,0,0,0,0,0,0,0,0,0,0,0,0,0,0,0,0,0,0,0,0,0,0,0,0,0,0,0,0,0,0,0,0,0,0,0,0,0,0,0,308,
0,0,0,308,0,0,0,0,0,0,0,0,0,0,0,0,0,0,0,0,0,0,0,0,0,0,0,0,0,0,0,0,0,0,0,0,0,0,0,0,0,0,0,0,0,0,0,0,0,0,0,0,0,0,0,0,0,0,0,0,0,0,0,0,0,0,0,0,0,0,0,0,0,0,0,0,0,0,11,12,
0,0,0,0,0,0,0,0,0,0,0,0,0,0,0,0,0,0,0,0,0,0,0,0,0,0,0,0,0,0,0,0,0,0,0,0,0,0,0,0,0,0,0,0,0,0,0,0,0,0,0,0,0,0,0,0,0,0,0,0,0,0,0,0,0,0,0,0,0,0,0,0,0,0,0,0,0,0,36,37,
0,0,0,0,0,0,0,0,0,0,0,0,0,0,0,0,0,0,0,0,0,0,0,0,0,0,0,0,0,0,0,0,0,0,0,0,0,0,0,0,0,0,0,0,0,0,0,0,0,0,0,0,0,0,0,0,0,0,0,0,0,0,0,0,0,0,0,0,0,0,0,0,0,0,0,0,0,308,61,62,
0,0,0,308,0,0,0,0,0,0,0,0,0,0,0,0,0,0,0,0,0,0,0,0,0,0,0,0,11,12,13,0,0,0,0,0,0,0,0,0,0,0,0,0,11,12,13,0,0,0,0,11,12,13,0,0,0,0,0,0,0,0,0,0,0,0,0,0,11,12,13,0,0,0,0,0,0,0,86,87,
0,0,0,0,0,0,233,0,11,12,13,0,0,0,0,0,0,0,0,0,0,0,0,0,0,0,0,0,36,37,38,0,0,0,0,0,0,0,11,12,13,0,0,0,36,37,38,0,0,0,0,36,37,38,0,0,11,12,13,0,0,0,0,0,0,11,12,13,36,37,38,0,0,0,11,12,0,0,0,112,
0,0,0,0,0,0,12,308,36,37,38,0,0,308,0,0,0,0,0,0,0,0,0,0,11,12,13,0,61,62,63,0,0,0,0,0,0,0,36,37,38,308,12,13,61,62,63,233,12,13,0,61,62,63,0,308,36,37,38,0,0,11,12,13,0,36,37,38,61,62,63,11,12,308,36,37,0,0,136,137,
0,0,0,0,0,0,37,38,61,62,63,11,12,13,0,0,0,0,11,12,13,0,0,0,36,37,38,0,86,87,88,0,0,0,0,0,0,0,61,62,63,36,37,38,86,87,88,36,37,38,305,86,87,88,306,305,61,62,63,305,308,36,37,38,305,61,62,63,86,87,88,36,37,38,61,62,0,0,0,0,
0,0,0,0,0,0,62,63,86,87,88,36,37,38,0,0,0,0,36,37,38,0,0,0,61,62,63,308,0,112,0,0,0,0,0,0,0,0,86,87,88,61,62,63,0,112,0,61,62,63,0,0,112,0,0,0,86,87,88,0,233,61,62,63,0,86,87,88,0,112,308,61,62,63,86,87,0,0,0,0
</data>
 </layer>
 <layer id="8" name="AlwaysFront2" width="80" height="110" visible="0">
  <data encoding="csv">
0,0,0,0,0,0,0,0,0,0,0,0,0,0,0,0,0,0,0,0,0,0,0,0,0,0,0,0,0,0,0,0,0,0,0,0,0,0,0,0,0,0,0,0,0,0,0,0,0,0,0,0,0,0,0,0,0,0,0,0,0,0,0,0,0,0,0,0,0,0,0,0,0,0,0,0,0,0,0,0,
0,0,0,0,0,0,0,0,0,0,0,0,0,0,0,0,0,0,0,0,0,0,0,0,0,0,0,0,0,0,0,0,0,0,0,0,0,0,0,0,0,0,0,0,0,0,0,0,0,0,0,0,0,0,0,0,0,0,0,0,0,0,0,0,0,0,0,0,0,0,0,0,0,0,0,0,0,0,0,0,
0,0,0,0,0,0,0,0,0,0,0,0,0,0,0,0,0,0,0,0,0,0,0,0,0,0,0,0,0,0,0,0,0,0,0,0,0,0,0,0,0,0,0,0,0,0,0,0,0,0,0,0,0,0,0,0,0,0,0,0,0,0,0,0,0,0,0,0,0,0,0,0,0,0,0,0,0,0,0,0,
0,0,0,0,0,0,0,0,0,0,0,0,0,0,0,0,0,0,0,0,0,0,0,0,0,0,0,0,0,0,0,0,0,0,0,0,0,0,0,0,0,0,0,0,0,0,0,0,0,0,0,0,0,0,0,0,0,0,0,0,0,0,0,0,0,0,0,0,0,0,0,0,0,0,0,0,0,0,0,0,
0,0,0,0,0,0,0,0,0,0,0,0,0,0,0,0,0,0,0,0,0,0,0,0,0,0,0,0,0,0,0,0,0,0,0,0,0,0,0,0,0,0,0,0,0,0,0,0,0,0,0,0,0,0,0,0,0,0,0,0,0,0,0,0,0,0,0,0,0,0,0,0,0,0,0,0,0,0,0,0,
0,0,0,0,0,0,0,0,0,0,0,0,0,0,0,0,0,0,0,0,0,0,0,0,0,0,0,0,0,0,0,0,0,0,0,0,0,0,0,0,0,0,0,0,0,0,0,0,0,0,0,0,0,0,0,0,0,0,0,0,0,0,0,0,0,0,0,0,0,0,0,0,0,0,0,0,0,0,0,0,
0,0,0,0,0,0,0,0,0,0,0,0,0,0,0,0,0,0,0,0,0,0,0,0,0,0,0,0,0,0,0,0,0,0,0,0,0,0,0,0,0,0,0,0,0,0,0,0,0,0,0,0,0,0,0,0,0,0,0,0,0,0,0,0,0,0,0,0,0,0,0,0,0,0,0,0,0,0,0,0,
0,0,0,0,0,0,0,0,0,0,0,0,0,0,0,0,0,0,0,0,0,0,0,0,0,0,0,0,0,0,0,0,0,0,0,0,0,0,0,0,0,0,0,0,0,0,0,0,0,0,0,0,0,0,0,0,0,0,0,0,0,0,0,0,0,0,0,0,0,0,0,0,0,0,0,0,0,0,0,0,
0,0,0,0,0,0,0,0,0,0,0,0,0,0,0,0,0,0,0,0,0,0,0,0,0,0,0,0,0,0,0,0,0,0,0,0,0,0,0,0,0,0,0,0,0,0,0,0,0,0,0,0,0,0,0,0,0,0,0,0,0,0,0,0,0,0,0,0,0,0,0,0,0,0,0,0,0,0,0,0,
0,0,0,0,0,0,0,0,0,0,0,0,0,0,0,0,0,0,0,0,0,0,0,0,0,0,0,0,0,0,0,0,0,0,0,0,0,0,0,0,0,0,0,0,0,0,0,0,0,0,0,0,0,0,0,0,0,0,0,0,0,0,0,0,0,0,0,0,0,0,0,0,0,0,0,0,0,0,0,0,
0,0,0,0,0,0,0,0,0,0,0,0,0,0,0,0,0,0,0,0,0,0,0,0,0,0,0,0,0,0,0,0,0,0,0,0,0,0,0,0,0,0,0,0,0,0,0,0,0,0,0,0,0,0,0,0,0,0,0,0,0,0,0,0,0,0,0,0,0,0,0,0,0,0,0,0,0,0,0,0,
0,0,0,0,0,0,0,0,0,0,0,0,0,0,0,0,0,0,0,0,0,0,0,0,0,0,0,0,0,0,0,0,0,0,0,0,0,0,0,0,0,0,0,0,0,0,0,0,0,0,0,0,0,0,0,0,0,0,0,0,0,0,0,0,0,0,0,0,0,0,0,0,0,0,0,0,0,0,0,0,
0,0,0,0,0,0,0,0,0,0,0,0,0,0,0,0,0,0,0,0,0,0,0,0,0,0,0,0,0,0,0,0,0,0,0,0,0,0,0,0,0,0,0,0,0,0,0,0,0,0,0,0,0,0,0,0,0,0,0,0,0,0,0,0,0,0,0,0,0,0,0,0,0,0,0,0,0,0,0,0,
0,0,0,0,0,0,0,0,0,0,0,0,0,0,0,0,0,0,0,0,0,0,0,0,0,0,0,0,0,0,0,0,0,0,0,0,0,0,0,0,0,0,0,0,0,0,0,0,0,0,0,0,0,0,0,0,0,0,0,0,0,0,0,0,0,0,0,0,0,0,0,0,0,0,0,0,0,0,0,0,
0,0,0,0,0,0,0,0,0,0,0,0,0,0,0,0,0,0,0,0,0,0,0,0,0,0,0,0,0,0,0,0,0,0,0,0,0,0,0,0,0,0,0,0,0,0,0,0,0,0,0,0,0,0,0,0,0,0,0,0,0,0,0,0,0,0,0,0,0,0,0,0,0,0,0,0,0,0,0,0,
0,0,0,0,0,0,0,0,0,0,0,0,0,0,0,0,0,0,0,0,0,0,0,0,0,0,0,0,0,0,0,0,0,0,0,0,0,0,0,0,0,0,0,0,0,0,0,0,0,0,0,0,0,0,0,0,0,0,0,0,0,0,0,0,0,0,0,0,0,0,0,0,0,0,0,0,0,0,0,0,
0,0,0,0,0,0,0,0,0,0,0,0,0,0,0,0,0,0,0,0,0,0,0,0,0,0,0,0,0,0,0,0,0,0,0,0,0,0,0,0,0,0,0,0,0,0,0,0,0,0,0,0,0,0,0,0,0,0,0,0,0,0,0,0,0,0,0,0,0,0,0,0,0,0,0,0,0,0,0,0,
0,0,0,0,0,0,0,0,0,0,0,0,0,0,0,0,0,0,0,0,0,0,0,0,0,0,0,0,0,0,0,0,0,0,0,0,0,0,0,0,0,0,0,0,0,0,0,0,0,0,0,0,0,0,0,0,0,0,0,0,0,0,0,0,0,0,0,0,0,0,0,0,0,0,0,0,0,0,0,0,
0,0,0,0,0,0,0,0,0,0,0,0,0,0,0,0,0,0,0,0,0,0,0,0,0,0,0,0,0,0,0,0,0,0,0,0,0,0,0,0,0,0,0,0,0,0,0,0,0,0,0,0,0,0,0,0,0,0,0,0,0,0,0,0,0,0,0,0,0,0,0,0,0,0,0,0,0,0,0,0,
0,0,0,0,0,0,0,0,0,0,0,0,0,0,0,0,0,0,0,0,0,0,0,0,0,0,0,0,0,0,0,0,0,0,0,0,0,0,0,0,0,0,0,0,0,0,0,0,0,0,0,0,0,0,0,0,0,0,0,0,0,0,0,0,0,0,0,0,0,0,0,0,0,0,0,0,0,0,0,0,
0,0,0,0,0,0,0,0,0,0,0,0,0,0,0,0,0,0,0,0,0,0,0,0,0,0,0,0,0,0,0,0,0,0,0,0,0,0,0,0,0,0,0,0,0,0,0,0,0,0,0,0,0,0,0,0,0,0,0,0,0,0,0,0,0,0,0,0,0,0,0,0,0,0,0,0,0,0,0,0,
0,0,0,0,0,0,0,0,0,0,0,0,0,0,0,0,0,0,0,0,0,0,0,0,0,0,0,0,0,0,0,0,0,0,0,0,0,0,0,0,0,0,0,0,0,0,0,0,0,0,0,0,0,0,0,0,0,0,0,0,0,0,0,0,0,0,0,0,0,0,0,0,0,0,0,0,0,0,0,0,
0,0,0,0,0,0,0,0,0,0,0,0,0,0,0,0,0,0,0,0,0,0,0,0,0,0,0,0,0,0,0,0,0,0,0,0,0,0,0,0,0,0,0,0,0,0,0,0,0,0,0,0,0,0,0,0,0,0,0,0,0,0,0,0,0,0,0,0,0,0,0,0,0,0,0,0,0,0,0,0,
0,0,0,0,0,0,0,0,0,0,0,0,0,0,0,0,0,0,0,0,0,0,0,0,0,0,0,0,0,0,0,0,0,0,0,0,0,0,0,0,0,0,0,0,0,0,0,0,0,0,0,0,0,0,0,0,0,0,0,0,0,0,0,0,0,0,0,0,0,0,0,0,0,0,0,0,0,0,0,0,
0,0,0,0,0,0,0,0,0,0,0,0,0,0,0,0,0,0,0,0,0,0,0,0,0,0,0,0,0,0,0,0,0,0,0,0,0,0,0,0,0,0,0,0,0,0,0,0,0,0,0,0,0,0,0,0,0,0,0,0,0,0,0,0,0,0,0,0,0,0,0,0,0,0,0,0,0,0,0,0,
0,0,0,0,0,0,0,0,0,0,0,0,0,0,0,0,0,0,0,0,0,0,0,0,0,0,0,0,0,0,0,0,0,0,0,0,0,0,0,0,0,0,0,0,0,0,0,0,0,0,0,0,0,0,0,0,0,0,0,0,0,0,0,0,0,0,0,0,0,0,0,0,0,0,0,0,0,0,0,0,
0,0,0,0,0,0,0,0,0,0,0,0,0,0,0,0,0,0,0,0,0,0,0,0,0,0,0,0,0,0,0,0,0,0,0,0,0,0,0,0,0,0,0,0,0,0,0,0,0,0,0,0,0,0,0,0,0,0,0,0,0,0,0,0,0,0,0,0,0,0,0,0,0,0,0,0,0,0,0,0,
0,0,0,0,0,0,0,0,0,0,0,0,0,0,0,0,0,0,0,0,0,0,0,0,0,0,0,0,0,0,0,0,0,0,0,0,0,0,0,0,0,0,0,0,0,0,0,0,0,0,0,0,0,0,0,0,0,0,0,0,0,0,0,0,0,0,0,0,0,0,0,0,0,0,0,0,0,0,0,0,
0,0,0,0,0,0,0,0,0,0,0,0,0,0,0,0,0,0,0,0,0,0,0,0,0,0,0,0,0,0,0,0,0,0,0,0,0,0,0,0,0,0,0,0,0,0,0,0,0,0,0,0,0,0,0,0,0,0,0,0,0,0,0,0,0,0,0,0,0,0,0,0,0,0,0,0,0,0,0,0,
0,0,0,0,0,0,0,0,0,0,0,0,0,0,0,0,0,0,0,0,0,0,0,0,0,0,0,0,0,0,0,0,0,0,0,0,0,0,0,0,0,0,0,0,0,0,0,0,0,0,0,0,0,0,0,0,0,0,0,0,0,0,0,0,0,0,0,0,0,0,0,0,0,0,0,0,0,0,0,0,
0,0,0,0,0,0,0,0,0,0,0,0,0,0,0,0,0,0,0,0,0,0,0,0,0,0,0,0,0,0,0,0,0,0,0,0,0,0,0,0,0,0,0,0,0,0,0,0,0,0,0,0,0,0,0,0,0,0,0,0,0,0,0,0,0,0,0,0,0,0,0,0,0,0,0,0,0,0,0,0,
0,0,0,0,0,0,0,0,0,0,0,0,0,0,0,0,0,0,0,0,0,0,0,0,0,0,0,0,0,0,0,0,0,0,0,0,0,0,0,0,0,0,0,0,0,0,0,0,0,0,0,0,0,0,0,0,0,0,0,0,0,0,0,0,0,0,0,0,0,0,0,0,0,0,0,0,0,0,0,0,
0,0,0,0,0,0,0,0,0,0,0,0,0,0,0,0,0,0,0,0,0,0,0,0,0,0,0,0,0,0,0,0,0,0,0,0,0,0,0,0,0,0,0,0,0,0,0,0,0,0,0,0,0,0,0,0,0,0,0,0,0,0,0,0,0,0,0,0,0,0,0,0,0,0,0,0,0,0,0,0,
0,0,0,0,0,0,0,0,0,0,0,0,0,0,0,0,0,0,0,0,0,0,0,0,0,0,0,0,0,0,0,0,0,0,0,0,0,0,0,0,0,0,0,0,0,0,0,0,0,0,0,0,0,0,0,0,0,0,0,0,0,0,0,0,0,0,0,0,0,0,0,0,0,0,0,0,0,0,0,0,
0,0,0,0,0,0,0,0,0,0,0,0,0,0,0,0,0,0,0,0,0,0,0,0,0,0,0,0,0,0,0,0,0,0,0,0,0,0,0,0,0,0,0,0,0,0,0,0,0,0,0,0,0,0,0,0,0,0,0,0,0,0,0,0,0,0,0,0,0,0,0,0,0,7,8,9,10,0,0,0,
0,0,0,0,0,0,0,0,0,0,0,0,0,0,0,0,0,0,0,0,0,0,0,0,0,0,0,0,0,0,0,0,0,0,0,0,0,0,0,0,0,0,0,0,0,0,0,0,0,0,0,0,0,0,0,0,0,0,0,0,0,0,0,0,0,0,0,0,0,0,0,0,0,32,33,34,35,0,0,0,
0,0,0,0,0,0,0,0,0,0,0,0,0,495,0,0,0,0,0,0,0,0,0,0,0,0,0,0,0,0,0,0,0,0,0,0,7,8,9,10,0,0,0,0,0,0,0,0,0,0,0,0,0,0,0,0,0,0,0,0,0,0,0,0,0,0,0,0,0,0,0,0,0,57,58,59,60,0,0,0,
0,0,0,0,0,0,0,0,0,0,0,0,0,520,0,0,0,0,0,0,0,0,0,0,0,0,0,0,0,0,0,0,0,0,0,0,32,33,34,35,0,0,0,0,0,0,0,0,0,0,0,0,0,0,0,0,0,0,0,0,0,0,0,0,0,0,0,0,0,0,0,0,0,82,83,84,85,0,0,0,
0,0,0,0,0,0,0,0,0,0,0,0,0,495,0,0,7,8,9,10,0,0,0,0,0,0,0,0,0,0,0,0,0,0,0,0,57,58,59,60,0,0,0,0,0,0,0,0,0,0,0,0,0,0,0,0,0,0,0,0,0,0,0,0,0,0,0,0,0,0,0,0,0,107,108,109,0,0,0,0,
0,0,0,0,0,0,0,0,7,8,9,10,0,520,0,0,32,33,34,35,0,0,0,0,0,0,0,0,0,12,13,0,0,0,0,0,82,83,84,85,0,0,0,0,0,0,0,0,0,0,0,0,0,0,0,0,0,0,0,0,0,0,0,0,0,0,0,0,0,0,0,0,0,132,133,134,135,0,0,0,
0,0,0,0,0,0,0,0,32,33,34,35,0,0,0,0,57,58,59,60,0,0,0,7,8,9,10,0,36,37,38,0,0,0,0,0,107,108,109,0,0,0,0,0,0,0,0,7,8,9,10,0,0,0,0,0,0,0,0,0,0,0,0,0,0,0,0,0,0,0,0,0,0,0,158,159,160,0,0,0,
0,0,0,0,0,0,0,0,57,58,59,60,0,0,0,0,82,83,84,85,0,0,0,32,33,34,35,0,61,62,63,0,0,0,0,0,132,133,134,135,0,0,0,0,0,0,0,32,33,34,35,0,0,0,0,0,0,0,0,0,0,0,0,0,0,0,0,0,0,0,0,0,0,0,0,0,0,0,0,0,
0,0,0,0,0,0,0,0,82,83,84,85,0,0,0,0,107,108,109,0,0,0,0,57,58,59,60,0,86,87,88,0,12,13,0,0,0,158,159,160,0,0,0,0,0,0,0,57,58,59,60,0,0,0,0,0,0,0,0,0,0,0,0,0,0,0,0,0,0,0,0,0,0,0,0,0,0,0,0,0,
0,0,0,0,0,0,0,0,107,108,109,0,0,0,0,0,132,133,134,135,0,0,0,82,83,84,85,0,0,112,113,36,37,38,0,0,0,0,0,0,0,0,0,0,12,0,0,82,83,84,85,0,0,0,0,0,0,0,0,0,0,0,0,0,0,0,0,0,0,0,0,0,0,0,0,0,0,0,0,0,
0,0,0,0,0,0,0,0,132,133,134,135,0,0,0,0,0,158,159,160,0,0,0,107,108,109,0,0,136,137,138,61,62,63,0,0,0,0,0,0,0,0,0,0,37,0,0,107,108,109,0,0,0,0,0,0,0,0,0,0,0,0,0,0,0,0,0,0,0,0,0,0,0,0,0,0,0,0,0,0,
0,0,0,0,0,0,0,0,0,158,159,11,12,13,0,0,0,0,0,0,0,0,0,132,133,134,135,0,0,0,0,86,87,88,0,0,0,0,0,0,0,0,0,0,0,0,0,132,133,134,135,0,0,0,0,0,0,0,0,0,0,0,0,0,0,0,0,0,0,0,0,0,0,0,0,0,0,0,0,0,
0,0,0,0,0,0,0,0,0,0,0,36,37,38,0,0,0,0,0,0,0,0,0,0,158,159,160,0,0,0,0,0,112,113,0,0,0,0,0,0,0,0,0,0,0,0,0,0,158,61,160,0,0,0,0,0,0,0,0,0,0,0,0,0,0,0,0,0,0,0,0,0,0,0,0,0,0,0,0,0,
0,0,0,0,0,0,0,0,0,0,0,61,62,63,0,0,0,0,0,0,0,0,0,0,0,0,0,0,0,0,0,136,137,36,0,0,0,0,0,0,0,0,0,0,0,0,0,0,0,0,0,0,0,0,0,0,0,0,0,0,0,0,0,0,0,0,0,0,0,0,0,0,0,0,0,0,0,0,0,0,
0,0,0,0,0,0,0,0,0,0,0,86,87,88,0,0,0,0,0,0,0,0,0,0,0,0,0,0,0,0,0,0,0,61,0,0,0,0,0,0,0,0,0,0,0,0,0,0,0,0,0,0,0,0,0,0,0,0,0,0,0,0,0,0,0,0,0,0,0,0,0,0,0,0,0,0,7,8,9,10,
0,0,0,0,0,0,0,0,0,0,0,0,0,0,0,0,0,0,0,0,0,0,0,0,0,0,0,0,0,0,0,0,0,0,0,0,0,0,0,0,0,0,0,0,0,0,0,0,0,0,0,0,0,0,0,0,0,0,0,0,0,0,0,0,0,0,0,0,0,0,0,0,0,0,0,0,32,33,34,35,
0,0,0,0,0,0,0,0,0,0,0,0,0,0,0,0,0,0,0,0,0,0,0,0,0,0,0,0,0,0,0,0,0,0,0,0,0,0,0,0,0,0,0,0,0,0,0,0,0,0,0,0,0,0,0,0,0,0,0,0,0,0,0,0,0,0,0,0,0,0,0,0,0,0,0,0,57,58,59,60,
0,0,0,0,0,0,0,0,0,0,0,0,0,0,0,0,0,0,0,0,0,0,0,0,0,0,0,0,0,0,0,0,0,0,0,0,0,0,0,0,0,0,0,0,0,0,0,0,0,0,0,0,0,0,0,0,0,0,0,0,0,0,0,0,0,0,0,0,0,0,0,0,0,0,0,0,82,83,84,85,
0,0,0,0,0,0,0,0,0,0,0,0,0,0,0,0,0,0,0,0,0,0,0,0,0,0,0,0,0,0,0,0,0,0,0,0,0,0,0,0,0,0,0,0,0,0,0,0,0,0,0,0,0,0,0,0,0,0,0,0,0,0,0,0,0,0,0,0,0,0,0,0,0,0,0,0,107,108,109,0,
0,0,0,0,0,0,0,0,0,0,0,0,0,0,0,0,0,0,0,0,0,0,0,0,0,0,0,0,0,0,0,0,0,0,0,0,0,0,0,0,0,0,0,0,0,0,0,0,0,0,0,0,0,0,0,0,0,0,0,0,0,0,0,0,0,0,0,0,0,0,0,0,0,0,0,0,132,133,134,135,
0,0,0,0,0,0,0,0,0,0,0,0,0,0,0,0,0,0,0,0,0,0,0,0,0,0,0,0,0,0,0,0,0,0,0,0,0,0,0,0,0,0,0,0,0,0,0,0,0,0,0,0,0,0,0,0,0,0,0,0,0,0,0,0,0,0,0,0,0,0,0,0,0,0,0,0,0,158,159,160,
0,0,0,0,0,0,0,0,0,0,0,0,0,0,0,0,0,0,0,0,0,0,0,0,0,0,0,0,0,0,0,0,0,0,0,0,0,0,0,0,0,0,0,0,0,0,0,0,0,0,0,0,0,0,0,0,0,0,0,0,0,0,0,0,0,0,0,0,0,0,0,0,0,0,0,0,0,0,0,0,
0,0,0,0,0,0,0,0,0,0,0,0,0,0,0,0,0,0,0,0,0,0,0,0,0,0,0,0,0,0,0,0,0,0,0,0,0,0,0,0,0,0,0,0,0,0,0,0,0,0,0,0,0,0,0,0,0,0,0,0,0,0,0,0,0,0,0,0,0,0,0,0,0,0,0,0,0,0,0,0,
0,0,0,0,0,0,0,0,0,0,0,0,0,0,0,0,0,0,0,0,0,0,0,0,0,0,0,0,0,0,0,0,0,0,0,0,0,0,0,0,0,0,0,0,0,0,0,0,0,0,0,0,0,0,0,0,0,0,0,0,0,0,0,0,0,0,0,0,0,0,0,0,0,0,0,0,0,89,90,0,
0,0,0,0,0,0,0,0,0,0,0,0,0,0,0,0,0,0,0,0,0,0,0,0,0,0,0,0,0,0,0,0,0,0,0,0,0,0,0,0,0,0,0,0,0,0,0,0,0,0,0,0,0,0,0,0,0,0,0,0,0,0,0,0,0,0,0,0,0,0,0,0,0,0,0,0,0,114,115,0,
0,0,0,0,0,0,0,0,0,0,0,0,0,0,0,0,0,0,0,0,0,0,0,0,0,0,0,0,0,0,0,0,0,0,0,0,0,0,0,0,0,0,0,0,0,0,0,0,0,0,0,0,0,0,0,0,0,0,0,0,0,0,0,0,0,0,0,0,0,0,0,0,0,0,0,0,0,0,0,0,
0,0,0,0,0,0,0,0,0,0,0,0,0,0,0,0,0,0,0,0,0,0,0,0,0,0,0,0,0,0,0,0,0,0,0,0,0,0,0,0,0,0,0,0,0,0,0,0,0,0,0,0,0,0,0,0,0,0,0,0,0,0,0,0,0,0,0,0,0,0,0,0,0,0,0,0,0,0,14,15,
0,0,0,0,0,0,0,0,0,0,0,0,0,0,0,0,0,0,0,0,0,0,0,0,0,0,0,0,0,0,0,0,0,0,0,0,0,0,0,0,0,0,0,0,0,0,0,0,0,0,0,0,0,0,0,0,0,0,0,0,0,0,0,0,0,0,0,0,0,0,0,0,0,0,0,0,0,0,39,40,
0,0,0,0,0,0,0,0,0,0,0,0,0,0,0,0,0,0,0,0,0,0,0,0,0,0,0,0,0,0,0,0,0,0,0,0,0,0,0,0,0,0,0,0,0,0,0,0,0,0,0,0,0,0,0,0,0,0,0,0,0,0,0,0,0,0,0,0,0,0,0,0,0,0,0,0,0,0,64,65,
0,0,0,0,0,0,0,0,0,0,0,0,0,0,0,0,0,0,0,0,0,0,0,0,0,0,0,0,0,0,0,0,0,0,0,0,0,0,0,0,0,0,0,0,0,0,0,0,0,0,0,0,0,0,0,0,0,0,0,0,0,0,0,0,0,0,0,0,0,0,0,0,0,0,0,0,0,0,0,0,
0,0,0,0,0,0,0,0,0,0,0,0,0,0,0,0,0,0,0,0,0,0,0,0,0,0,0,0,0,0,0,0,0,0,0,0,0,0,0,0,0,0,0,0,0,0,0,0,0,0,0,0,0,0,0,0,0,0,0,0,0,0,0,0,0,0,0,0,0,0,0,0,0,0,0,0,0,0,0,0,
0,0,0,0,0,0,0,0,0,0,0,0,0,0,0,0,0,0,0,0,0,0,0,0,0,0,0,0,0,0,0,0,0,0,0,0,0,0,0,0,0,0,0,0,0,0,0,0,0,0,0,0,0,0,0,0,0,0,0,0,0,0,0,0,0,0,0,0,0,0,0,0,0,0,0,0,0,0,0,0,
0,0,0,0,0,0,0,0,0,0,0,0,0,0,0,0,0,0,0,0,0,0,0,0,0,0,0,0,0,0,0,0,0,0,0,0,0,0,0,0,0,0,0,0,0,0,0,0,0,0,0,0,0,0,0,0,0,0,0,0,0,0,0,0,0,0,0,0,0,0,0,0,0,0,0,0,0,0,0,0,
0,0,0,0,0,0,0,0,0,0,0,0,0,0,0,0,0,0,0,0,0,0,0,0,0,0,0,0,0,0,0,0,0,0,0,0,0,0,0,0,0,0,0,0,0,0,0,0,0,0,0,0,0,0,0,0,0,0,0,0,0,0,0,0,0,0,0,0,0,0,0,0,0,0,0,0,0,0,0,0,
0,0,0,0,0,0,0,0,0,0,0,0,0,0,0,0,0,0,0,0,0,0,0,0,0,0,0,0,0,0,0,0,0,0,0,0,0,0,0,0,0,0,0,0,0,0,0,0,0,0,0,0,0,0,0,0,0,0,0,0,0,0,0,0,0,0,0,0,0,0,0,0,0,0,0,0,0,0,0,0,
0,0,0,0,0,0,0,0,0,0,0,0,0,0,0,0,0,0,0,0,0,0,0,0,0,0,0,0,0,0,0,0,0,0,0,0,0,0,0,0,0,0,0,0,0,0,0,0,0,0,0,0,0,0,0,0,0,0,0,0,0,0,0,0,0,0,0,0,0,0,0,0,0,0,0,0,0,0,0,0,
89,90,0,0,0,0,0,0,0,0,0,0,0,0,0,0,0,0,0,0,0,0,0,0,0,0,0,0,0,0,0,0,0,0,0,0,0,0,0,0,0,0,0,0,0,0,0,0,0,0,0,0,0,0,0,0,0,0,0,0,0,0,0,0,0,0,0,0,0,0,0,0,0,0,0,0,0,0,0,0,
114,115,0,0,0,0,0,0,0,0,0,0,0,0,0,0,0,0,0,0,0,0,0,0,0,0,0,0,0,0,0,0,0,0,0,0,0,0,0,0,0,0,0,0,0,0,0,0,0,0,0,0,0,0,0,0,0,0,0,0,0,0,0,0,0,0,0,0,0,0,0,0,0,0,0,0,0,0,0,0,
0,0,0,0,0,0,0,0,0,0,0,0,0,0,0,0,0,0,0,0,0,0,0,0,0,0,0,0,0,0,0,0,0,0,0,0,0,0,0,0,0,0,0,0,0,0,0,0,0,0,0,0,0,0,0,0,0,0,0,0,0,0,0,0,0,0,0,0,0,0,0,0,0,0,0,0,0,0,0,0,
0,0,0,0,0,0,0,0,0,0,0,0,0,0,0,0,0,0,0,0,0,0,0,0,0,0,0,0,0,0,0,0,0,0,0,0,0,0,0,0,0,0,0,0,0,0,0,0,0,0,0,0,0,0,0,0,0,0,0,0,0,0,0,0,0,0,0,0,0,0,0,0,0,0,0,0,0,0,0,0,
0,0,0,11,12,13,0,0,0,0,0,0,0,0,0,0,0,0,0,0,0,0,0,0,0,0,0,0,0,0,0,0,0,0,0,0,0,0,0,0,0,0,0,0,0,0,0,0,0,0,0,0,0,0,0,0,0,0,0,0,0,0,0,0,0,0,0,0,0,0,0,0,0,0,0,0,0,0,0,0,
0,0,0,36,37,38,0,0,0,0,0,0,0,0,0,0,0,0,0,0,0,0,0,0,0,0,0,0,0,0,0,0,0,0,0,0,0,0,0,0,0,0,0,0,0,0,0,0,0,0,0,0,0,0,0,0,0,0,0,0,0,0,0,0,0,0,0,0,0,0,0,0,0,0,0,0,0,0,0,0,
0,0,0,61,62,63,0,0,0,0,0,0,0,0,0,0,0,0,0,0,0,0,0,0,0,0,0,0,0,0,0,0,0,0,0,0,0,0,0,0,0,0,0,0,0,0,0,0,0,0,0,0,0,0,0,0,0,0,0,0,0,0,0,0,0,0,0,0,0,0,0,0,0,0,0,0,0,0,0,0,
0,0,0,86,87,88,0,0,0,0,0,0,0,0,0,0,0,0,0,0,0,0,0,0,0,0,0,0,0,0,0,0,0,0,0,0,0,0,0,0,0,0,0,0,0,0,0,0,0,0,0,0,0,0,0,0,0,0,0,0,0,0,0,0,0,0,0,0,0,0,0,0,0,0,0,0,0,0,0,0,
0,89,90,0,112,113,0,0,0,0,0,0,0,0,0,0,0,0,0,0,0,0,0,0,0,0,0,0,0,0,0,0,0,0,0,0,0,0,0,0,0,0,0,0,0,0,0,0,0,0,0,0,0,0,0,0,0,0,0,0,0,0,0,0,0,0,0,0,0,0,0,0,0,0,0,0,0,0,0,0,
0,114,115,136,137,138,0,0,0,0,0,0,0,0,0,0,0,0,0,0,0,0,0,0,0,0,0,0,0,0,0,0,0,0,0,0,0,0,0,0,0,0,0,0,0,0,0,0,0,0,0,0,0,0,0,0,0,0,0,0,0,0,0,0,0,0,0,0,0,0,0,0,0,0,0,0,0,0,0,0,
0,0,0,0,0,0,0,0,0,0,0,0,0,0,0,0,0,0,0,0,0,0,0,0,0,0,0,0,0,0,0,0,0,0,0,0,0,0,0,0,0,0,0,0,0,0,0,0,0,0,0,0,0,0,0,0,0,0,0,0,0,0,0,0,0,0,0,0,0,0,0,0,0,0,0,0,0,0,0,0,
0,0,0,0,0,0,0,0,0,0,0,0,0,0,0,0,0,0,0,0,0,0,0,0,0,0,0,0,0,0,0,0,0,0,0,0,0,0,0,0,0,0,0,0,0,0,0,0,0,0,0,0,0,0,0,0,0,0,0,0,0,0,0,0,0,0,0,0,0,0,0,0,0,0,0,0,0,0,0,0,
0,0,0,0,0,0,0,0,0,0,0,0,0,0,0,0,0,0,0,0,0,0,0,0,0,0,0,0,0,0,0,0,0,0,0,0,0,0,0,0,0,0,0,0,0,0,0,0,0,0,0,0,0,0,0,0,0,0,0,0,0,0,0,0,0,0,0,0,0,0,0,0,0,0,0,0,0,0,0,0,
0,0,0,0,0,0,0,0,0,0,0,0,0,0,0,0,0,0,0,0,0,0,0,0,0,0,0,0,0,0,0,0,0,0,0,0,0,0,0,0,0,0,0,0,0,0,0,0,0,0,0,0,0,0,0,0,0,0,0,0,0,0,0,0,0,0,0,0,0,0,0,0,0,0,0,0,0,0,0,0,
0,0,0,0,0,0,0,0,0,0,0,0,0,0,0,0,0,0,0,0,0,0,0,0,0,0,0,0,0,0,0,0,0,0,0,0,0,0,0,0,0,0,0,0,0,0,0,0,0,0,0,0,0,0,0,0,0,0,0,0,0,0,0,0,0,0,0,0,0,0,0,0,0,0,0,0,0,0,0,0,
0,0,0,0,0,0,0,0,0,0,0,0,0,0,0,0,0,0,0,0,0,0,0,0,0,0,0,0,0,0,0,0,0,0,0,0,0,0,0,0,0,0,0,0,0,0,0,0,0,0,0,0,0,0,0,0,0,0,0,0,0,0,0,0,0,0,0,0,0,0,0,0,0,0,0,0,0,0,0,0,
0,0,0,0,0,0,0,0,0,0,0,0,0,0,0,0,0,0,0,0,0,0,0,0,0,0,0,0,0,0,0,0,0,0,0,0,0,0,0,0,0,0,0,0,0,0,0,0,0,0,0,0,0,0,0,0,0,0,0,0,0,0,0,0,0,0,0,0,0,0,0,0,0,137,0,412,7,8,9,255,
0,0,0,0,0,0,545,233,0,0,0,0,0,0,0,0,0,0,0,0,0,0,0,0,0,0,0,0,0,0,0,0,0,0,0,0,0,0,0,0,0,0,0,0,0,0,0,0,0,0,0,0,0,0,0,0,0,0,0,0,0,0,0,0,0,0,0,0,0,0,0,0,0,0,233,437,32,33,34,35,
0,0,0,0,0,0,0,0,0,0,0,0,0,0,0,0,0,0,0,0,0,0,0,0,0,0,0,0,0,0,0,0,0,0,0,0,0,0,0,0,0,0,0,0,0,0,0,0,0,0,0,0,0,0,0,0,0,0,0,0,0,0,0,0,0,0,0,0,0,0,0,0,0,0,0,255,57,58,59,60,
0,0,0,0,0,0,0,0,0,0,0,0,0,0,0,0,0,0,0,0,0,0,0,0,0,0,0,0,0,0,0,0,0,0,0,0,0,0,0,0,0,0,0,0,0,0,0,0,0,0,0,0,0,0,0,0,0,0,0,0,0,0,0,0,0,0,0,0,0,0,0,0,0,0,0,0,82,83,84,85,
0,0,0,0,0,0,0,0,0,0,0,0,0,0,0,0,0,0,0,0,0,0,0,0,0,0,0,0,0,0,0,0,0,0,0,0,0,0,0,0,0,0,0,0,0,0,0,0,0,0,0,0,0,0,0,0,0,0,0,0,0,0,0,0,0,0,0,0,0,0,0,0,0,0,0,0,107,108,109,0,
0,0,0,0,0,0,0,0,0,0,0,0,0,0,0,0,0,0,0,0,0,0,0,0,0,0,0,0,0,0,0,0,0,0,0,0,0,0,0,0,0,0,0,0,0,0,0,0,0,0,0,0,0,0,0,0,0,0,0,0,0,0,0,0,0,0,0,0,0,0,0,0,0,0,0,11,0,133,134,255,
0,0,0,0,0,0,0,0,0,0,0,0,0,0,0,0,0,0,0,0,0,0,0,0,0,0,0,0,0,0,0,0,0,0,0,0,0,0,0,0,0,0,0,0,0,0,0,0,0,0,0,0,0,0,0,0,0,0,0,0,0,0,0,0,0,0,0,0,0,0,0,0,0,0,0,0,0,158,159,160,
0,0,0,0,0,0,0,0,0,0,0,0,0,0,0,0,0,0,0,0,0,0,0,0,0,0,0,0,0,0,0,0,0,0,0,0,0,0,0,0,0,0,0,0,0,0,0,0,0,0,0,0,0,0,0,0,0,0,0,0,0,0,0,0,0,0,0,0,0,0,0,0,0,0,0,0,0,0,0,0,
0,0,0,0,0,0,0,0,0,0,0,0,0,0,0,0,0,0,0,0,0,0,0,0,0,0,0,0,0,0,0,0,0,0,0,0,0,0,0,0,0,0,0,0,0,0,0,0,0,0,0,0,0,0,0,0,0,0,0,0,0,0,0,0,0,0,0,0,0,0,0,0,0,0,0,0,0,0,306,12,
0,0,0,0,0,0,0,0,0,0,0,0,0,0,0,0,0,0,0,0,0,0,0,0,0,0,0,0,0,0,0,0,0,0,0,0,0,0,0,0,0,0,0,0,0,0,0,0,0,0,0,0,0,0,0,0,0,0,0,0,0,0,0,0,0,0,0,0,0,0,0,0,0,0,0,0,0,113,36,37,
0,0,0,0,0,0,0,0,0,0,0,0,0,0,0,0,0,0,0,0,0,0,0,0,0,0,0,0,0,0,0,0,0,0,0,0,0,0,0,0,0,0,0,0,0,0,0,0,0,0,0,0,0,0,0,0,0,0,0,0,0,0,0,0,0,0,0,0,0,0,0,0,0,0,0,0,0,138,61,62,
0,0,0,0,0,0,0,0,0,0,0,0,0,0,0,0,0,0,0,0,0,0,0,0,0,0,0,0,0,0,0,0,0,0,0,0,0,0,0,0,0,0,0,0,0,0,0,0,0,0,0,0,0,0,0,0,0,0,0,0,0,0,0,0,0,0,0,0,0,0,0,0,0,0,0,11,12,13,86,87,
0,0,0,0,0,0,0,0,0,0,0,0,0,0,0,0,0,0,0,0,0,0,0,0,0,0,0,0,0,0,0,0,0,0,0,0,0,0,0,0,0,0,0,0,0,0,0,0,0,0,0,0,0,0,0,0,0,0,0,0,0,0,0,0,0,0,0,0,0,0,0,0,0,0,0,36,37,38,306,112,
0,0,0,0,0,0,0,0,0,0,0,0,0,0,0,0,0,0,0,0,0,0,0,0,0,0,0,0,0,0,0,0,0,0,0,0,0,0,0,0,0,0,0,0,0,0,0,0,0,0,0,0,0,0,0,0,0,0,0,0,0,0,0,0,0,0,0,0,0,0,0,0,0,0,0,61,62,63,136,137,
0,0,0,0,0,0,0,0,0,0,0,0,0,0,0,0,0,0,0,0,0,0,0,0,0,0,0,0,0,0,0,0,0,0,0,0,0,0,0,0,0,0,0,0,0,0,0,0,0,0,0,0,0,0,0,0,0,0,0,0,0,0,0,0,0,0,0,0,0,0,0,0,0,0,0,86,87,88,0,0,
0,0,0,0,0,0,0,0,0,0,0,0,0,0,0,0,0,0,0,0,0,0,0,0,0,0,0,0,0,0,0,0,0,0,0,0,0,0,0,0,0,0,0,0,0,0,0,0,0,0,0,0,0,0,0,0,0,0,0,0,0,0,0,0,0,0,0,0,0,0,0,0,0,0,0,0,112,113,306,0,
0,0,0,0,0,0,0,0,0,0,0,0,0,0,0,0,0,0,0,0,0,0,0,0,0,0,0,0,0,0,0,0,0,0,0,0,0,0,0,0,0,0,0,0,0,0,0,0,0,0,0,0,0,0,0,0,0,0,0,0,0,0,0,0,0,0,0,0,0,0,0,0,0,0,0,136,137,306,0,0,
0,0,0,0,0,0,0,0,0,0,0,0,0,0,0,0,0,0,0,0,0,0,0,0,0,0,0,0,0,0,0,0,0,0,0,0,0,0,0,0,0,0,0,0,0,0,0,0,0,0,0,0,0,0,0,0,0,0,0,0,0,0,0,0,0,0,0,0,0,0,0,0,0,0,0,0,0,0,0,0,
0,0,0,0,0,0,0,0,0,0,0,0,0,0,0,0,0,0,0,0,0,0,0,0,0,0,0,0,0,0,0,0,0,0,0,0,0,0,0,0,0,0,0,0,0,0,0,0,0,0,0,0,0,0,0,0,0,0,0,0,0,0,0,0,0,0,0,0,0,0,0,0,0,0,0,0,0,0,0,0,
0,11,12,13,0,0,0,0,0,0,0,0,0,0,0,0,0,0,0,0,0,0,0,0,0,0,0,0,0,0,0,0,0,0,0,0,0,0,0,0,0,0,0,0,0,0,0,0,0,0,0,0,0,0,0,0,0,0,0,0,0,0,0,0,0,0,0,0,0,0,0,0,0,0,0,0,0,7,8,9,
0,36,37,38,0,0,0,0,0,0,0,0,0,0,0,0,0,0,0,0,0,0,0,0,0,0,0,0,0,0,0,0,0,0,0,0,0,0,0,0,0,0,0,0,0,0,0,0,0,0,0,0,0,0,0,0,0,0,0,0,0,0,0,0,0,0,0,0,0,0,0,0,0,0,0,0,255,32,33,34,
0,61,62,63,0,0,0,0,0,0,0,0,0,0,0,0,0,0,0,0,0,0,0,0,0,0,0,0,0,0,0,0,0,0,0,0,0,0,0,0,0,0,0,0,0,0,0,0,0,0,0,0,0,0,0,0,0,0,0,0,0,0,0,0,0,0,0,0,0,0,0,0,0,0,0,0,38,57,58,59,
0,86,87,88,0,36,0,0,0,0,0,0,0,0,0,0,0,0,0,0,0,0,0,0,0,0,0,0,0,0,0,0,0,0,0,0,0,0,0,0,0,0,0,0,0,0,0,0,0,0,0,0,0,0,0,0,0,0,0,0,0,0,0,0,0,0,0,0,0,0,0,0,0,0,0,0,63,82,83,84,
0,0,112,113,0,61,0,0,0,0,0,0,0,0,0,0,0,0,0,0,0,0,0,0,0,0,0,0,0,0,0,0,0,0,0,0,0,0,0,0,0,0,0,0,0,0,0,0,0,0,0,0,0,0,0,0,0,0,0,0,0,0,0,0,0,0,0,0,0,0,0,0,0,0,0,0,88,107,108,109
</data>
 </layer>
</map>
